FILES/01-9df79fd1.cube
TITLE "/Users/aaronseiha/Desktop/Original Green"
LUT_3D_SIZE 32
0.000000 0.000000 0.000000
0.000000 0.000000 0.000000
0.003922 0.003922 0.003922
0.003922 0.003922 0.000000
0.011765 0.003922 0.007843
0.011765 0.007843 0.000000
0.019608 0.003922 0.000000
0.039216 0.019608 0.003922
0.047059 0.015686 0.003922
0.062745 0.019608 0.003922
0.078431 0.027451 0.000000
0.105882 0.031373 0.003922
0.133333 0.035294 0.007843
0.156863 0.047059 0.003922
0.188235 0.054902 0.007843
0.227451 0.062745 0.007843
0.274510 0.086275 0.007843
0.321569 0.094118 0.007843
0.360784 0.105882 0.019608
0.411765 0.129412 0.031373
0.447059 0.156863 0.019608
0.505882 0.180392 0.023529
0.560784 0.203922 0.027451
0.611765 0.231373 0.031373
0.670588 0.266667 0.035294
0.725490 0.305882 0.023529
0.792157 0.349020 0.035294
0.847059 0.396078 0.039216
0.898039 0.435294 0.043137
0.941176 0.478431 0.047059
0.988235 0.521569 0.058824
1.000000 0.549020 0.082353
0.003922 0.003922 0.003922
0.000000 0.000000 0.000000
0.003922 0.003922 0.003922
0.003922 0.003922 0.003922
0.007843 0.003922 0.000000
0.015686 0.011765 0.003922
0.015686 0.011765 0.000000
0.043137 0.023529 0.007843
0.054902 0.019608 0.000000
0.066667 0.031373 0.003922
0.082353 0.031373 0.000000
0.105882 0.039216 0.000000
0.121569 0.043137 0.007843
0.160784 0.050980 0.007843
0.188235 0.062745 0.011765
0.227451 0.074510 0.007843
0.278431 0.090196 0.011765
0.321569 0.101961 0.011765
0.356863 0.113725 0.015686
0.407843 0.137255 0.015686
0.450980 0.160784 0.015686
0.505882 0.184314 0.027451
0.556863 0.211765 0.031373
0.619608 0.239216 0.039216
0.674510 0.270588 0.039216
0.733333 0.313726 0.031373
0.792157 0.356863 0.039216
0.850980 0.400000 0.035294
0.901961 0.439216 0.047059
0.945098 0.482353 0.050980
0.988235 0.521569 0.066667
1.000000 0.556863 0.078431
0.000000 0.000000 0.000000
0.003922 0.003922 0.003922
0.003922 0.003922 0.003922
0.003922 0.003922 0.003922
0.007843 0.007843 0.000000
0.015686 0.015686 0.007843
0.019608 0.015686 0.000000
0.043137 0.023529 0.007843
0.050980 0.023529 0.000000
0.066667 0.031373 0.003922
0.086275 0.035294 0.003922
0.109804 0.043137 0.003922
0.129412 0.050980 0.007843
0.164706 0.054902 0.007843
0.196078 0.066667 0.007843
0.227451 0.074510 0.007843
0.286275 0.098039 0.011765
0.325490 0.105882 0.015686
0.364706 0.125490 0.015686
0.407843 0.149020 0.023529
0.458824 0.168627 0.031373
0.509804 0.192157 0.023529
0.564706 0.219608 0.039216
0.619608 0.247059 0.035294
0.674510 0.282353 0.039216
0.737255 0.317647 0.035294
0.800000 0.364706 0.043137
0.854902 0.403922 0.039216
0.901961 0.447059 0.050980
0.945098 0.490196 0.054902
0.992157 0.525490 0.070588
0.996078 0.564706 0.082353
0.000000 0.003922 0.000000
0.000000 0.007843 0.000000
0.007843 0.015686 0.003922
0.003922 0.011765 0.000000
0.011765 0.011765 0.003922
0.015686 0.019608 0.000000
0.023529 0.019608 0.003922
0.039216 0.027451 0.000000
0.043137 0.023529 0.000000
0.066667 0.031373 0.003922
0.090196 0.039216 0.007843
0.117647 0.047059 0.007843
0.145098 0.050980 0.003922
0.172549 0.062745 0.007843
0.200000 0.078431 0.007843
0.231373 0.086275 0.015686
0.290196 0.109804 0.015686
0.329412 0.117647 0.007843
0.368627 0.137255 0.019608
0.411765 0.160784 0.019608
0.458824 0.176471 0.019608
0.513726 0.207843 0.027451
0.564706 0.227451 0.035294
0.623529 0.258824 0.035294
0.674510 0.290196 0.035294
0.737255 0.333333 0.039216
0.800000 0.372549 0.039216
0.854902 0.411765 0.043137
0.901961 0.458824 0.050980
0.949020 0.494118 0.058824
0.988235 0.537255 0.070588
0.996078 0.572549 0.086275
0.003922 0.011765 0.007843
0.007843 0.015686 0.011765
0.007843 0.015686 0.011765
0.007843 0.015686 0.011765
0.011765 0.011765 0.003922
0.015686 0.015686 0.007843
0.027451 0.023529 0.007843
0.039216 0.027451 0.007843
0.047059 0.035294 0.007843
0.074510 0.039216 0.011765
0.086275 0.047059 0.007843
0.125490 0.054902 0.007843
0.149020 0.062745 0.007843
0.172549 0.070588 0.011765
0.203922 0.082353 0.011765
0.235294 0.090196 0.015686
0.294118 0.113725 0.019608
0.329412 0.129412 0.015686
0.368627 0.149020 0.019608
0.415686 0.172549 0.019608
0.470588 0.188235 0.031373
0.517647 0.211765 0.031373
0.568627 0.243137 0.031373
0.623529 0.270588 0.035294
0.686275 0.305882 0.039216
0.745098 0.341176 0.039216
0.811765 0.384314 0.050980
0.866667 0.423529 0.054902
0.909804 0.466667 0.058824
0.952941 0.505882 0.066667
0.992157 0.541176 0.082353
1.000000 0.572549 0.098039
0.007843 0.015686 0.003922
0.011765 0.019608 0.007843
0.007843 0.015686 0.003922
0.007843 0.015686 0.000000
0.011765 0.019608 0.000000
0.015686 0.023529 0.003922
0.023529 0.027451 0.007843
0.035294 0.031373 0.011765
0.054902 0.035294 0.011765
0.070588 0.043137 0.003922
0.090196 0.050980 0.015686
0.121569 0.058824 0.007843
0.145098 0.070588 0.011765
0.176471 0.074510 0.007843
0.211765 0.090196 0.011765
0.239216 0.101961 0.015686
0.298039 0.125490 0.019608
0.341176 0.141176 0.019608
0.376471 0.156863 0.027451
0.423529 0.180392 0.027451
0.470588 0.200000 0.035294
0.525490 0.227451 0.035294
0.572549 0.254902 0.039216
0.631373 0.278431 0.035294
0.690196 0.321569 0.047059
0.749020 0.356863 0.050980
0.807843 0.400000 0.050980
0.858824 0.435294 0.050980
0.913725 0.478431 0.066667
0.956863 0.517647 0.078431
0.996078 0.552941 0.090196
1.000000 0.584314 0.105882
0.015686 0.023529 0.003922
0.015686 0.023529 0.003922
0.011765 0.019608 0.007843
0.011765 0.019608 0.007843
0.015686 0.023529 0.003922
0.019608 0.027451 0.007843
0.027451 0.039216 0.011765
0.035294 0.039216 0.015686
0.054902 0.043137 0.007843
0.066667 0.050980 0.007843
0.090196 0.058824 0.007843
0.117647 0.066667 0.003922
0.160784 0.074510 0.019608
0.184314 0.082353 0.015686
0.211765 0.101961 0.019608
0.239216 0.113725 0.015686
0.301961 0.141176 0.031373
0.345098 0.152941 0.027451
0.380392 0.176471 0.031373
0.427451 0.196078 0.031373
0.482353 0.219608 0.043137
0.533333 0.247059 0.047059
0.584314 0.274510 0.054902
0.631373 0.301961 0.050980
0.698039 0.333333 0.058824
0.760784 0.368627 0.062745
0.811765 0.415686 0.062745
0.862745 0.454902 0.066667
0.909804 0.490196 0.074510
0.960784 0.529412 0.086275
0.996078 0.560784 0.105882
1.000000 0.600000 0.125490
0.019608 0.027451 0.007843
0.019608 0.027451 0.007843
0.019608 0.027451 0.007843
0.023529 0.031373 0.011765
0.023529 0.031373 0.011765
0.023529 0.031373 0.011765
0.031373 0.039216 0.019608
0.035294 0.047059 0.019608
0.054902 0.054902 0.007843
0.070588 0.062745 0.015686
0.094118 0.070588 0.015686
0.121569 0.074510 0.019608
0.141176 0.090196 0.023529
0.172549 0.101961 0.023529
0.211765 0.113725 0.027451
0.247059 0.121569 0.023529
0.309804 0.149020 0.031373
0.345098 0.164706 0.035294
0.392157 0.188235 0.043137
0.439216 0.207843 0.050980
0.490196 0.227451 0.050980
0.541176 0.254902 0.054902
0.596078 0.286275 0.062745
0.647059 0.313726 0.058824
0.701961 0.345098 0.066667
0.764706 0.384314 0.066667
0.827451 0.431373 0.078431
0.870588 0.462745 0.082353
0.917647 0.505882 0.094118
0.960784 0.537255 0.101961
0.996078 0.580392 0.117647
1.000000 0.611765 0.141176
0.019608 0.039216 0.011765
0.023529 0.043137 0.015686
0.019608 0.039216 0.011765
0.023529 0.043137 0.015686
0.023529 0.043137 0.015686
0.023529 0.043137 0.015686
0.039216 0.050980 0.023529
0.039216 0.050980 0.023529
0.050980 0.062745 0.019608
0.070588 0.070588 0.023529
0.090196 0.082353 0.023529
0.117647 0.090196 0.019608
0.145098 0.101961 0.023529
0.176471 0.109804 0.031373
0.207843 0.121569 0.031373
0.250980 0.133333 0.031373
0.313726 0.160784 0.047059
0.356863 0.180392 0.050980
0.396078 0.200000 0.054902
0.447059 0.223529 0.054902
0.490196 0.247059 0.062745
0.541176 0.266667 0.062745
0.596078 0.298039 0.062745
0.647059 0.329412 0.070588
0.709804 0.364706 0.082353
0.764706 0.403922 0.078431
0.831373 0.447059 0.090196
0.874510 0.482353 0.098039
0.921569 0.517647 0.105882
0.964706 0.556863 0.121569
0.996078 0.592157 0.129412
0.996078 0.623529 0.152941
0.039216 0.050980 0.023529
0.043137 0.054902 0.027451
0.039216 0.050980 0.023529
0.039216 0.050980 0.023529
0.035294 0.054902 0.027451
0.035294 0.054902 0.027451
0.039216 0.058824 0.031373
0.047059 0.058824 0.031373
0.047059 0.070588 0.023529
0.062745 0.078431 0.023529
0.086275 0.094118 0.039216
0.113725 0.101961 0.035294
0.145098 0.117647 0.043137
0.172549 0.125490 0.039216
0.207843 0.137255 0.043137
0.247059 0.145098 0.039216
0.309804 0.172549 0.047059
0.360784 0.192157 0.058824
0.400000 0.211765 0.062745
0.447059 0.231373 0.070588
0.494118 0.254902 0.070588
0.556863 0.282353 0.078431
0.603922 0.309804 0.082353
0.658824 0.341176 0.082353
0.721569 0.384314 0.098039
0.772549 0.415686 0.090196
0.831373 0.458824 0.105882
0.882353 0.498039 0.117647
0.921569 0.533333 0.125490
0.964706 0.572549 0.133333
1.000000 0.603922 0.156863
1.000000 0.635294 0.172549
0.047059 0.070588 0.023529
0.047059 0.070588 0.023529
0.047059 0.070588 0.023529
0.043137 0.066667 0.019608
0.047059 0.070588 0.031373
0.047059 0.070588 0.031373
0.047059 0.078431 0.035294
0.050980 0.074510 0.035294
0.054902 0.086275 0.043137
0.066667 0.090196 0.043137
0.090196 0.105882 0.050980
0.113725 0.117647 0.054902
0.141176 0.129412 0.054902
0.168627 0.137255 0.054902
0.207843 0.149020 0.058824
0.247059 0.164706 0.058824
0.309804 0.188235 0.066667
0.356863 0.203922 0.074510
0.403922 0.223529 0.082353
0.454902 0.247059 0.082353
0.498039 0.270588 0.082353
0.552941 0.298039 0.086275
0.607843 0.325490 0.098039
0.666667 0.360784 0.101961
0.721569 0.392157 0.105882
0.788235 0.431373 0.113725
0.843137 0.474510 0.129412
0.890196 0.509804 0.129412
0.929412 0.549020 0.145098
0.968627 0.584314 0.156863
0.996078 0.611765 0.176471
1.000000 0.650980 0.196078
0.058824 0.082353 0.027451
0.062745 0.086275 0.031373
0.058824 0.082353 0.027451
0.062745 0.086275 0.031373
0.062745 0.086275 0.039216
0.062745 0.086275 0.039216
0.062745 0.094118 0.043137
0.058824 0.090196 0.039216
0.070588 0.101961 0.050980
0.074510 0.105882 0.054902
0.090196 0.113725 0.058824
0.109804 0.125490 0.066667
0.137255 0.141176 0.070588
0.172549 0.152941 0.074510
0.200000 0.168627 0.078431
0.243137 0.180392 0.078431
0.309804 0.203922 0.086275
0.356863 0.223529 0.086275
0.403922 0.239216 0.090196
0.454902 0.262745 0.101961
0.505882 0.282353 0.105882
0.556863 0.309804 0.101961
0.615686 0.341176 0.109804
0.678431 0.372549 0.121569
0.729412 0.407843 0.121569
0.784314 0.443137 0.129412
0.850980 0.490196 0.149020
0.894118 0.521569 0.152941
0.929412 0.564706 0.160784
0.968627 0.596078 0.180392
1.000000 0.627451 0.196078
1.000000 0.654902 0.223529
0.078431 0.105882 0.043137
0.078431 0.101961 0.047059
0.078431 0.101961 0.047059
0.078431 0.101961 0.047059
0.082353 0.105882 0.050980
0.074510 0.105882 0.054902
0.078431 0.109804 0.058824
0.074510 0.105882 0.054902
0.082353 0.113725 0.070588
0.094118 0.117647 0.070588
0.101961 0.133333 0.082353
0.113725 0.137255 0.082353
0.141176 0.156863 0.090196
0.160784 0.168627 0.086275
0.203922 0.184314 0.098039
0.239216 0.200000 0.094118
0.305882 0.223529 0.101961
0.352941 0.239216 0.105882
0.403922 0.254902 0.113725
0.454902 0.278431 0.117647
0.501961 0.301961 0.125490
0.564706 0.329412 0.133333
0.627451 0.356863 0.133333
0.682353 0.384314 0.141176
0.737255 0.423529 0.145098
0.796078 0.462745 0.149020
0.850980 0.505882 0.164706
0.894118 0.537255 0.172549
0.937255 0.576471 0.188235
0.972549 0.607843 0.203922
1.000000 0.643137 0.231373
1.000000 0.670588 0.254902
0.098039 0.125490 0.062745
0.098039 0.125490 0.062745
0.094118 0.121569 0.058824
0.098039 0.125490 0.062745
0.094118 0.125490 0.066667
0.098039 0.121569 0.066667
0.101961 0.125490 0.070588
0.098039 0.129412 0.070588
0.101961 0.133333 0.090196
0.105882 0.137255 0.094118
0.113725 0.145098 0.094118
0.125490 0.156863 0.105882
0.137255 0.172549 0.105882
0.168627 0.184314 0.117647
0.200000 0.196078 0.117647
0.239216 0.215686 0.121569
0.301961 0.243137 0.129412
0.352941 0.262745 0.137255
0.403922 0.274510 0.137255
0.450980 0.298039 0.145098
0.505882 0.321569 0.149020
0.564706 0.345098 0.145098
0.627451 0.372549 0.160784
0.682353 0.400000 0.168627
0.745098 0.435294 0.172549
0.800000 0.474510 0.176471
0.854902 0.517647 0.192157
0.901961 0.549020 0.203922
0.941176 0.584314 0.219608
0.972549 0.619608 0.239216
1.000000 0.654902 0.262745
1.000000 0.678431 0.278431
0.113725 0.149020 0.082353
0.117647 0.152941 0.086275
0.113725 0.149020 0.082353
0.113725 0.149020 0.082353
0.121569 0.149020 0.086275
0.117647 0.149020 0.090196
0.117647 0.149020 0.090196
0.117647 0.149020 0.098039
0.117647 0.160784 0.098039
0.117647 0.160784 0.105882
0.121569 0.164706 0.109804
0.129412 0.172549 0.117647
0.145098 0.188235 0.125490
0.172549 0.200000 0.137255
0.200000 0.219608 0.141176
0.235294 0.231373 0.149020
0.301961 0.266667 0.152941
0.345098 0.282353 0.152941
0.400000 0.298039 0.160784
0.450980 0.317647 0.168627
0.505882 0.345098 0.172549
0.564706 0.360784 0.172549
0.631373 0.392157 0.180392
0.690196 0.419608 0.188235
0.745098 0.458824 0.192157
0.803922 0.490196 0.203922
0.862745 0.529412 0.215686
0.909804 0.560784 0.231373
0.949020 0.596078 0.250980
0.976471 0.635294 0.270588
1.000000 0.666667 0.301961
1.000000 0.690196 0.317647
0.137255 0.172549 0.098039
0.137255 0.172549 0.098039
0.137255 0.172549 0.098039
0.137255 0.172549 0.098039
0.141176 0.168627 0.098039
0.137255 0.172549 0.105882
0.137255 0.172549 0.105882
0.133333 0.176471 0.113725
0.137255 0.180392 0.125490
0.141176 0.184314 0.129412
0.141176 0.184314 0.129412
0.149020 0.192157 0.137255
0.160784 0.203922 0.149020
0.184314 0.215686 0.156863
0.203922 0.231373 0.168627
0.235294 0.247059 0.172549
0.298039 0.282353 0.184314
0.341176 0.305882 0.184314
0.396078 0.321569 0.192157
0.443137 0.345098 0.188235
0.501961 0.364706 0.200000
0.568627 0.384314 0.203922
0.631373 0.415686 0.203922
0.686275 0.443137 0.211765
0.749020 0.478431 0.223529
0.807843 0.505882 0.231373
0.858824 0.549020 0.247059
0.905882 0.580392 0.266667
0.945098 0.615686 0.278431
0.976471 0.647059 0.301961
1.000000 0.682353 0.333333
1.000000 0.705882 0.360784
0.176471 0.211765 0.137255
0.176471 0.211765 0.137255
0.176471 0.211765 0.137255
0.180392 0.215686 0.141176
0.180392 0.215686 0.141176
0.180392 0.215686 0.141176
0.172549 0.215686 0.149020
0.172549 0.215686 0.149020
0.184314 0.219608 0.152941
0.184314 0.215686 0.156863
0.184314 0.227451 0.172549
0.184314 0.231373 0.176471
0.188235 0.235294 0.188235
0.200000 0.247059 0.192157
0.211765 0.262745 0.196078
0.235294 0.278431 0.211765
0.294118 0.305882 0.231373
0.337255 0.329412 0.231373
0.392157 0.356863 0.235294
0.439216 0.384314 0.247059
0.498039 0.407843 0.247059
0.560784 0.427451 0.250980
0.623529 0.450980 0.258824
0.686275 0.486275 0.270588
0.752941 0.509804 0.278431
0.811765 0.541176 0.286275
0.866667 0.572549 0.305882
0.913725 0.607843 0.317647
0.949020 0.643137 0.349020
0.976471 0.674510 0.360784
1.000000 0.701961 0.396078
1.000000 0.729412 0.423529
0.203922 0.239216 0.156863
0.203922 0.239216 0.156863
0.203922 0.239216 0.156863
0.207843 0.243137 0.160784
0.200000 0.247059 0.160784
0.207843 0.243137 0.168627
0.200000 0.247059 0.168627
0.203922 0.247059 0.180392
0.211765 0.247059 0.180392
0.203922 0.247059 0.180392
0.207843 0.258824 0.192157
0.207843 0.258824 0.192157
0.211765 0.258824 0.203922
0.215686 0.270588 0.211765
0.227451 0.282353 0.231373
0.250980 0.298039 0.243137
0.294118 0.329412 0.262745
0.337255 0.349020 0.266667
0.392157 0.376471 0.270588
0.439216 0.403922 0.282353
0.505882 0.427451 0.290196
0.564706 0.450980 0.294118
0.631373 0.482353 0.298039
0.690196 0.509804 0.305882
0.756863 0.541176 0.321569
0.811765 0.568627 0.329412
0.866667 0.600000 0.345098
0.905882 0.631373 0.360784
0.949020 0.662745 0.392157
0.972549 0.690196 0.407843
0.992157 0.717647 0.435294
1.000000 0.752941 0.470588
0.227451 0.274510 0.180392
0.227451 0.274510 0.180392
0.227451 0.274510 0.180392
0.227451 0.274510 0.188235
0.235294 0.274510 0.180392
0.235294 0.270588 0.188235
0.235294 0.270588 0.188235
0.239216 0.274510 0.200000
0.239216 0.274510 0.207843
0.231373 0.274510 0.207843
0.235294 0.286275 0.219608
0.239216 0.286275 0.231373
0.239216 0.294118 0.243137
0.243137 0.298039 0.247059
0.254902 0.309804 0.258824
0.274510 0.321569 0.274510
0.305882 0.356863 0.290196
0.341176 0.376471 0.294118
0.388235 0.396078 0.309804
0.443137 0.427451 0.321569
0.501961 0.450980 0.325490
0.564706 0.478431 0.333333
0.631373 0.505882 0.345098
0.686275 0.537255 0.352941
0.749020 0.560784 0.368627
0.811765 0.596078 0.376471
0.862745 0.627451 0.392157
0.909804 0.650980 0.411765
0.941176 0.686275 0.435294
0.976471 0.709804 0.454902
0.992157 0.737255 0.478431
1.000000 0.760784 0.513726
0.258824 0.309804 0.207843
0.258824 0.309804 0.207843
0.258824 0.305882 0.211765
0.262745 0.309804 0.215686
0.258824 0.305882 0.211765
0.262745 0.309804 0.215686
0.262745 0.309804 0.223529
0.266667 0.313726 0.235294
0.262745 0.309804 0.231373
0.270588 0.313726 0.247059
0.274510 0.317647 0.254902
0.270588 0.321569 0.254902
0.274510 0.321569 0.274510
0.274510 0.329412 0.278431
0.286275 0.337255 0.298039
0.298039 0.352941 0.301961
0.325490 0.380392 0.329412
0.356863 0.400000 0.337255
0.403922 0.419608 0.352941
0.443137 0.450980 0.364706
0.501961 0.482353 0.368627
0.564706 0.505882 0.376471
0.627451 0.533333 0.384314
0.690196 0.568627 0.396078
0.745098 0.596078 0.411765
0.807843 0.627451 0.431373
0.854902 0.654902 0.439216
0.901961 0.682353 0.458824
0.941176 0.709804 0.482353
0.964706 0.733333 0.505882
0.988235 0.756863 0.529412
1.000000 0.784314 0.560784
0.294118 0.345098 0.243137
0.294118 0.345098 0.243137
0.294118 0.345098 0.243137
0.298039 0.349020 0.247059
0.298039 0.345098 0.250980
0.298039 0.345098 0.250980
0.298039 0.345098 0.258824
0.298039 0.345098 0.258824
0.301961 0.349020 0.262745
0.305882 0.352941 0.274510
0.298039 0.349020 0.278431
0.305882 0.352941 0.298039
0.309804 0.360784 0.294118
0.309804 0.364706 0.305882
0.317647 0.372549 0.321569
0.329412 0.380392 0.341176
0.352941 0.403922 0.364706
0.376471 0.423529 0.376471
0.407843 0.450980 0.388235
0.450980 0.478431 0.407843
0.509804 0.509804 0.415686
0.564706 0.537255 0.423529
0.631373 0.568627 0.435294
0.686275 0.600000 0.447059
0.741176 0.627451 0.462745
0.803922 0.654902 0.478431
0.854902 0.682353 0.490196
0.905882 0.709804 0.517647
0.929412 0.733333 0.525490
0.956863 0.756863 0.549020
0.980392 0.776471 0.580392
0.988235 0.803922 0.600000
0.345098 0.384314 0.286275
0.345098 0.384314 0.286275
0.345098 0.384314 0.286275
0.345098 0.384314 0.286275
0.337255 0.388235 0.286275
0.337255 0.388235 0.286275
0.337255 0.384314 0.290196
0.341176 0.388235 0.301961
0.337255 0.392157 0.301961
0.341176 0.392157 0.313726
0.341176 0.392157 0.321569
0.345098 0.396078 0.329412
0.352941 0.396078 0.341176
0.356863 0.403922 0.356863
0.356863 0.411765 0.360784
0.372549 0.427451 0.376471
0.380392 0.443137 0.403922
0.400000 0.462745 0.419608
0.435294 0.482353 0.435294
0.466667 0.509804 0.454902
0.521569 0.541176 0.462745
0.576471 0.568627 0.478431
0.639216 0.603922 0.490196
0.686275 0.627451 0.498039
0.745098 0.658824 0.513726
0.800000 0.686275 0.529412
0.847059 0.713726 0.537255
0.890196 0.741176 0.564706
0.925490 0.756863 0.580392
0.952941 0.780392 0.596078
0.972549 0.800000 0.623529
0.988235 0.819608 0.643137
0.388235 0.427451 0.321569
0.392157 0.431373 0.325490
0.388235 0.427451 0.321569
0.392157 0.431373 0.333333
0.384314 0.435294 0.333333
0.384314 0.435294 0.333333
0.384314 0.431373 0.337255
0.388235 0.435294 0.341176
0.388235 0.435294 0.341176
0.388235 0.435294 0.349020
0.384314 0.435294 0.356863
0.392157 0.443137 0.372549
0.400000 0.443137 0.380392
0.396078 0.443137 0.388235
0.400000 0.454902 0.403922
0.411765 0.466667 0.415686
0.431373 0.482353 0.447059
0.447059 0.498039 0.458824
0.470588 0.517647 0.478431
0.501961 0.541176 0.498039
0.541176 0.576471 0.509804
0.588235 0.600000 0.517647
0.639216 0.631373 0.533333
0.690196 0.662745 0.552941
0.745098 0.686275 0.564706
0.800000 0.709804 0.576471
0.843137 0.745098 0.588235
0.890196 0.764706 0.611765
0.917647 0.788235 0.627451
0.941176 0.803922 0.647059
0.968627 0.819608 0.666667
0.976471 0.839216 0.690196
0.439216 0.478431 0.372549
0.439216 0.478431 0.372549
0.443137 0.482353 0.376471
0.443137 0.482353 0.376471
0.431373 0.482353 0.380392
0.443137 0.482353 0.384314
0.443137 0.482353 0.384314
0.443137 0.482353 0.388235
0.439216 0.490196 0.388235
0.439216 0.486275 0.392157
0.435294 0.482353 0.396078
0.439216 0.490196 0.411765
0.447059 0.490196 0.423529
0.450980 0.501961 0.435294
0.450980 0.498039 0.443137
0.462745 0.509804 0.462745
0.478431 0.529412 0.494118
0.490196 0.541176 0.505882
0.513726 0.556863 0.525490
0.537255 0.584314 0.545098
0.564706 0.611765 0.556863
0.607843 0.635294 0.572549
0.658824 0.666667 0.584314
0.698039 0.690196 0.600000
0.752941 0.713726 0.607843
0.803922 0.745098 0.623529
0.843137 0.768627 0.639216
0.882353 0.788235 0.654902
0.913725 0.811765 0.674510
0.941176 0.823529 0.690196
0.964706 0.835294 0.705882
0.972549 0.854902 0.721569
0.501961 0.537255 0.415686
0.505882 0.541176 0.419608
0.505882 0.541176 0.427451
0.505882 0.541176 0.427451
0.505882 0.541176 0.427451
0.505882 0.541176 0.427451
0.505882 0.541176 0.435294
0.505882 0.541176 0.435294
0.494118 0.545098 0.435294
0.498039 0.549020 0.447059
0.498039 0.545098 0.450980
0.501961 0.549020 0.462745
0.505882 0.552941 0.474510
0.501961 0.552941 0.482353
0.513726 0.556863 0.494118
0.517647 0.560784 0.505882
0.529412 0.576471 0.529412
0.541176 0.584314 0.552941
0.560784 0.603922 0.572549
0.580392 0.623529 0.592157
0.603922 0.650980 0.611765
0.639216 0.670588 0.619608
0.682353 0.698039 0.639216
0.717647 0.721569 0.650980
0.764706 0.749020 0.650980
0.811765 0.772549 0.666667
0.850980 0.796078 0.690196
0.878431 0.811765 0.701961
0.913725 0.831373 0.709804
0.929412 0.847059 0.725490
0.956863 0.858824 0.741176
0.968627 0.870588 0.752941
0.572549 0.611765 0.478431
0.572549 0.611765 0.478431
0.572549 0.611765 0.478431
0.568627 0.607843 0.474510
0.572549 0.607843 0.486275
0.572549 0.607843 0.486275
0.572549 0.607843 0.494118
0.572549 0.607843 0.494118
0.568627 0.607843 0.501961
0.576471 0.611765 0.505882
0.576471 0.607843 0.513726
0.580392 0.611765 0.521569
0.572549 0.619608 0.533333
0.572549 0.619608 0.541176
0.572549 0.615686 0.552941
0.580392 0.623529 0.568627
0.592157 0.635294 0.580392
0.600000 0.647059 0.600000
0.611765 0.658824 0.619608
0.631373 0.670588 0.639216
0.643137 0.694118 0.654902
0.670588 0.709804 0.666667
0.705882 0.729412 0.674510
0.741176 0.756863 0.690196
0.780392 0.776471 0.698039
0.815686 0.796078 0.709804
0.850980 0.823529 0.721569
0.882353 0.835294 0.741176
0.913725 0.850980 0.749020
0.933333 0.866667 0.764706
0.952941 0.874510 0.776471
0.964706 0.886275 0.788235
0.654902 0.682353 0.552941
0.654902 0.682353 0.552941
0.654902 0.682353 0.552941
0.654902 0.682353 0.552941
0.654902 0.682353 0.560784
0.654902 0.682353 0.560784
0.658824 0.682353 0.572549
0.658824 0.682353 0.572549
0.647059 0.682353 0.576471
0.654902 0.690196 0.584314
0.662745 0.682353 0.592157
0.662745 0.682353 0.596078
0.658824 0.690196 0.607843
0.658824 0.686275 0.615686
0.654902 0.690196 0.615686
0.662745 0.698039 0.631373
0.670588 0.701961 0.650980
0.670588 0.709804 0.666667
0.678431 0.717647 0.674510
0.690196 0.729412 0.686275
0.705882 0.745098 0.709804
0.729412 0.760784 0.717647
0.749020 0.772549 0.725490
0.776471 0.792157 0.737255
0.800000 0.811765 0.745098
0.835294 0.831373 0.760784
0.854902 0.847059 0.764706
0.882353 0.858824 0.772549
0.913725 0.870588 0.784314
0.929412 0.882353 0.796078
0.949020 0.890196 0.800000
0.960784 0.898039 0.807843
0.717647 0.745098 0.615686
0.721569 0.749020 0.619608
0.721569 0.749020 0.619608
0.721569 0.749020 0.619608
0.721569 0.749020 0.627451
0.717647 0.745098 0.623529
0.721569 0.749020 0.627451
0.721569 0.749020 0.627451
0.725490 0.741176 0.643137
0.729412 0.745098 0.647059
0.725490 0.745098 0.654902
0.717647 0.749020 0.658824
0.721569 0.752941 0.662745
0.721569 0.752941 0.670588
0.721569 0.749020 0.678431
0.729412 0.756863 0.686275
0.729412 0.760784 0.701961
0.737255 0.768627 0.717647
0.733333 0.776471 0.721569
0.741176 0.780392 0.737255
0.764706 0.792157 0.760784
0.768627 0.800000 0.756863
