FILES/01-9df79fd1.cube
TITLE "/Users/aaronseiha/Desktop/Original Green"
LUT_3D_SIZE 5
DOMAIN_MIN 0.000000 0.000000 0.000000
DOMAIN_MAX 0.903226 0.903226 0.903226
0.000000 0.000000 0.000000
0.039216 0.019608 0.003922
0.188235 0.054902 0.007843
0.505882 0.180392 0.023529
0.898039 0.435294 0.043137
0.019608 0.027451 0.007843
0.035294 0.047059 0.019608
0.211765 0.113725 0.027451
0.541176 0.254902 0.054902
0.917647 0.505882 0.094118
0.113725 0.149020 0.082353
0.117647 0.149020 0.098039
0.200000 0.219608 0.141176
0.564706 0.360784 0.172549
0.949020 0.596078 0.250980
0.345098 0.384314 0.286275
0.341176 0.388235 0.301961
0.356863 0.411765 0.360784
0.576471 0.568627 0.478431
0.925490 0.756863 0.580392
0.784314 0.803922 0.686275
0.784314 0.800000 0.701961
0.788235 0.807843 0.729412
0.815686 0.839216 0.792157
0.929412 0.905882 0.843137
0.023529 0.031373 0.011765
0.035294 0.054902 0.027451
0.176471 0.105882 0.066667
0.537255 0.203922 0.090196
0.921569 0.447059 0.137255
0.058824 0.090196 0.047059
0.082353 0.113725 0.062745
0.258824 0.180392 0.082353
0.588235 0.313726 0.121569
0.937255 0.533333 0.172549
0.172549 0.219608 0.141176
0.176471 0.219608 0.156863
0.250980 0.278431 0.207843
0.627451 0.427451 0.243137
0.960784 0.635294 0.329412
0.400000 0.450980 0.349020
0.400000 0.454902 0.364706
0.419608 0.474510 0.423529
0.627451 0.619608 0.537255
0.925490 0.788235 0.631373
0.792157 0.811765 0.694118
0.796078 0.811765 0.705882
0.800000 0.811765 0.737255
0.827451 0.839216 0.796078
0.929412 0.905882 0.850980
0.113725 0.156863 0.101961
0.149020 0.192157 0.137255
0.211765 0.258824 0.211765
0.388235 0.400000 0.364706
0.886275 0.482353 0.454902
0.156863 0.203922 0.156863
0.188235 0.235294 0.180392
0.254902 0.309804 0.258824
0.564706 0.392157 0.380392
0.945098 0.549020 0.439216
0.301961 0.364706 0.313726
0.329412 0.400000 0.345098
0.400000 0.443137 0.380392
0.749020 0.568627 0.427451
0.976471 0.729412 0.521569
0.588235 0.627451 0.529412
0.588235 0.627451 0.533333
0.592157 0.631373 0.588235
0.729412 0.733333 0.662745
0.941176 0.843137 0.725490
0.850980 0.862745 0.756863
0.847059 0.854902 0.760784
0.850980 0.862745 0.788235
0.870588 0.878431 0.835294
0.937255 0.921569 0.874510
0.305882 0.356863 0.317647
0.321569 0.384314 0.341176
0.439216 0.490196 0.454902
0.600000 0.647059 0.607843
0.749020 0.780392 0.737255
0.337255 0.400000 0.356863
0.364706 0.427451 0.384314
0.478431 0.529412 0.494118
0.631373 0.678431 0.639216
0.784314 0.815686 0.772549
0.458824 0.509804 0.474510
0.494118 0.545098 0.509804
0.592157 0.635294 0.603922
0.721569 0.760784 0.725490
0.890196 0.850980 0.815686
0.745098 0.784314 0.741176
0.760784 0.803922 0.749020
0.803922 0.835294 0.784314
0.858824 0.858824 0.811765
0.968627 0.901961 0.839216
0.921569 0.925490 0.862745
0.913725 0.925490 0.858824
0.921569 0.925490 0.862745
0.929412 0.921569 0.874510
0.964706 0.941176 0.894118
0.690196 0.729412 0.694118
0.705882 0.745098 0.709804
0.752941 0.784314 0.741176
0.866667 0.878431 0.835294
0.917647 0.917647 0.878431
0.709804 0.749020 0.705882
0.725490 0.764706 0.729412
0.768627 0.800000 0.756863
0.870588 0.882353 0.839216
0.929412 0.917647 0.882353
0.764706 0.796078 0.752941
0.772549 0.803922 0.760784
0.811765 0.835294 0.796078
0.890196 0.898039 0.854902
0.937255 0.925490 0.890196
0.835294 0.858824 0.811765
0.847059 0.858824 0.815686
0.870588 0.882353 0.839216
0.917647 0.917647 0.878431
0.964706 0.949020 0.913725
0.949020 0.937255 0.901961
0.952941 0.941176 0.905882
0.964706 0.949020 0.913725
0.976471 0.960784 0.925490
0.992157 0.964706 0.933333
