FILES/01-9df79fd1.cube
TITLE "/Users/aaronseiha/Desktop/Original Green"
LUT_3D_SIZE 8
DOMAIN_MIN 0.000000 0.000000 0.000000
DOMAIN_MAX 0.903226 0.903226 0.903226
0.000000 0.000000 0.000000
0.011765 0.003922 0.007843
0.047059 0.015686 0.003922
0.133333 0.035294 0.007843
0.274510 0.086275 0.007843
0.447059 0.156863 0.019608
0.670588 0.266667 0.035294
0.898039 0.435294 0.043137
0.003922 0.011765 0.007843
0.011765 0.011765 0.003922
0.047059 0.035294 0.007843
0.149020 0.062745 0.007843
0.294118 0.113725 0.019608
0.470588 0.188235 0.031373
0.686275 0.305882 0.039216
0.909804 0.466667 0.058824
0.019608 0.039216 0.011765
0.023529 0.043137 0.015686
0.050980 0.062745 0.019608
0.145098 0.101961 0.023529
0.313726 0.160784 0.047059
0.490196 0.247059 0.062745
0.709804 0.364706 0.082353
0.921569 0.517647 0.105882
0.078431 0.105882 0.043137
0.082353 0.105882 0.050980
0.082353 0.113725 0.070588
0.141176 0.156863 0.090196
0.305882 0.223529 0.101961
0.501961 0.301961 0.125490
0.737255 0.423529 0.145098
0.937255 0.576471 0.188235
0.176471 0.211765 0.137255
0.180392 0.215686 0.141176
0.184314 0.219608 0.152941
0.188235 0.235294 0.188235
0.294118 0.305882 0.231373
0.498039 0.407843 0.247059
0.752941 0.509804 0.278431
0.949020 0.643137 0.349020
0.294118 0.345098 0.243137
0.298039 0.345098 0.250980
0.301961 0.349020 0.262745
0.309804 0.360784 0.294118
0.352941 0.403922 0.364706
0.509804 0.509804 0.415686
0.741176 0.627451 0.462745
0.929412 0.733333 0.525490
0.501961 0.537255 0.415686
0.505882 0.541176 0.427451
0.494118 0.545098 0.435294
0.505882 0.552941 0.474510
0.529412 0.576471 0.529412
0.603922 0.650980 0.611765
0.764706 0.749020 0.650980
0.913725 0.831373 0.709804
0.784314 0.803922 0.686275
0.784314 0.803922 0.686275
0.788235 0.803922 0.705882
0.784314 0.796078 0.713726
0.796078 0.811765 0.752941
0.807843 0.831373 0.784314
0.858824 0.866667 0.823529
0.929412 0.905882 0.843137
0.007843 0.015686 0.003922
0.003922 0.023529 0.007843
0.035294 0.031373 0.011765
0.141176 0.050980 0.019608
0.294118 0.105882 0.027451
0.466667 0.172549 0.047059
0.690196 0.286275 0.058824
0.909804 0.443137 0.082353
0.007843 0.027451 0.003922
0.027451 0.031373 0.007843
0.082353 0.054902 0.015686
0.168627 0.086275 0.019608
0.313726 0.141176 0.035294
0.490196 0.207843 0.050980
0.698039 0.325490 0.074510
0.917647 0.474510 0.098039
0.043137 0.066667 0.019608
0.047059 0.070588 0.031373
0.066667 0.094118 0.031373
0.168627 0.125490 0.047059
0.325490 0.188235 0.070588
0.505882 0.266667 0.082353
0.725490 0.388235 0.101961
0.929412 0.529412 0.133333
0.101961 0.129412 0.066667
0.098039 0.129412 0.070588
0.105882 0.137255 0.086275
0.156863 0.184314 0.113725
0.329412 0.247059 0.133333
0.525490 0.325490 0.149020
0.752941 0.443137 0.172549
0.945098 0.592157 0.215686
0.192157 0.239216 0.152941
0.203922 0.239216 0.164706
0.200000 0.243137 0.176471
0.211765 0.258824 0.211765
0.313726 0.333333 0.254902
0.521569 0.431373 0.270588
0.772549 0.533333 0.309804
0.952941 0.650980 0.368627
0.321569 0.372549 0.270588
0.321569 0.368627 0.274510
0.325490 0.372549 0.286275
0.333333 0.384314 0.317647
0.368627 0.431373 0.388235
0.529412 0.525490 0.443137
0.756863 0.643137 0.478431
0.929412 0.741176 0.552941
0.521569 0.556863 0.435294
0.517647 0.552941 0.439216
0.521569 0.560784 0.462745
0.525490 0.572549 0.486275
0.552941 0.600000 0.552941
0.623529 0.662745 0.627451
0.768627 0.760784 0.678431
0.913725 0.839216 0.721569
0.788235 0.803922 0.698039
0.788235 0.803922 0.698039
0.788235 0.803922 0.705882
0.796078 0.807843 0.725490
0.788235 0.815686 0.752941
0.807843 0.831373 0.784314
0.854902 0.866667 0.823529
0.929412 0.905882 0.843137
0.023529 0.043137 0.015686
0.035294 0.058824 0.019608
0.047059 0.078431 0.035294
0.078431 0.117647 0.074510
0.270588 0.145098 0.101961
0.470588 0.188235 0.101961
0.713726 0.286275 0.125490
0.925490 0.439216 0.156863
0.043137 0.066667 0.027451
0.054902 0.078431 0.039216
0.070588 0.094118 0.047059
0.145098 0.129412 0.086275
0.329412 0.160784 0.094118
0.517647 0.227451 0.113725
0.733333 0.341176 0.137255
0.933333 0.482353 0.168627
0.086275 0.117647 0.066667
0.098039 0.129412 0.078431
0.105882 0.149020 0.094118
0.219608 0.176471 0.105882
0.380392 0.243137 0.125490
0.552941 0.321569 0.149020
0.760784 0.427451 0.172549
0.949020 0.556863 0.211765
0.152941 0.196078 0.129412
0.152941 0.196078 0.129412
0.164706 0.196078 0.145098
0.203922 0.239216 0.164706
0.380392 0.305882 0.188235
0.576471 0.388235 0.207843
0.788235 0.494118 0.239216
0.956863 0.619608 0.294118
0.250980 0.298039 0.211765
0.254902 0.301961 0.215686
0.250980 0.301961 0.231373
0.262745 0.313726 0.274510
0.368627 0.388235 0.309804
0.572549 0.478431 0.337255
0.800000 0.572549 0.376471
0.960784 0.690196 0.435294
0.376471 0.427451 0.325490
0.380392 0.431373 0.329412
0.380392 0.431373 0.352941
0.388235 0.443137 0.384314
0.431373 0.482353 0.447059
0.584314 0.580392 0.501961
0.784314 0.682353 0.545098
0.941176 0.772549 0.603922
0.576471 0.611765 0.490196
0.576471 0.611765 0.498039
0.588235 0.611765 0.509804
0.584314 0.619608 0.545098
0.600000 0.639216 0.596078
0.658824 0.705882 0.666667
0.788235 0.784314 0.701961
0.917647 0.854902 0.752941
0.800000 0.819608 0.701961
0.800000 0.811765 0.698039
0.800000 0.815686 0.717647
0.800000 0.819608 0.729412
0.807843 0.823529 0.764706
0.823529 0.839216 0.784314
0.866667 0.874510 0.831373
0.929412 0.905882 0.850980
0.082353 0.113725 0.070588
0.094118 0.125490 0.074510
0.117647 0.160784 0.105882
0.145098 0.192157 0.145098
0.211765 0.254902 0.200000
0.392157 0.301961 0.278431
0.678431 0.321569 0.301961
0.921569 0.435294 0.333333
0.101961 0.133333 0.082353
0.113725 0.145098 0.101961
0.137255 0.180392 0.125490
0.160784 0.203922 0.141176
0.231373 0.278431 0.239216
0.462745 0.294118 0.270588
0.729412 0.349020 0.282353
0.937255 0.474510 0.317647
0.129412 0.172549 0.117647
0.137255 0.184314 0.129412
0.176471 0.223529 0.168627
0.203922 0.258824 0.207843
0.400000 0.290196 0.243137
0.600000 0.349020 0.250980
0.807843 0.450980 0.278431
0.960784 0.568627 0.333333
0.211765 0.266667 0.215686
0.231373 0.286275 0.227451
0.247059 0.294118 0.239216
0.290196 0.321569 0.262745
0.458824 0.392157 0.282353
0.650980 0.462745 0.305882
0.839216 0.560784 0.349020
0.976471 0.666667 0.403922
0.349020 0.403922 0.313726
0.345098 0.403922 0.321569
0.349020 0.400000 0.329412
0.352941 0.415686 0.372549
0.447059 0.482353 0.415686
0.650980 0.560784 0.439216
0.843137 0.639216 0.482353
0.964706 0.741176 0.533333
0.474510 0.525490 0.423529
0.482353 0.529412 0.435294
0.478431 0.533333 0.443137
0.486275 0.537255 0.470588
0.521569 0.572549 0.537255
0.647059 0.650980 0.580392
0.831373 0.741176 0.619608
0.949020 0.807843 0.666667
0.650980 0.686275 0.572549
0.654902 0.690196 0.584314
0.658824 0.690196 0.596078
0.658824 0.694118 0.619608
0.678431 0.709804 0.658824
0.713726 0.752941 0.717647
0.827451 0.823529 0.752941
0.933333 0.870588 0.780392
0.831373 0.843137 0.737255
0.823529 0.839216 0.733333
0.827451 0.843137 0.745098
0.827451 0.839216 0.756863
0.831373 0.847059 0.780392
0.847059 0.858824 0.815686
0.878431 0.886275 0.843137
0.933333 0.921569 0.862745
0.168627 0.215686 0.160784
0.176471 0.223529 0.176471
0.203922 0.250980 0.203922
0.258824 0.313726 0.262745
0.309804 0.372549 0.321569
0.360784 0.423529 0.380392
0.513726 0.552941 0.517647
0.803922 0.623529 0.623529
0.184314 0.231373 0.176471
0.192157 0.239216 0.184314
0.219608 0.266667 0.211765
0.278431 0.329412 0.290196
0.333333 0.384314 0.345098
0.388235 0.450980 0.407843
0.560784 0.568627 0.549020
0.835294 0.619608 0.631373
0.223529 0.270588 0.223529
0.235294 0.282353 0.235294
0.262745 0.317647 0.266667
0.325490 0.376471 0.337255
0.364706 0.427451 0.388235
0.462745 0.513726 0.478431
0.694118 0.572549 0.564706
0.898039 0.635294 0.603922
0.282353 0.337255 0.286275
0.286275 0.349020 0.305882
0.321569 0.384314 0.341176
0.392157 0.443137 0.403922
0.470588 0.517647 0.478431
0.690196 0.545098 0.513726
0.854902 0.615686 0.541176
0.968627 0.694118 0.592157
0.450980 0.513726 0.470588
0.458824 0.529412 0.474510
0.494118 0.560784 0.498039
0.521569 0.568627 0.521569
0.584314 0.607843 0.552941
0.752941 0.670588 0.588235
0.882353 0.741176 0.607843
0.968627 0.803922 0.654902
0.611765 0.670588 0.588235
0.619608 0.670588 0.592157
0.623529 0.674510 0.596078
0.635294 0.678431 0.611765
0.654902 0.694118 0.650980
0.737255 0.752941 0.686275
0.870588 0.800000 0.713726
0.956863 0.850980 0.745098
0.752941 0.784314 0.690196
0.760784 0.792157 0.698039
0.756863 0.788235 0.694118
0.764706 0.796078 0.713726
0.768627 0.792157 0.737255
0.792157 0.815686 0.776471
0.866667 0.858824 0.800000
0.941176 0.898039 0.827451
0.874510 0.882353 0.796078
0.878431 0.886275 0.800000
0.878431 0.886275 0.800000
0.870588 0.878431 0.796078
0.878431 0.882353 0.819608
0.882353 0.890196 0.839216
0.901961 0.909804 0.866667
0.945098 0.929412 0.882353
0.266667 0.321569 0.270588
0.278431 0.333333 0.282353
0.301961 0.356863 0.305882
0.352941 0.415686 0.372549
0.474510 0.525490 0.490196
0.537255 0.588235 0.552941
0.592157 0.635294 0.603922
0.733333 0.772549 0.729412
0.282353 0.333333 0.294118
0.298039 0.349020 0.309804
0.321569 0.372549 0.333333
0.372549 0.435294 0.392157
0.490196 0.541176 0.505882
0.552941 0.603922 0.568627
0.611765 0.662745 0.623529
0.749020 0.780392 0.737255
0.321569 0.372549 0.333333
0.333333 0.384314 0.345098
0.364706 0.415686 0.376471
0.407843 0.470588 0.431373
0.533333 0.584314 0.549020
0.588235 0.635294 0.596078
0.666667 0.705882 0.662745
0.792157 0.803922 0.768627
0.376471 0.439216 0.396078
0.396078 0.447059 0.407843
0.431373 0.482353 0.447059
0.486275 0.537255 0.501961
0.603922 0.647059 0.615686
0.643137 0.686275 0.654902
0.729412 0.768627 0.733333
0.866667 0.815686 0.784314
0.498039 0.549020 0.513726
0.517647 0.568627 0.533333
0.549020 0.600000 0.564706
0.603922 0.650980 0.611765
0.694118 0.733333 0.698039
0.792157 0.764706 0.725490
0.890196 0.800000 0.745098
0.960784 0.839216 0.768627
0.694118 0.741176 0.694118
0.701961 0.749020 0.701961
0.721569 0.768627 0.713726
0.749020 0.792157 0.737255
0.776471 0.807843 0.756863
0.815686 0.831373 0.776471
0.909804 0.858824 0.792157
0.968627 0.886275 0.811765
0.819608 0.854902 0.788235
0.827451 0.854902 0.792157
0.831373 0.858824 0.788235
0.843137 0.858824 0.800000
0.850980 0.866667 0.811765
0.862745 0.874510 0.831373
0.901961 0.894118 0.843137
0.952941 0.917647 0.858824
0.901961 0.913725 0.847059
0.909804 0.913725 0.850980
0.913725 0.917647 0.854902
0.909804 0.913725 0.850980
0.917647 0.909804 0.850980
0.925490 0.917647 0.870588
0.925490 0.925490 0.886275
0.960784 0.937255 0.890196
0.415686 0.478431 0.435294
0.427451 0.490196 0.450980
0.450980 0.513726 0.474510
0.505882 0.556863 0.521569
0.615686 0.658824 0.627451
0.721569 0.760784 0.717647
0.772549 0.803922 0.760784
0.811765 0.835294 0.788235
0.427451 0.490196 0.450980
0.450980 0.501961 0.466667
0.474510 0.525490 0.490196
0.517647 0.568627 0.533333
0.627451 0.674510 0.635294
0.733333 0.772549 0.729412
0.772549 0.811765 0.768627
0.815686 0.839216 0.792157
0.474510 0.525490 0.490196
0.482353 0.533333 0.498039
0.505882 0.556863 0.521569
0.556863 0.600000 0.568627
0.650980 0.698039 0.658824
0.756863 0.796078 0.752941
0.792157 0.823529 0.772549
0.831373 0.854902 0.807843
0.529412 0.580392 0.545098
0.537255 0.588235 0.552941
0.560784 0.611765 0.576471
0.611765 0.658824 0.619608
0.690196 0.729412 0.694118
0.796078 0.819608 0.780392
0.819608 0.843137 0.796078
0.862745 0.874510 0.831373
0.615686 0.658824 0.627451
0.623529 0.670588 0.631373
0.650980 0.698039 0.658824
0.690196 0.729412 0.694118
0.752941 0.784314 0.741176
0.843137 0.854902 0.811765
0.862745 0.874510 0.831373
0.901961 0.901961 0.862745
0.721569 0.760784 0.717647
0.729412 0.768627 0.725490
0.749020 0.780392 0.737255
0.780392 0.811765 0.768627
0.823529 0.847059 0.800000
0.878431 0.886275 0.843137
0.917647 0.901961 0.858824
0.960784 0.909804 0.874510
0.858824 0.870588 0.827451
0.866667 0.878431 0.835294
0.870588 0.882353 0.839216
0.886275 0.898039 0.854902
0.901961 0.909804 0.858824
0.917647 0.917647 0.870588
0.937255 0.929412 0.878431
0.976471 0.937255 0.890196
0.933333 0.933333 0.886275
0.929412 0.929412 0.882353
0.933333 0.933333 0.886275
0.945098 0.937255 0.890196
0.949020 0.941176 0.894118
0.952941 0.945098 0.898039
0.956863 0.941176 0.905882
0.968627 0.952941 0.917647
0.690196 0.729412 0.694118
0.694118 0.733333 0.698039
0.709804 0.749020 0.713726
0.737255 0.768627 0.725490
0.788235 0.811765 0.772549
0.850980 0.862745 0.819608
0.894118 0.901961 0.858824
0.917647 0.917647 0.878431
0.694118 0.733333 0.698039
0.701961 0.741176 0.705882
0.713726 0.752941 0.709804
0.741176 0.772549 0.729412
0.788235 0.819608 0.776471
0.858824 0.870588 0.827451
0.898039 0.905882 0.862745
0.917647 0.917647 0.878431
0.713726 0.752941 0.717647
0.717647 0.756863 0.713726
0.737255 0.768627 0.725490
0.760784 0.792157 0.749020
0.803922 0.827451 0.788235
0.862745 0.874510 0.831373
0.905882 0.913725 0.870588
0.917647 0.917647 0.878431
0.749020 0.780392 0.737255
0.749020 0.780392 0.737255
0.760784 0.792157 0.749020
0.788235 0.811765 0.772549
0.815686 0.839216 0.792157
0.874510 0.882353 0.839216
0.913725 0.913725 0.874510
0.925490 0.925490 0.886275
0.784314 0.815686 0.772549
0.788235 0.819608 0.776471
0.796078 0.827451 0.776471
0.811765 0.835294 0.796078
0.847059 0.858824 0.815686
0.886275 0.894118 0.850980
0.925490 0.925490 0.886275
0.945098 0.933333 0.898039
0.823529 0.847059 0.800000
0.827451 0.850980 0.803922
0.831373 0.854902 0.807843
0.850980 0.862745 0.819608
0.874510 0.886275 0.843137
0.901961 0.909804 0.866667
0.945098 0.933333 0.898039
0.956863 0.945098 0.909804
0.882353 0.890196 0.847059
0.882353 0.890196 0.847059
0.886275 0.894118 0.850980
0.898039 0.905882 0.862745
0.913725 0.913725 0.874510
0.937255 0.925490 0.890196
0.956863 0.945098 0.909804
0.972549 0.956863 0.921569
0.949020 0.937255 0.901961
0.952941 0.941176 0.905882
0.952941 0.941176 0.905882
0.956863 0.945098 0.909804
0.964706 0.949020 0.913725
0.972549 0.960784 0.925490
0.980392 0.964706 0.929412
0.992157 0.964706 0.933333
