FILES/01-b5714e82.cube
TITLE "/Users/aaronseiha/Desktop/Set"
LUT_3D_SIZE 8
DOMAIN_MIN 0.000000 0.000000 0.000000
DOMAIN_MAX 0.903226 0.903226 0.903226
0.000000 0.000000 0.000000
0.007843 0.000000 0.003922
0.047059 0.007843 0.000000
0.125490 0.007843 0.007843
0.270588 0.000000 0.019608
0.450980 0.000000 0.058824
0.674510 0.000000 0.101961
0.909804 0.000000 0.152941
0.007843 0.015686 0.000000
0.019608 0.023529 0.000000
0.066667 0.023529 0.000000
0.137255 0.027451 0.011765
0.298039 0.023529 0.031373
0.462745 0.000000 0.054902
0.690196 0.000000 0.090196
0.925490 0.000000 0.160784
0.047059 0.062745 0.007843
0.058824 0.074510 0.007843
0.113725 0.090196 0.003922
0.180392 0.090196 0.019608
0.325490 0.109804 0.031373
0.501961 0.125490 0.070588
0.729412 0.133333 0.113725
0.941176 0.188235 0.168627
0.125490 0.156863 0.011765
0.141176 0.168627 0.003922
0.192157 0.211765 0.000000
0.286275 0.200000 0.003922
0.392157 0.219608 0.035294
0.564706 0.258824 0.078431
0.768627 0.305882 0.125490
0.964706 0.372549 0.188235
0.262745 0.301961 0.023529
0.282353 0.317647 0.007843
0.329412 0.364706 0.000000
0.431373 0.415686 0.000000
0.556863 0.431373 0.003922
0.682353 0.450980 0.058824
0.839216 0.505882 0.149020
0.988235 0.572549 0.235294
0.447059 0.482353 0.062745
0.462745 0.498039 0.031373
0.513726 0.541176 0.000000
0.607843 0.611765 0.007843
0.749020 0.666667 0.000000
0.839216 0.674510 0.007843
0.929412 0.686275 0.125490
1.000000 0.713726 0.301961
0.705882 0.713726 0.152941
0.713726 0.725490 0.141176
0.752941 0.749020 0.058824
0.811765 0.788235 0.003922
0.894118 0.843137 0.000000
0.964706 0.850980 0.000000
0.996078 0.839216 0.019608
1.000000 0.835294 0.321569
0.909804 0.882353 0.462745
0.909804 0.886275 0.439216
0.925490 0.894118 0.407843
0.956863 0.909804 0.329412
0.992157 0.921569 0.184314
1.000000 0.933333 0.015686
1.000000 0.929412 0.129412
1.000000 0.913725 0.388235
0.007843 0.015686 0.003922
0.011765 0.019608 0.007843
0.035294 0.031373 0.011765
0.137255 0.027451 0.023529
0.290196 0.011765 0.043137
0.462745 0.003922 0.078431
0.686275 0.000000 0.121569
0.917647 0.003922 0.188235
0.019608 0.027451 0.007843
0.027451 0.039216 0.011765
0.082353 0.047059 0.027451
0.156863 0.050980 0.023529
0.305882 0.054902 0.054902
0.478431 0.023529 0.074510
0.705882 0.003922 0.121569
0.933333 0.000000 0.192157
0.050980 0.074510 0.019608
0.062745 0.094118 0.011765
0.125490 0.109804 0.011765
0.188235 0.117647 0.031373
0.341176 0.133333 0.062745
0.517647 0.152941 0.094118
0.741176 0.156863 0.141176
0.952941 0.211765 0.203922
0.137255 0.164706 0.031373
0.152941 0.184314 0.023529
0.203922 0.223529 0.003922
0.298039 0.219608 0.011765
0.403922 0.243137 0.070588
0.572549 0.278431 0.113725
0.784314 0.325490 0.152941
0.968627 0.392157 0.219608
0.278431 0.317647 0.070588
0.294118 0.333333 0.054902
0.345098 0.372549 0.000000
0.439216 0.439216 0.000000
0.568627 0.447059 0.000000
0.690196 0.470588 0.105882
0.850980 0.521569 0.184314
0.984314 0.588235 0.266667
0.466667 0.494118 0.117647
0.478431 0.513726 0.094118
0.529412 0.552941 0.035294
0.615686 0.615686 0.000000
0.756863 0.678431 0.000000
0.843137 0.678431 0.000000
0.937255 0.690196 0.176471
1.000000 0.725490 0.333333
0.709804 0.717647 0.184314
0.717647 0.729412 0.168627
0.756863 0.760784 0.109804
0.815686 0.796078 0.000000
0.901961 0.843137 0.000000
0.968627 0.854902 0.000000
0.996078 0.843137 0.101961
0.996078 0.839216 0.360784
0.901961 0.886275 0.466667
0.917647 0.886275 0.458824
0.933333 0.898039 0.423529
0.960784 0.913725 0.341176
0.996078 0.925490 0.196078
1.000000 0.933333 0.031373
1.000000 0.929412 0.129412
1.000000 0.917647 0.388235
0.023529 0.043137 0.015686
0.035294 0.058824 0.019608
0.050980 0.074510 0.035294
0.082353 0.121569 0.078431
0.278431 0.121569 0.121569
0.470588 0.086275 0.145098
0.713726 0.000000 0.200000
0.941176 0.003922 0.270588
0.043137 0.066667 0.027451
0.054902 0.074510 0.047059
0.066667 0.098039 0.054902
0.156863 0.121569 0.094118
0.325490 0.113725 0.113725
0.513726 0.098039 0.152941
0.737255 0.054902 0.192157
0.949020 0.078431 0.270588
0.086275 0.117647 0.066667
0.094118 0.125490 0.074510
0.141176 0.152941 0.078431
0.227451 0.168627 0.094118
0.376471 0.184314 0.129412
0.560784 0.196078 0.164706
0.776471 0.211765 0.211765
0.964706 0.254902 0.282353
0.152941 0.200000 0.113725
0.164706 0.215686 0.113725
0.227451 0.254902 0.082353
0.313726 0.270588 0.094118
0.439216 0.290196 0.145098
0.611765 0.325490 0.188235
0.815686 0.368627 0.227451
0.976471 0.427451 0.298039
0.298039 0.345098 0.156863
0.313726 0.364706 0.152941
0.376471 0.400000 0.117647
0.462745 0.474510 0.062745
0.596078 0.486275 0.105882
0.721569 0.501961 0.200000
0.870588 0.545098 0.270588
0.996078 0.611765 0.364706
0.490196 0.525490 0.215686
0.509804 0.541176 0.203922
0.552941 0.580392 0.172549
0.635294 0.647059 0.094118
0.768627 0.701961 0.019608
0.862745 0.701961 0.145098
0.937255 0.709804 0.278431
1.000000 0.741176 0.431373
0.721569 0.729412 0.301961
0.741176 0.741176 0.294118
0.768627 0.768627 0.250980
0.823529 0.803922 0.168627
0.898039 0.850980 0.035294
0.964706 0.862745 0.050980
0.996078 0.843137 0.235294
1.000000 0.843137 0.458824
0.905882 0.886275 0.494118
0.913725 0.882353 0.486275
0.933333 0.894118 0.450980
0.960784 0.913725 0.380392
0.992157 0.925490 0.235294
1.000000 0.937255 0.086275
1.000000 0.929412 0.160784
1.000000 0.917647 0.419608
0.082353 0.113725 0.070588
0.086275 0.125490 0.082353
0.117647 0.160784 0.105882
0.145098 0.192157 0.145098
0.203922 0.250980 0.203922
0.392157 0.298039 0.298039
0.682353 0.266667 0.356863
0.925490 0.254902 0.427451
0.101961 0.133333 0.082353
0.113725 0.145098 0.101961
0.137255 0.184314 0.129412
0.156863 0.207843 0.141176
0.235294 0.274510 0.231373
0.458824 0.282353 0.309804
0.737255 0.250980 0.360784
0.952941 0.266667 0.427451
0.129412 0.168627 0.125490
0.141176 0.180392 0.137255
0.176471 0.215686 0.172549
0.207843 0.254902 0.200000
0.392157 0.270588 0.258824
0.600000 0.266667 0.294118
0.807843 0.278431 0.337255
0.976471 0.337255 0.419608
0.215686 0.270588 0.219608
0.227451 0.282353 0.231373
0.247059 0.301961 0.235294
0.349020 0.333333 0.235294
0.490196 0.364706 0.274510
0.670588 0.392157 0.305882
0.854902 0.423529 0.364706
0.992157 0.478431 0.439216
0.352941 0.407843 0.309804
0.356863 0.415686 0.301961
0.403922 0.447059 0.278431
0.501961 0.513726 0.235294
0.635294 0.541176 0.266667
0.745098 0.560784 0.341176
0.886275 0.603922 0.407843
0.992157 0.658824 0.498039
0.533333 0.572549 0.376471
0.541176 0.580392 0.372549
0.588235 0.615686 0.341176
0.666667 0.674510 0.286275
0.792157 0.737255 0.247059
0.878431 0.733333 0.313726
0.945098 0.741176 0.443137
1.000000 0.776471 0.560784
0.741176 0.752941 0.474510
0.749020 0.764706 0.462745
0.784314 0.776471 0.435294
0.827451 0.819608 0.384314
0.909804 0.862745 0.290196
0.960784 0.878431 0.278431
1.000000 0.862745 0.407843
1.000000 0.858824 0.584314
0.898039 0.886275 0.615686
0.905882 0.890196 0.600000
0.913725 0.905882 0.572549
0.945098 0.917647 0.509804
0.984314 0.929412 0.407843
1.000000 0.941176 0.301961
1.000000 0.933333 0.337255
1.000000 0.921569 0.556863
0.172549 0.215686 0.160784
0.176471 0.223529 0.176471
0.207843 0.254902 0.207843
0.258824 0.313726 0.254902
0.305882 0.368627 0.325490
0.364706 0.427451 0.388235
0.509804 0.552941 0.521569
0.800000 0.615686 0.654902
0.184314 0.231373 0.176471
0.196078 0.243137 0.196078
0.223529 0.270588 0.231373
0.278431 0.329412 0.290196
0.333333 0.384314 0.345098
0.396078 0.447059 0.407843
0.560784 0.564706 0.545098
0.831373 0.611765 0.654902
0.223529 0.270588 0.215686
0.231373 0.286275 0.235294
0.262745 0.309804 0.262745
0.317647 0.380392 0.341176
0.364706 0.427451 0.384314
0.462745 0.513726 0.474510
0.686275 0.564706 0.584314
0.905882 0.600000 0.662745
0.282353 0.333333 0.294118
0.294118 0.345098 0.305882
0.333333 0.384314 0.345098
0.396078 0.447059 0.407843
0.466667 0.517647 0.482353
0.682353 0.521569 0.537255
0.862745 0.549020 0.584314
0.976471 0.603922 0.635294
0.447059 0.509804 0.470588
0.466667 0.517647 0.478431
0.498039 0.549020 0.509804
0.533333 0.584314 0.505882
0.670588 0.627451 0.501961
0.788235 0.654902 0.556863
0.905882 0.690196 0.611765
0.984314 0.729412 0.658824
0.607843 0.666667 0.592157
0.619608 0.670588 0.600000
0.631373 0.678431 0.592157
0.686275 0.717647 0.564706
0.796078 0.784314 0.505882
0.874510 0.788235 0.552941
0.929412 0.792157 0.635294
0.984314 0.823529 0.713726
0.760784 0.796078 0.682353
0.772549 0.796078 0.686275
0.784314 0.807843 0.666667
0.827451 0.835294 0.650980
0.894118 0.870588 0.580392
0.956863 0.890196 0.529412
0.980392 0.882353 0.623529
1.000000 0.882353 0.733333
0.890196 0.894118 0.772549
0.894118 0.898039 0.772549
0.901961 0.901961 0.760784
0.917647 0.909804 0.721569
0.956863 0.925490 0.670588
0.996078 0.945098 0.584314
1.000000 0.941176 0.568627
1.000000 0.933333 0.713726
0.266667 0.321569 0.270588
0.282353 0.337255 0.286275
0.305882 0.356863 0.317647
0.352941 0.415686 0.372549
0.474510 0.525490 0.490196
0.537255 0.588235 0.552941
0.592157 0.635294 0.603922
0.729412 0.768627 0.725490
0.282353 0.333333 0.294118
0.298039 0.352941 0.301961
0.321569 0.372549 0.333333
0.368627 0.431373 0.388235
0.494118 0.545098 0.509804
0.549020 0.600000 0.564706
0.611765 0.662745 0.627451
0.749020 0.780392 0.737255
0.321569 0.372549 0.333333
0.325490 0.388235 0.345098
0.364706 0.415686 0.376471
0.407843 0.470588 0.427451
0.533333 0.584314 0.549020
0.588235 0.631373 0.600000
0.666667 0.705882 0.670588
0.784314 0.807843 0.768627
0.380392 0.443137 0.403922
0.396078 0.447059 0.411765
0.431373 0.482353 0.447059
0.482353 0.533333 0.498039
0.603922 0.650980 0.603922
0.643137 0.690196 0.650980
0.729412 0.768627 0.733333
0.866667 0.815686 0.792157
0.501961 0.552941 0.517647
0.513726 0.564706 0.529412
0.549020 0.600000 0.564706
0.603922 0.650980 0.611765
0.690196 0.733333 0.701961
0.796078 0.760784 0.725490
0.898039 0.776471 0.756863
0.960784 0.803922 0.796078
0.690196 0.737255 0.698039
0.705882 0.745098 0.709804
0.725490 0.764706 0.721569
0.749020 0.792157 0.737255
0.800000 0.819608 0.733333
0.870588 0.839216 0.749020
0.921569 0.850980 0.772549
0.972549 0.862745 0.807843
0.819608 0.843137 0.788235
0.823529 0.847059 0.792157
0.831373 0.854902 0.800000
0.847059 0.862745 0.803922
0.882353 0.882353 0.780392
0.929412 0.909804 0.745098
0.964706 0.905882 0.784314
0.980392 0.909804 0.823529
0.901961 0.913725 0.847059
0.905882 0.917647 0.850980
0.913725 0.917647 0.854902
0.913725 0.917647 0.847059
0.937255 0.929412 0.831373
0.964706 0.945098 0.796078
1.000000 0.952941 0.756863
1.000000 0.937255 0.819608
0.423529 0.474510 0.439216
0.427451 0.490196 0.447059
0.458824 0.509804 0.474510
0.505882 0.556863 0.521569
0.615686 0.662745 0.623529
0.721569 0.760784 0.717647
0.772549 0.803922 0.760784
0.807843 0.831373 0.784314
0.435294 0.486275 0.450980
0.450980 0.501961 0.466667
0.470588 0.521569 0.486275
0.517647 0.568627 0.533333
0.631373 0.678431 0.639216
0.733333 0.772549 0.737255
0.784314 0.807843 0.768627
0.815686 0.839216 0.800000
0.474510 0.525490 0.490196
0.482353 0.533333 0.498039
0.505882 0.556863 0.521569
0.556863 0.600000 0.568627
0.654902 0.701961 0.662745
0.764706 0.796078 0.752941
0.792157 0.823529 0.780392
0.839216 0.850980 0.815686
0.525490 0.576471 0.541176
0.537255 0.588235 0.552941
0.560784 0.611765 0.576471
0.611765 0.658824 0.619608
0.690196 0.729412 0.694118
0.792157 0.823529 0.780392
0.819608 0.843137 0.803922
0.862745 0.874510 0.831373
0.619608 0.666667 0.627451
0.623529 0.670588 0.631373
0.650980 0.698039 0.658824
0.686275 0.733333 0.694118
0.749020 0.788235 0.745098
0.835294 0.858824 0.811765
0.862745 0.874510 0.831373
0.901961 0.909804 0.866667
0.721569 0.760784 0.717647
0.725490 0.764706 0.721569
0.749020 0.780392 0.737255
0.780392 0.811765 0.768627
0.823529 0.847059 0.800000
0.878431 0.886275 0.843137
0.917647 0.901961 0.858824
0.960784 0.909804 0.878431
0.862745 0.874510 0.831373
0.866667 0.878431 0.835294
0.870588 0.882353 0.839216
0.890196 0.898039 0.854902
0.905882 0.913725 0.870588
0.921569 0.921569 0.874510
0.952941 0.929412 0.866667
0.984314 0.929412 0.886275
0.937255 0.929412 0.882353
0.941176 0.933333 0.886275
0.933333 0.933333 0.886275
0.941176 0.933333 0.886275
0.949020 0.941176 0.894118
0.960784 0.945098 0.898039
0.988235 0.956863 0.874510
1.000000 0.952941 0.890196
0.690196 0.729412 0.694118
0.694118 0.733333 0.698039
0.709804 0.749020 0.713726
0.737255 0.768627 0.725490
0.788235 0.811765 0.772549
0.850980 0.862745 0.819608
0.894118 0.901961 0.858824
0.917647 0.917647 0.878431
0.694118 0.733333 0.698039
0.701961 0.741176 0.705882
0.713726 0.752941 0.709804
0.745098 0.776471 0.733333
0.788235 0.819608 0.776471
0.847059 0.870588 0.823529
0.898039 0.905882 0.862745
0.921569 0.921569 0.882353
0.713726 0.752941 0.717647
0.717647 0.756863 0.713726
0.737255 0.768627 0.725490
0.760784 0.792157 0.749020
0.803922 0.827451 0.788235
0.858824 0.870588 0.827451
0.905882 0.905882 0.866667
0.921569 0.921569 0.882353
0.749020 0.780392 0.737255
0.749020 0.780392 0.737255
0.760784 0.792157 0.749020
0.784314 0.807843 0.768627
0.815686 0.839216 0.792157
0.874510 0.882353 0.839216
0.913725 0.913725 0.874510
0.925490 0.925490 0.886275
0.784314 0.815686 0.772549
0.788235 0.819608 0.776471
0.796078 0.827451 0.784314
0.811765 0.835294 0.796078
0.847059 0.858824 0.815686
0.886275 0.894118 0.850980
0.925490 0.925490 0.878431
0.945098 0.933333 0.898039
0.823529 0.847059 0.800000
0.827451 0.850980 0.803922
0.831373 0.854902 0.807843
0.850980 0.862745 0.819608
0.874510 0.886275 0.843137
0.901961 0.909804 0.866667
0.945098 0.933333 0.898039
0.960784 0.945098 0.909804
0.882353 0.890196 0.847059
0.882353 0.890196 0.847059
0.886275 0.894118 0.850980
0.898039 0.905882 0.862745
0.913725 0.913725 0.874510
0.937255 0.925490 0.890196
0.960784 0.945098 0.909804
0.984314 0.956863 0.917647
0.949020 0.937255 0.901961
0.952941 0.941176 0.905882
0.952941 0.941176 0.905882
0.956863 0.945098 0.909804
0.964706 0.949020 0.913725
0.976471 0.960784 0.925490
0.980392 0.964706 0.929412
1.000000 0.964706 0.929412
