FILES/01-b5714e82.cube
TITLE "/Users/aaronseiha/Desktop/Set"
LUT_3D_SIZE 5
DOMAIN_MIN 0.000000 0.000000 0.000000
DOMAIN_MAX 0.903226 0.903226 0.903226
0.000000 0.000000 0.000000
0.039216 0.003922 0.007843
0.180392 0.003922 0.015686
0.501961 0.000000 0.058824
0.909804 0.000000 0.152941
0.031373 0.043137 0.007843
0.078431 0.066667 0.000000
0.227451 0.082353 0.019608
0.549020 0.086275 0.070588
0.941176 0.125490 0.176471
0.176471 0.215686 0.011765
0.223529 0.258824 0.003922
0.388235 0.298039 0.000000
0.650980 0.345098 0.094118
0.980392 0.462745 0.207843
0.509804 0.541176 0.074510
0.564706 0.580392 0.003922
0.713726 0.686275 0.000000
0.898039 0.725490 0.000000
0.996078 0.749020 0.305882
0.909804 0.882353 0.462745
0.925490 0.890196 0.415686
0.964706 0.913725 0.270588
1.000000 0.933333 0.000000
1.000000 0.913725 0.388235
0.015686 0.035294 0.011765
0.031373 0.058824 0.027451
0.176471 0.094118 0.074510
0.529412 0.019608 0.129412
0.937255 0.003922 0.239216
0.062745 0.094118 0.050980
0.101961 0.113725 0.039216
0.262745 0.137255 0.078431
0.592157 0.152941 0.145098
0.960784 0.196078 0.250980
0.207843 0.247059 0.101961
0.258824 0.294118 0.070588
0.415686 0.341176 0.074510
0.690196 0.392157 0.188235
0.988235 0.501961 0.301961
0.541176 0.568627 0.203922
0.588235 0.603922 0.160784
0.733333 0.717647 0.000000
0.909804 0.741176 0.125490
1.000000 0.768627 0.415686
0.901961 0.886275 0.494118
0.925490 0.898039 0.450980
0.972549 0.913725 0.305882
1.000000 0.937255 0.043137
1.000000 0.913725 0.396078
0.113725 0.152941 0.109804
0.145098 0.184314 0.141176
0.211765 0.258824 0.211765
0.388235 0.400000 0.372549
0.886275 0.411765 0.533333
0.156863 0.196078 0.152941
0.188235 0.235294 0.180392
0.250980 0.305882 0.254902
0.564706 0.380392 0.411765
0.952941 0.407843 0.521569
0.309804 0.364706 0.313726
0.341176 0.396078 0.345098
0.478431 0.458824 0.341176
0.768627 0.509804 0.423529
0.988235 0.596078 0.537255
0.600000 0.647059 0.490196
0.643137 0.674510 0.474510
0.756863 0.752941 0.392157
0.917647 0.784314 0.431373
0.992157 0.819608 0.635294
0.894118 0.894118 0.690196
0.905882 0.898039 0.666667
0.952941 0.921569 0.588235
1.000000 0.941176 0.403922
1.000000 0.925490 0.623529
0.301961 0.352941 0.313726
0.321569 0.384314 0.341176
0.439216 0.490196 0.454902
0.600000 0.647059 0.607843
0.749020 0.780392 0.737255
0.333333 0.396078 0.352941
0.364706 0.427451 0.384314
0.478431 0.529412 0.494118
0.631373 0.678431 0.639216
0.788235 0.811765 0.772549
0.458824 0.509804 0.474510
0.494118 0.545098 0.509804
0.592157 0.635294 0.603922
0.721569 0.760784 0.725490
0.890196 0.847059 0.823529
0.745098 0.784314 0.741176
0.764706 0.796078 0.752941
0.800000 0.831373 0.780392
0.898039 0.874510 0.788235
0.976471 0.886275 0.831373
0.913725 0.921569 0.866667
0.917647 0.921569 0.866667
0.933333 0.929412 0.858824
0.972549 0.949020 0.815686
1.000000 0.945098 0.839216
0.690196 0.729412 0.694118
0.705882 0.745098 0.709804
0.752941 0.784314 0.741176
0.862745 0.874510 0.831373
0.917647 0.917647 0.878431
0.709804 0.749020 0.705882
0.725490 0.764706 0.721569
0.768627 0.800000 0.756863
0.870588 0.882353 0.839216
0.917647 0.917647 0.878431
0.760784 0.792157 0.749020
0.772549 0.803922 0.760784
0.811765 0.835294 0.788235
0.890196 0.898039 0.854902
0.937255 0.925490 0.890196
0.835294 0.858824 0.811765
0.847059 0.858824 0.815686
0.866667 0.878431 0.835294
0.917647 0.917647 0.878431
0.956863 0.945098 0.909804
0.949020 0.937255 0.901961
0.952941 0.941176 0.905882
0.964706 0.949020 0.913725
0.976471 0.960784 0.925490
1.000000 0.964706 0.929412
