FILES/01-b5714e82.cube
TITLE "/Users/aaronseiha/Desktop/Set"
LUT_3D_SIZE 32
0.000000 0.000000 0.000000
0.000000 0.000000 0.000000
0.000000 0.000000 0.000000
0.003922 0.000000 0.000000
0.007843 0.000000 0.003922
0.011765 0.007843 0.000000
0.019608 0.003922 0.000000
0.039216 0.003922 0.007843
0.047059 0.007843 0.000000
0.062745 0.007843 0.003922
0.078431 0.007843 0.007843
0.105882 0.011765 0.011765
0.125490 0.007843 0.007843
0.156863 0.003922 0.007843
0.180392 0.003922 0.015686
0.215686 0.000000 0.019608
0.270588 0.000000 0.019608
0.313726 0.003922 0.027451
0.352941 0.000000 0.035294
0.400000 0.000000 0.050980
0.450980 0.000000 0.058824
0.501961 0.000000 0.058824
0.556863 0.003922 0.078431
0.611765 0.000000 0.082353
0.674510 0.000000 0.101961
0.741176 0.000000 0.117647
0.803922 0.000000 0.121569
0.862745 0.000000 0.141176
0.909804 0.000000 0.152941
0.968627 0.000000 0.172549
0.996078 0.000000 0.203922
1.000000 0.003922 0.215686
0.000000 0.000000 0.000000
0.003922 0.003922 0.003922
0.003922 0.003922 0.003922
0.003922 0.003922 0.003922
0.007843 0.007843 0.000000
0.011765 0.007843 0.000000
0.023529 0.007843 0.003922
0.043137 0.011765 0.003922
0.047059 0.007843 0.000000
0.058824 0.015686 0.000000
0.082353 0.011765 0.003922
0.109804 0.015686 0.007843
0.129412 0.011765 0.003922
0.149020 0.011765 0.003922
0.188235 0.007843 0.015686
0.223529 0.003922 0.015686
0.274510 0.003922 0.023529
0.317647 0.000000 0.027451
0.356863 0.003922 0.039216
0.407843 0.000000 0.050980
0.450980 0.000000 0.050980
0.501961 0.000000 0.066667
0.560784 0.000000 0.070588
0.615686 0.000000 0.086275
0.674510 0.000000 0.101961
0.745098 0.000000 0.109804
0.807843 0.003922 0.125490
0.862745 0.000000 0.141176
0.913725 0.003922 0.160784
0.964706 0.003922 0.176471
0.996078 0.000000 0.196078
0.996078 0.000000 0.215686
0.003922 0.003922 0.003922
0.003922 0.003922 0.000000
0.003922 0.003922 0.000000
0.003922 0.003922 0.000000
0.007843 0.007843 0.000000
0.015686 0.011765 0.000000
0.027451 0.011765 0.000000
0.043137 0.011765 0.003922
0.050980 0.015686 0.000000
0.070588 0.015686 0.003922
0.086275 0.015686 0.000000
0.109804 0.015686 0.007843
0.129412 0.019608 0.003922
0.156863 0.019608 0.011765
0.192157 0.011765 0.019608
0.227451 0.007843 0.019608
0.282353 0.000000 0.023529
0.321569 0.000000 0.027451
0.356863 0.000000 0.035294
0.400000 0.000000 0.050980
0.450980 0.000000 0.058824
0.505882 0.000000 0.070588
0.564706 0.003922 0.074510
0.619608 0.003922 0.086275
0.678431 0.003922 0.098039
0.745098 0.000000 0.109804
0.811765 0.000000 0.121569
0.870588 0.000000 0.145098
0.921569 0.000000 0.160784
0.968627 0.000000 0.176471
1.000000 0.000000 0.203922
1.000000 0.000000 0.219608
0.000000 0.007843 0.000000
0.003922 0.011765 0.000000
0.011765 0.015686 0.000000
0.011765 0.015686 0.000000
0.007843 0.007843 0.000000
0.019608 0.015686 0.000000
0.027451 0.015686 0.000000
0.047059 0.015686 0.003922
0.054902 0.019608 0.000000
0.074510 0.023529 0.000000
0.094118 0.019608 0.003922
0.117647 0.023529 0.007843
0.133333 0.019608 0.003922
0.168627 0.019608 0.015686
0.200000 0.019608 0.019608
0.231373 0.011765 0.015686
0.286275 0.007843 0.023529
0.325490 0.000000 0.031373
0.364706 0.000000 0.039216
0.407843 0.000000 0.050980
0.454902 0.000000 0.050980
0.513726 0.000000 0.062745
0.572549 0.000000 0.082353
0.623529 0.000000 0.090196
0.682353 0.000000 0.098039
0.749020 0.003922 0.113725
0.815686 0.000000 0.125490
0.866667 0.003922 0.141176
0.921569 0.000000 0.156863
0.976471 0.000000 0.176471
1.000000 0.000000 0.200000
0.996078 0.003922 0.219608
0.007843 0.015686 0.000000
0.011765 0.019608 0.000000
0.011765 0.019608 0.000000
0.015686 0.019608 0.000000
0.019608 0.023529 0.000000
0.023529 0.019608 0.000000
0.035294 0.023529 0.003922
0.054902 0.027451 0.003922
0.066667 0.023529 0.000000
0.078431 0.027451 0.003922
0.098039 0.031373 0.003922
0.117647 0.027451 0.003922
0.137255 0.027451 0.011765
0.176471 0.031373 0.007843
0.200000 0.027451 0.015686
0.235294 0.023529 0.015686
0.298039 0.023529 0.031373
0.333333 0.015686 0.039216
0.368627 0.003922 0.035294
0.419608 0.003922 0.058824
0.462745 0.000000 0.054902
0.521569 0.000000 0.066667
0.576471 0.000000 0.082353
0.631373 0.000000 0.090196
0.690196 0.000000 0.090196
0.756863 0.000000 0.113725
0.819608 0.000000 0.125490
0.878431 0.000000 0.145098
0.925490 0.000000 0.160784
0.972549 0.000000 0.188235
0.992157 0.000000 0.192157
1.000000 0.070588 0.235294
0.015686 0.023529 0.003922
0.015686 0.027451 0.000000
0.015686 0.023529 0.003922
0.019608 0.031373 0.003922
0.031373 0.031373 0.000000
0.035294 0.035294 0.003922
0.043137 0.031373 0.003922
0.058824 0.031373 0.000000
0.074510 0.031373 0.007843
0.090196 0.031373 0.003922
0.105882 0.039216 0.007843
0.129412 0.039216 0.007843
0.156863 0.043137 0.019608
0.176471 0.039216 0.015686
0.207843 0.039216 0.015686
0.247059 0.039216 0.015686
0.305882 0.039216 0.035294
0.341176 0.035294 0.035294
0.376471 0.027451 0.035294
0.431373 0.023529 0.050980
0.474510 0.011765 0.058824
0.525490 0.003922 0.070588
0.584314 0.000000 0.086275
0.635294 0.000000 0.090196
0.698039 0.003922 0.105882
0.760784 0.003922 0.125490
0.823529 0.000000 0.137255
0.878431 0.000000 0.141176
0.929412 0.000000 0.164706
0.980392 0.000000 0.180392
1.000000 0.058824 0.203922
0.992157 0.129412 0.227451
0.019608 0.031373 0.003922
0.023529 0.035294 0.000000
0.023529 0.035294 0.000000
0.031373 0.043137 0.000000
0.039216 0.047059 0.003922
0.047059 0.047059 0.000000
0.058824 0.050980 0.003922
0.062745 0.047059 0.000000
0.082353 0.047059 0.011765
0.098039 0.047059 0.011765
0.117647 0.050980 0.011765
0.133333 0.054902 0.011765
0.164706 0.054902 0.011765
0.192157 0.058824 0.011765
0.215686 0.058824 0.011765
0.250980 0.062745 0.015686
0.301961 0.066667 0.035294
0.349020 0.062745 0.039216
0.388235 0.062745 0.047059
0.435294 0.062745 0.054902
0.486275 0.054902 0.058824
0.537255 0.047059 0.070588
0.592157 0.035294 0.082353
0.647059 0.023529 0.101961
0.713726 0.007843 0.113725
0.772549 0.000000 0.109804
0.831373 0.003922 0.141176
0.886275 0.007843 0.141176
0.937255 0.047059 0.164706
0.984314 0.090196 0.188235
0.996078 0.141176 0.203922
1.000000 0.180392 0.231373
0.031373 0.043137 0.007843
0.035294 0.047059 0.003922
0.035294 0.047059 0.003922
0.039216 0.054902 0.000000
0.050980 0.058824 0.003922
0.062745 0.066667 0.003922
0.066667 0.070588 0.000000
0.078431 0.066667 0.000000
0.094118 0.066667 0.003922
0.109804 0.062745 0.000000
0.125490 0.062745 0.003922
0.145098 0.070588 0.011765
0.164706 0.074510 0.019608
0.196078 0.070588 0.019608
0.227451 0.082353 0.019608
0.262745 0.082353 0.019608
0.313726 0.086275 0.031373
0.360784 0.086275 0.039216
0.400000 0.086275 0.043137
0.447059 0.094118 0.062745
0.494118 0.090196 0.062745
0.549020 0.086275 0.070588
0.607843 0.090196 0.082353
0.650980 0.082353 0.094118
0.721569 0.078431 0.105882
0.776471 0.082353 0.121569
0.839216 0.094118 0.141176
0.894118 0.105882 0.145098
0.941176 0.125490 0.176471
0.984314 0.156863 0.184314
1.000000 0.192157 0.207843
1.000000 0.223529 0.235294
0.047059 0.062745 0.007843
0.047059 0.062745 0.007843
0.050980 0.066667 0.007843
0.050980 0.066667 0.007843
0.058824 0.074510 0.007843
0.070588 0.082353 0.000000
0.086275 0.094118 0.000000
0.094118 0.094118 0.000000
0.113725 0.090196 0.003922
0.125490 0.082353 0.003922
0.145098 0.086275 0.011765
0.160784 0.090196 0.011765
0.180392 0.090196 0.019608
0.215686 0.094118 0.015686
0.239216 0.094118 0.019608
0.278431 0.101961 0.027451
0.325490 0.109804 0.031373
0.376471 0.113725 0.050980
0.419608 0.117647 0.054902
0.458824 0.113725 0.058824
0.501961 0.125490 0.070588
0.556863 0.121569 0.078431
0.611765 0.125490 0.086275
0.666667 0.129412 0.098039
0.729412 0.133333 0.113725
0.784314 0.137255 0.121569
0.847059 0.149020 0.141176
0.905882 0.164706 0.156863
0.941176 0.188235 0.168627
0.984314 0.211765 0.180392
1.000000 0.243137 0.207843
0.996078 0.274510 0.235294
0.050980 0.078431 0.007843
0.062745 0.082353 0.003922
0.066667 0.086275 0.007843
0.066667 0.086275 0.000000
0.074510 0.094118 0.003922
0.090196 0.105882 0.007843
0.094118 0.113725 0.000000
0.113725 0.117647 0.000000
0.133333 0.117647 0.003922
0.141176 0.113725 0.000000
0.156863 0.109804 0.007843
0.188235 0.109804 0.011765
0.203922 0.109804 0.015686
0.223529 0.117647 0.011765
0.254902 0.121569 0.023529
0.282353 0.125490 0.023529
0.333333 0.137255 0.031373
0.380392 0.145098 0.043137
0.423529 0.149020 0.050980
0.470588 0.156863 0.066667
0.513726 0.160784 0.066667
0.572549 0.160784 0.078431
0.623529 0.164706 0.094118
0.682353 0.176471 0.101961
0.737255 0.184314 0.113725
0.800000 0.188235 0.129412
0.858824 0.203922 0.141176
0.909804 0.215686 0.152941
0.949020 0.239216 0.172549
0.988235 0.254902 0.188235
1.000000 0.282353 0.211765
1.000000 0.313726 0.239216
0.070588 0.101961 0.007843
0.074510 0.105882 0.011765
0.074510 0.109804 0.003922
0.086275 0.109804 0.000000
0.098039 0.121569 0.011765
0.098039 0.125490 0.000000
0.113725 0.137255 0.000000
0.129412 0.145098 0.000000
0.156863 0.149020 0.000000
0.168627 0.149020 0.000000
0.192157 0.141176 0.003922
0.207843 0.133333 0.003922
0.219608 0.141176 0.011765
0.243137 0.137255 0.019608
0.274510 0.141176 0.031373
0.305882 0.152941 0.031373
0.356863 0.156863 0.035294
0.400000 0.168627 0.050980
0.439216 0.176471 0.062745
0.482353 0.180392 0.070588
0.525490 0.192157 0.070588
0.584314 0.192157 0.090196
0.639216 0.203922 0.094118
0.694118 0.207843 0.098039
0.749020 0.223529 0.125490
0.803922 0.231373 0.133333
0.858824 0.250980 0.141176
0.909804 0.266667 0.168627
0.952941 0.290196 0.176471
0.992157 0.313726 0.196078
1.000000 0.333333 0.223529
1.000000 0.356863 0.247059
0.094118 0.129412 0.007843
0.094118 0.129412 0.007843
0.094118 0.133333 0.000000
0.105882 0.133333 0.000000
0.113725 0.141176 0.007843
0.125490 0.149020 0.000000
0.137255 0.164706 0.000000
0.149020 0.172549 0.000000
0.184314 0.180392 0.007843
0.196078 0.180392 0.003922
0.219608 0.176471 0.000000
0.239216 0.172549 0.003922
0.254902 0.172549 0.000000
0.278431 0.168627 0.011765
0.290196 0.176471 0.019608
0.317647 0.180392 0.023529
0.376471 0.188235 0.031373
0.411765 0.196078 0.043137
0.454902 0.203922 0.062745
0.505882 0.215686 0.078431
0.549020 0.219608 0.078431
0.600000 0.231373 0.098039
0.650980 0.243137 0.098039
0.698039 0.250980 0.105882
0.760784 0.266667 0.117647
0.815686 0.282353 0.133333
0.870588 0.294118 0.160784
0.921569 0.309804 0.160784
0.960784 0.337255 0.184314
0.996078 0.352941 0.203922
1.000000 0.376471 0.219608
1.000000 0.403922 0.258824
0.125490 0.156863 0.011765
0.125490 0.156863 0.011765
0.125490 0.156863 0.003922
0.129412 0.160784 0.000000
0.141176 0.168627 0.003922
0.145098 0.172549 0.000000
0.156863 0.188235 0.000000
0.172549 0.200000 0.000000
0.192157 0.211765 0.000000
0.215686 0.219608 0.000000
0.243137 0.215686 0.003922
0.262745 0.211765 0.003922
0.286275 0.200000 0.003922
0.305882 0.203922 0.003922
0.313726 0.203922 0.007843
0.341176 0.207843 0.019608
0.392157 0.219608 0.035294
0.435294 0.231373 0.047059
0.474510 0.235294 0.058824
0.513726 0.247059 0.070588
0.564706 0.258824 0.078431
0.615686 0.266667 0.094118
0.666667 0.282353 0.105882
0.713726 0.294118 0.113725
0.768627 0.305882 0.125490
0.827451 0.325490 0.141176
0.878431 0.341176 0.160784
0.921569 0.356863 0.160784
0.964706 0.372549 0.188235
1.000000 0.392157 0.211765
1.000000 0.423529 0.243137
0.996078 0.443137 0.262745
0.152941 0.180392 0.015686
0.152941 0.180392 0.007843
0.156863 0.188235 0.003922
0.156863 0.188235 0.000000
0.160784 0.200000 0.003922
0.172549 0.207843 0.000000
0.184314 0.219608 0.000000
0.200000 0.231373 0.000000
0.219608 0.243137 0.000000
0.243137 0.250980 0.000000
0.270588 0.254902 0.003922
0.286275 0.250980 0.000000
0.313726 0.254902 0.000000
0.333333 0.250980 0.000000
0.349020 0.250980 0.000000
0.380392 0.247059 0.007843
0.419608 0.250980 0.035294
0.454902 0.262745 0.043137
0.494118 0.270588 0.054902
0.537255 0.278431 0.074510
0.584314 0.286275 0.082353
0.631373 0.305882 0.094118
0.686275 0.317647 0.105882
0.729412 0.333333 0.113725
0.784314 0.349020 0.133333
0.839216 0.364706 0.149020
0.886275 0.392157 0.160784
0.929412 0.407843 0.184314
0.968627 0.423529 0.200000
1.000000 0.443137 0.215686
1.000000 0.466667 0.254902
0.996078 0.482353 0.278431
0.176471 0.215686 0.011765
0.176471 0.215686 0.011765
0.184314 0.219608 0.011765
0.188235 0.223529 0.007843
0.188235 0.231373 0.003922
0.200000 0.239216 0.000000
0.211765 0.250980 0.003922
0.223529 0.258824 0.003922
0.239216 0.278431 0.007843
0.262745 0.286275 0.003922
0.290196 0.290196 0.000000
0.321569 0.298039 0.000000
0.345098 0.298039 0.000000
0.364706 0.298039 0.000000
0.388235 0.298039 0.000000
0.415686 0.290196 0.000000
0.450980 0.294118 0.019608
0.490196 0.305882 0.039216
0.521569 0.313726 0.054902
0.556863 0.321569 0.074510
0.600000 0.333333 0.086275
0.650980 0.345098 0.094118
0.705882 0.360784 0.109804
0.756863 0.372549 0.133333
0.803922 0.392157 0.133333
0.854902 0.411765 0.152941
0.898039 0.431373 0.172549
0.937255 0.447059 0.184314
0.980392 0.462745 0.207843
1.000000 0.482353 0.231373
1.000000 0.505882 0.258824
1.000000 0.521569 0.290196
0.207843 0.247059 0.011765
0.207843 0.247059 0.011765
0.211765 0.250980 0.011765
0.215686 0.254902 0.007843
0.219608 0.262745 0.000000
0.235294 0.274510 0.003922
0.243137 0.282353 0.003922
0.258824 0.290196 0.000000
0.266667 0.309804 0.000000
0.290196 0.321569 0.000000
0.317647 0.333333 0.000000
0.349020 0.341176 0.000000
0.384314 0.345098 0.003922
0.407843 0.345098 0.003922
0.431373 0.345098 0.007843
0.454902 0.337255 0.000000
0.490196 0.341176 0.007843
0.521569 0.345098 0.019608
0.552941 0.352941 0.035294
0.584314 0.360784 0.050980
0.623529 0.376471 0.074510
0.670588 0.388235 0.090196
0.725490 0.403922 0.113725
0.772549 0.415686 0.129412
0.815686 0.439216 0.141176
0.866667 0.450980 0.152941
0.913725 0.474510 0.176471
0.952941 0.490196 0.200000
0.980392 0.505882 0.219608
0.996078 0.521569 0.243137
1.000000 0.545098 0.270588
1.000000 0.556863 0.309804
0.262745 0.301961 0.023529
0.262745 0.301961 0.015686
0.266667 0.309804 0.011765
0.274510 0.317647 0.011765
0.282353 0.317647 0.007843
0.290196 0.325490 0.000000
0.298039 0.337255 0.000000
0.313726 0.349020 0.000000
0.329412 0.364706 0.000000
0.349020 0.376471 0.000000
0.368627 0.392157 0.000000
0.403922 0.407843 0.000000
0.431373 0.415686 0.000000
0.466667 0.423529 0.000000
0.494118 0.427451 0.003922
0.521569 0.435294 0.000000
0.556863 0.431373 0.003922
0.592157 0.435294 0.000000
0.615686 0.435294 0.000000
0.650980 0.447059 0.019608
0.682353 0.450980 0.058824
0.717647 0.458824 0.082353
0.760784 0.474510 0.105882
0.803922 0.494118 0.133333
0.839216 0.505882 0.149020
0.886275 0.521569 0.156863
0.925490 0.541176 0.192157
0.964706 0.556863 0.215686
0.988235 0.572549 0.235294
1.000000 0.588235 0.270588
1.000000 0.600000 0.305882
1.000000 0.619608 0.341176
0.298039 0.341176 0.031373
0.298039 0.345098 0.023529
0.305882 0.352941 0.031373
0.305882 0.352941 0.015686
0.317647 0.356863 0.007843
0.329412 0.364706 0.000000
0.333333 0.380392 0.000000
0.352941 0.392157 0.003922
0.368627 0.400000 0.000000
0.392157 0.415686 0.000000
0.407843 0.435294 0.000000
0.439216 0.450980 0.000000
0.470588 0.466667 0.003922
0.498039 0.478431 0.007843
0.529412 0.486275 0.000000
0.564706 0.486275 0.000000
0.607843 0.486275 0.000000
0.639216 0.490196 0.000000
0.654902 0.494118 0.000000
0.690196 0.494118 0.003922
0.721569 0.501961 0.035294
0.756863 0.505882 0.074510
0.788235 0.521569 0.101961
0.823529 0.537255 0.125490
0.854902 0.549020 0.152941
0.901961 0.564706 0.176471
0.945098 0.584314 0.196078
0.972549 0.592157 0.223529
1.000000 0.611765 0.254902
1.000000 0.623529 0.282353
1.000000 0.643137 0.317647
1.000000 0.658824 0.356863
0.345098 0.384314 0.043137
0.345098 0.384314 0.035294
0.349020 0.392157 0.031373
0.352941 0.396078 0.027451
0.360784 0.400000 0.019608
0.368627 0.411765 0.011765
0.384314 0.419608 0.000000
0.396078 0.435294 0.000000
0.415686 0.443137 0.000000
0.431373 0.462745 0.000000
0.454902 0.478431 0.000000
0.478431 0.498039 0.003922
0.505882 0.509804 0.000000
0.537255 0.529412 0.000000
0.576471 0.541176 0.000000
0.611765 0.552941 0.000000
0.650980 0.552941 0.000000
0.678431 0.549020 0.000000
0.705882 0.552941 0.003922
0.737255 0.560784 0.000000
0.756863 0.556863 0.000000
0.788235 0.560784 0.035294
0.815686 0.576471 0.086275
0.850980 0.580392 0.113725
0.878431 0.592157 0.149020
0.921569 0.603922 0.180392
0.945098 0.619608 0.203922
0.976471 0.635294 0.231373
0.996078 0.650980 0.266667
1.000000 0.662745 0.298039
0.996078 0.674510 0.345098
1.000000 0.694118 0.372549
0.392157 0.431373 0.050980
0.396078 0.435294 0.047059
0.400000 0.443137 0.043137
0.407843 0.439216 0.035294
0.411765 0.447059 0.027451
0.423529 0.454902 0.015686
0.431373 0.466667 0.000000
0.447059 0.478431 0.000000
0.462745 0.486275 0.000000
0.482353 0.501961 0.000000
0.501961 0.525490 0.000000
0.533333 0.541176 0.007843
0.549020 0.560784 0.000000
0.584314 0.576471 0.000000
0.619608 0.592157 0.003922
0.654902 0.603922 0.000000
0.701961 0.611765 0.000000
0.729412 0.611765 0.000000
0.749020 0.611765 0.000000
0.772549 0.615686 0.000000
0.803922 0.615686 0.000000
0.823529 0.615686 0.000000
0.847059 0.619608 0.047059
0.878431 0.627451 0.101961
0.909804 0.635294 0.149020
0.937255 0.643137 0.176471
0.960784 0.658824 0.211765
0.988235 0.670588 0.247059
1.000000 0.682353 0.290196
1.000000 0.694118 0.321569
1.000000 0.713726 0.356863
1.000000 0.725490 0.392157
0.447059 0.482353 0.062745
0.450980 0.486275 0.058824
0.454902 0.494118 0.054902
0.462745 0.494118 0.054902
0.462745 0.498039 0.031373
0.474510 0.505882 0.027451
0.486275 0.513726 0.003922
0.501961 0.525490 0.000000
0.513726 0.541176 0.000000
0.537255 0.556863 0.000000
0.556863 0.572549 0.000000
0.584314 0.584314 0.000000
0.607843 0.611765 0.007843
0.635294 0.627451 0.000000
0.666667 0.635294 0.003922
0.698039 0.654902 0.000000
0.749020 0.666667 0.000000
0.772549 0.670588 0.000000
0.796078 0.670588 0.007843
0.819608 0.670588 0.007843
0.839216 0.674510 0.007843
0.858824 0.670588 0.000000
0.882353 0.674510 0.015686
0.909804 0.670588 0.070588
0.929412 0.686275 0.125490
0.956863 0.686275 0.176471
0.972549 0.698039 0.219608
0.992157 0.709804 0.247059
1.000000 0.713726 0.301961
0.996078 0.729412 0.341176
0.996078 0.737255 0.368627
1.000000 0.756863 0.423529
0.509804 0.541176 0.074510
0.509804 0.541176 0.066667
0.513726 0.545098 0.066667
0.517647 0.552941 0.062745
0.529412 0.552941 0.058824
0.537255 0.560784 0.043137
0.552941 0.568627 0.023529
0.564706 0.580392 0.003922
0.580392 0.596078 0.011765
0.592157 0.607843 0.000000
0.611765 0.615686 0.003922
0.635294 0.639216 0.000000
0.658824 0.654902 0.000000
0.686275 0.670588 0.003922
0.713726 0.686275 0.000000
0.745098 0.701961 0.003922
0.784314 0.721569 0.000000
0.807843 0.721569 0.000000
0.835294 0.725490 0.000000
0.858824 0.725490 0.000000
0.878431 0.729412 0.003922
0.898039 0.725490 0.000000
0.921569 0.725490 0.000000
0.937255 0.717647 0.031373
0.952941 0.725490 0.101961
0.972549 0.729412 0.160784
0.988235 0.737255 0.219608
1.000000 0.741176 0.262745
0.996078 0.749020 0.305882
1.000000 0.756863 0.352941
1.000000 0.768627 0.400000
1.000000 0.772549 0.450980
0.572549 0.592157 0.086275
0.576471 0.600000 0.082353
0.580392 0.603922 0.086275
0.584314 0.607843 0.082353
0.596078 0.611765 0.074510
0.603922 0.615686 0.054902
0.611765 0.623529 0.031373
0.619608 0.635294 0.011765
0.635294 0.643137 0.003922
0.654902 0.662745 0.000000
0.666667 0.674510 0.000000
0.694118 0.690196 0.000000
0.713726 0.705882 0.003922
0.733333 0.717647 0.000000
0.764706 0.733333 0.003922
0.784314 0.749020 0.000000
0.831373 0.764706 0.003922
0.847059 0.768627 0.003922
0.874510 0.768627 0.003922
0.886275 0.776471 0.003922
0.905882 0.772549 0.003922
0.929412 0.772549 0.003922
0.945098 0.772549 0.000000
0.960784 0.764706 0.000000
0.976471 0.768627 0.086275
0.988235 0.768627 0.160784
1.000000 0.768627 0.219608
1.000000 0.768627 0.258824
1.000000 0.780392 0.313726
0.996078 0.784314 0.360784
1.000000 0.796078 0.419608
0.996078 0.811765 0.466667
0.639216 0.654902 0.117647
0.639216 0.654902 0.109804
0.647059 0.658824 0.105882
0.650980 0.666667 0.094118
0.654902 0.670588 0.094118
0.662745 0.674510 0.082353
0.674510 0.682353 0.050980
0.686275 0.690196 0.039216
0.698039 0.701961 0.000000
0.713726 0.709804 0.007843
0.725490 0.725490 0.000000
0.741176 0.737255 0.000000
0.768627 0.752941 0.000000
0.784314 0.760784 0.000000
0.803922 0.772549 0.000000
0.823529 0.788235 0.000000
0.862745 0.803922 0.000000
0.878431 0.807843 0.000000
0.909804 0.811765 0.003922
0.921569 0.811765 0.003922
0.941176 0.815686 0.003922
0.960784 0.819608 0.011765
0.972549 0.811765 0.003922
0.976471 0.811765 0.000000
0.992157 0.807843 0.047059
1.000000 0.803922 0.141176
1.000000 0.803922 0.200000
1.000000 0.803922 0.262745
1.000000 0.803922 0.313726
0.996078 0.807843 0.376471
0.996078 0.815686 0.431373
1.000000 0.827451 0.494118
0.705882 0.713726 0.152941
0.705882 0.713726 0.152941
0.705882 0.713726 0.145098
0.717647 0.717647 0.145098
0.713726 0.725490 0.141176
0.725490 0.721569 0.125490
0.729412 0.729412 0.109804
0.749020 0.737255 0.090196
0.752941 0.749020 0.058824
0.764706 0.760784 0.023529
0.776471 0.768627 0.000000
0.796078 0.784314 0.003922
0.811765 0.788235 0.003922
0.827451 0.803922 0.000000
0.843137 0.811765 0.000000
0.862745 0.823529 0.000000
0.894118 0.843137 0.000000
0.909804 0.847059 0.000000
0.941176 0.850980 0.003922
0.945098 0.847059 0.000000
0.964706 0.850980 0.000000
0.976471 0.847059 0.003922
0.988235 0.847059 0.000000
1.000000 0.843137 0.011765
0.996078 0.839216 0.019608
1.000000 0.835294 0.117647
1.000000 0.835294 0.192157
1.000000 0.835294 0.254902
1.000000 0.835294 0.321569
1.000000 0.839216 0.384314
1.000000 0.839216 0.439216
0.996078 0.850980 0.501961
0.768627 0.764706 0.207843
0.768627 0.764706 0.207843
0.768627 0.764706 0.200000
0.772549 0.772549 0.200000
0.772549 0.772549 0.192157
0.780392 0.776471 0.180392
0.796078 0.784314 0.168627
0.800000 0.788235 0.149020
0.803922 0.792157 0.137255
0.815686 0.803922 0.109804
0.827451 0.811765 0.078431
0.843137 0.819608 0.035294
0.862745 0.823529 0.000000
0.874510 0.839216 0.000000
0.886275 0.843137 0.003922
0.898039 0.858824 0.000000
0.921569 0.866667 0.000000
0.941176 0.870588 0.000000
0.960784 0.874510 0.000000
0.968627 0.874510 0.000000
0.984314 0.874510 0.000000
0.992157 0.874510 0.003922
1.000000 0.874510 0.000000
0.996078 0.870588 0.000000
1.000000 0.866667 0.007843
1.000000 0.862745 0.086275
1.000000 0.862745 0.188235
1.000000 0.858824 0.239216
1.000000 0.854902 0.317647
1.000000 0.858824 0.380392
0.996078 0.862745 0.443137
1.000000 0.862745 0.501961
0.823529 0.815686 0.286275
0.823529 0.815686 0.286275
0.831373 0.815686 0.282353
0.831373 0.819608 0.274510
0.835294 0.823529 0.270588
0.843137 0.823529 0.258824
0.850980 0.827451 0.247059
0.854902 0.835294 0.239216
0.854902 0.839216 0.215686
0.866667 0.847059 0.203922
0.878431 0.847059 0.184314
0.894118 0.858824 0.156863
0.901961 0.866667 0.125490
0.905882 0.870588 0.082353
0.913725 0.870588 0.023529
0.933333 0.882353 0.000000
0.956863 0.890196 0.000000
0.968627 0.898039 0.000000
0.984314 0.901961 0.003922
0.984314 0.901961 0.000000
0.992157 0.905882 0.000000
0.996078 0.901961 0.000000
1.000000 0.898039 0.000000
1.000000 0.894118 0.000000
1.000000 0.894118 0.003922
1.000000 0.894118 0.090196
1.000000 0.882353 0.180392
1.000000 0.882353 0.250980
0.992157 0.882353 0.317647
0.996078 0.878431 0.392157
1.000000 0.878431 0.454902
1.000000 0.886275 0.525490
0.874510 0.850980 0.364706
0.874510 0.850980 0.364706
0.874510 0.854902 0.360784
0.874510 0.854902 0.360784
0.874510 0.854902 0.345098
0.886275 0.858824 0.341176
0.886275 0.862745 0.329412
0.898039 0.870588 0.321569
0.894118 0.866667 0.305882
0.905882 0.874510 0.298039
0.913725 0.878431 0.270588
0.921569 0.886275 0.247059
0.933333 0.890196 0.231373
0.937255 0.894118 0.196078
0.952941 0.898039 0.164706
0.956863 0.905882 0.121569
0.968627 0.905882 0.043137
0.984314 0.913725 0.000000
1.000000 0.921569 0.000000
1.000000 0.917647 0.000000
0.992157 0.925490 0.000000
0.996078 0.917647 0.000000
