FILES/02-ce8139b5.cube
TITLE "/Users/aaronseiha/Desktop/Xpose"
LUT_3D_SIZE 8
DOMAIN_MIN 0.000000 0.000000 0.000000
DOMAIN_MAX 0.903226 0.903226 0.903226
0.000000 0.000000 0.000000
0.003922 0.000000 0.000000
0.015686 0.000000 0.003922
0.023529 0.003922 0.019608
0.039216 0.039216 0.047059
0.074510 0.086275 0.105882
0.176471 0.180392 0.196078
0.368627 0.364706 0.356863
0.019608 0.003922 0.007843
0.019608 0.003922 0.007843
0.023529 0.003922 0.019608
0.035294 0.015686 0.031373
0.050980 0.054902 0.074510
0.105882 0.109804 0.129412
0.215686 0.215686 0.223529
0.407843 0.411765 0.392157
0.031373 0.023529 0.043137
0.035294 0.027451 0.047059
0.043137 0.047059 0.066667
0.062745 0.066667 0.086275
0.109804 0.113725 0.129412
0.184314 0.180392 0.200000
0.309804 0.305882 0.298039
0.517647 0.521569 0.498039
0.101961 0.105882 0.125490
0.113725 0.117647 0.137255
0.137255 0.141176 0.156863
0.180392 0.180392 0.188235
0.254902 0.247059 0.258824
0.341176 0.341176 0.333333
0.482353 0.486275 0.466667
0.682353 0.686275 0.666667
0.356863 0.352941 0.345098
0.360784 0.360784 0.352941
0.400000 0.396078 0.380392
0.447059 0.454902 0.435294
0.541176 0.552941 0.525490
0.639216 0.643137 0.623529
0.741176 0.737255 0.721569
0.835294 0.827451 0.831373
0.686275 0.690196 0.666667
0.694118 0.698039 0.678431
0.717647 0.717647 0.709804
0.745098 0.745098 0.737255
0.788235 0.784314 0.776471
0.831373 0.827451 0.819608
0.862745 0.854902 0.858824
0.882353 0.874510 0.878431
0.870588 0.862745 0.866667
0.870588 0.862745 0.866667
0.882353 0.866667 0.862745
0.886275 0.870588 0.874510
0.882353 0.874510 0.878431
0.890196 0.874510 0.878431
0.874510 0.866667 0.870588
0.858824 0.850980 0.854902
0.847059 0.839216 0.843137
0.847059 0.839216 0.843137
0.843137 0.835294 0.839216
0.843137 0.835294 0.839216
0.827451 0.819608 0.823529
0.811765 0.803922 0.807843
0.796078 0.792157 0.784314
0.760784 0.760784 0.752941
0.000000 0.000000 0.000000
0.015686 0.000000 0.003922
0.019608 0.000000 0.003922
0.027451 0.007843 0.023529
0.047059 0.043137 0.062745
0.090196 0.094118 0.109804
0.192157 0.188235 0.207843
0.376471 0.372549 0.364706
0.023529 0.000000 0.007843
0.023529 0.000000 0.015686
0.027451 0.007843 0.023529
0.027451 0.019608 0.031373
0.058824 0.062745 0.082353
0.117647 0.121569 0.141176
0.223529 0.215686 0.227451
0.415686 0.419608 0.400000
0.031373 0.023529 0.043137
0.035294 0.027451 0.047059
0.043137 0.047059 0.066667
0.062745 0.066667 0.082353
0.113725 0.117647 0.137255
0.192157 0.188235 0.207843
0.317647 0.313726 0.305882
0.529412 0.533333 0.513726
0.105882 0.109804 0.129412
0.117647 0.121569 0.141176
0.141176 0.137255 0.156863
0.184314 0.184314 0.192157
0.258824 0.250980 0.262745
0.349020 0.345098 0.337255
0.490196 0.494118 0.474510
0.686275 0.690196 0.670588
0.356863 0.352941 0.345098
0.372549 0.368627 0.360784
0.403922 0.400000 0.384314
0.454902 0.458824 0.439216
0.545098 0.556863 0.529412
0.643137 0.647059 0.627451
0.745098 0.745098 0.737255
0.835294 0.827451 0.831373
0.690196 0.694118 0.674510
0.698039 0.701961 0.682353
0.721569 0.717647 0.701961
0.749020 0.749020 0.741176
0.792157 0.788235 0.780392
0.831373 0.827451 0.819608
0.866667 0.858824 0.862745
0.882353 0.874510 0.878431
0.870588 0.862745 0.874510
0.874510 0.866667 0.870588
0.882353 0.866667 0.870588
0.890196 0.874510 0.878431
0.890196 0.874510 0.878431
0.890196 0.874510 0.878431
0.874510 0.866667 0.870588
0.858824 0.854902 0.847059
0.847059 0.843137 0.835294
0.847059 0.839216 0.843137
0.843137 0.839216 0.831373
0.839216 0.835294 0.827451
0.827451 0.823529 0.815686
0.815686 0.807843 0.811765
0.796078 0.792157 0.784314
0.764706 0.760784 0.752941
0.011765 0.000000 0.000000
0.015686 0.000000 0.000000
0.023529 0.000000 0.007843
0.027451 0.007843 0.023529
0.047059 0.050980 0.066667
0.094118 0.105882 0.125490
0.203922 0.200000 0.219608
0.396078 0.392157 0.376471
0.019608 0.000000 0.015686
0.019608 0.000000 0.015686
0.027451 0.007843 0.023529
0.031373 0.027451 0.047059
0.062745 0.066667 0.082353
0.129412 0.125490 0.149020
0.243137 0.235294 0.247059
0.435294 0.439216 0.419608
0.031373 0.023529 0.043137
0.039216 0.035294 0.054902
0.047059 0.050980 0.070588
0.070588 0.074510 0.094118
0.125490 0.129412 0.145098
0.203922 0.203922 0.211765
0.337255 0.333333 0.325490
0.541176 0.552941 0.525490
0.113725 0.117647 0.137255
0.121569 0.125490 0.141176
0.149020 0.145098 0.164706
0.188235 0.188235 0.196078
0.266667 0.258824 0.262745
0.360784 0.360784 0.352941
0.509804 0.513726 0.494118
0.698039 0.701961 0.682353
0.364706 0.364706 0.356863
0.380392 0.376471 0.360784
0.407843 0.411765 0.392157
0.458824 0.470588 0.443137
0.552941 0.564706 0.537255
0.650980 0.654902 0.635294
0.749020 0.749020 0.741176
0.843137 0.835294 0.839216
0.698039 0.701961 0.682353
0.705882 0.709804 0.690196
0.725490 0.725490 0.717647
0.756863 0.752941 0.745098
0.800000 0.796078 0.788235
0.835294 0.831373 0.823529
0.862745 0.854902 0.858824
0.882353 0.874510 0.878431
0.870588 0.862745 0.866667
0.874510 0.866667 0.870588
0.874510 0.870588 0.862745
0.878431 0.870588 0.874510
0.882353 0.874510 0.878431
0.882353 0.874510 0.878431
0.882353 0.866667 0.870588
0.858824 0.850980 0.854902
0.847059 0.839216 0.843137
0.843137 0.835294 0.839216
0.843137 0.835294 0.839216
0.839216 0.831373 0.835294
0.827451 0.823529 0.815686
0.815686 0.807843 0.811765
0.792157 0.788235 0.780392
0.760784 0.756863 0.749020
0.019608 0.000000 0.003922
0.023529 0.000000 0.015686
0.023529 0.000000 0.007843
0.035294 0.015686 0.031373
0.054902 0.058824 0.074510
0.113725 0.117647 0.137255
0.227451 0.223529 0.243137
0.415686 0.419608 0.400000
0.027451 0.003922 0.019608
0.027451 0.003922 0.011765
0.031373 0.011765 0.035294
0.035294 0.031373 0.050980
0.074510 0.078431 0.094118
0.145098 0.141176 0.164706
0.266667 0.258824 0.262745
0.462745 0.466667 0.447059
0.035294 0.031373 0.050980
0.039216 0.035294 0.058824
0.050980 0.054902 0.070588
0.074510 0.078431 0.098039
0.137255 0.141176 0.156863
0.223529 0.223529 0.231373
0.360784 0.356863 0.349020
0.568627 0.572549 0.552941
0.121569 0.125490 0.145098
0.133333 0.137255 0.152941
0.156863 0.152941 0.172549
0.203922 0.196078 0.207843
0.282353 0.274510 0.278431
0.380392 0.380392 0.372549
0.533333 0.537255 0.517647
0.713726 0.717647 0.698039
0.388235 0.384314 0.368627
0.396078 0.400000 0.380392
0.427451 0.431373 0.411765
0.474510 0.482353 0.462745
0.564706 0.576471 0.549020
0.662745 0.666667 0.647059
0.760784 0.760784 0.752941
0.843137 0.835294 0.839216
0.709804 0.709804 0.701961
0.713726 0.713726 0.705882
0.737255 0.733333 0.725490
0.768627 0.764706 0.756863
0.803922 0.800000 0.792157
0.847059 0.831373 0.827451
0.870588 0.866667 0.858824
0.882353 0.874510 0.878431
0.874510 0.866667 0.870588
0.874510 0.866667 0.870588
0.878431 0.870588 0.874510
0.878431 0.870588 0.874510
0.882353 0.874510 0.878431
0.886275 0.878431 0.882353
0.874510 0.866667 0.870588
0.854902 0.847059 0.850980
0.847059 0.839216 0.843137
0.843137 0.835294 0.839216
0.843137 0.835294 0.839216
0.835294 0.827451 0.831373
0.823529 0.819608 0.811765
0.815686 0.807843 0.811765
0.788235 0.784314 0.776471
0.760784 0.756863 0.749020
0.019608 0.003922 0.007843
0.027451 0.003922 0.019608
0.023529 0.003922 0.019608
0.035294 0.027451 0.039216
0.058824 0.062745 0.078431
0.125490 0.129412 0.145098
0.250980 0.243137 0.254902
0.447059 0.450980 0.431373
0.031373 0.007843 0.023529
0.031373 0.011765 0.027451
0.031373 0.023529 0.043137
0.047059 0.043137 0.062745
0.082353 0.086275 0.105882
0.160784 0.156863 0.176471
0.290196 0.282353 0.286275
0.490196 0.494118 0.470588
0.043137 0.047059 0.066667
0.047059 0.050980 0.070588
0.062745 0.066667 0.086275
0.094118 0.098039 0.117647
0.152941 0.156863 0.172549
0.243137 0.243137 0.250980
0.388235 0.384314 0.368627
0.592157 0.596078 0.576471
0.141176 0.145098 0.160784
0.152941 0.149020 0.168627
0.180392 0.180392 0.188235
0.227451 0.219608 0.231373
0.305882 0.301961 0.294118
0.407843 0.411765 0.392157
0.556863 0.560784 0.541176
0.721569 0.721569 0.713726
0.411765 0.407843 0.392157
0.419608 0.415686 0.400000
0.454902 0.458824 0.439216
0.501961 0.509804 0.490196
0.588235 0.596078 0.576471
0.682353 0.686275 0.666667
0.776471 0.772549 0.764706
0.847059 0.839216 0.843137
0.725490 0.725490 0.717647
0.729412 0.733333 0.713726
0.749020 0.745098 0.737255
0.776471 0.772549 0.764706
0.815686 0.811765 0.803922
0.843137 0.835294 0.839216
0.882353 0.866667 0.870588
0.882353 0.874510 0.878431
0.874510 0.866667 0.870588
0.886275 0.870588 0.874510
0.878431 0.870588 0.874510
0.882353 0.874510 0.878431
0.882353 0.874510 0.878431
0.878431 0.870588 0.874510
0.874510 0.866667 0.870588
0.850980 0.847059 0.839216
0.843137 0.835294 0.839216
0.843137 0.835294 0.839216
0.839216 0.831373 0.835294
0.827451 0.823529 0.815686
0.819608 0.811765 0.815686
0.803922 0.800000 0.792157
0.788235 0.784314 0.776471
0.752941 0.749020 0.741176
0.023529 0.003922 0.019608
0.031373 0.011765 0.027451
0.027451 0.019608 0.031373
0.035294 0.039216 0.054902
0.078431 0.082353 0.098039
0.149020 0.152941 0.168627
0.274510 0.266667 0.270588
0.482353 0.486275 0.462745
0.027451 0.019608 0.031373
0.031373 0.023529 0.043137
0.039216 0.035294 0.058824
0.054902 0.058824 0.078431
0.094118 0.105882 0.125490
0.184314 0.180392 0.200000
0.317647 0.313726 0.305882
0.521569 0.525490 0.501961
0.058824 0.062745 0.082353
0.062745 0.066667 0.086275
0.078431 0.082353 0.101961
0.113725 0.117647 0.133333
0.180392 0.176471 0.196078
0.278431 0.270588 0.274510
0.415686 0.419608 0.400000
0.619608 0.623529 0.603922
0.172549 0.168627 0.188235
0.176471 0.176471 0.184314
0.203922 0.200000 0.219608
0.254902 0.247059 0.258824
0.337255 0.333333 0.325490
0.443137 0.447059 0.427451
0.592157 0.596078 0.576471
0.741176 0.737255 0.729412
0.450980 0.447059 0.431373
0.458824 0.462745 0.443137
0.486275 0.494118 0.474510
0.533333 0.545098 0.517647
0.619608 0.623529 0.600000
0.701961 0.705882 0.686275
0.784314 0.780392 0.772549
0.850980 0.843137 0.847059
0.745098 0.745098 0.737255
0.752941 0.749020 0.741176
0.768627 0.764706 0.749020
0.792157 0.784314 0.788235
0.823529 0.819608 0.811765
0.854902 0.847059 0.850980
0.874510 0.866667 0.870588
0.890196 0.874510 0.878431
0.874510 0.870588 0.862745
0.878431 0.870588 0.874510
0.878431 0.870588 0.874510
0.882353 0.874510 0.878431
0.882353 0.874510 0.878431
0.890196 0.874510 0.878431
0.870588 0.862745 0.866667
0.847059 0.843137 0.835294
0.839216 0.831373 0.835294
0.839216 0.831373 0.835294
0.847059 0.831373 0.827451
0.831373 0.827451 0.819608
0.815686 0.807843 0.811765
0.803922 0.800000 0.792157
0.780392 0.776471 0.768627
0.745098 0.741176 0.733333
0.031373 0.023529 0.035294
0.031373 0.023529 0.035294
0.035294 0.031373 0.050980
0.054902 0.058824 0.078431
0.101961 0.113725 0.133333
0.196078 0.192157 0.211765
0.329412 0.325490 0.317647
0.537255 0.549020 0.521569
0.039216 0.035294 0.058824
0.043137 0.039216 0.062745
0.050980 0.054902 0.074510
0.082353 0.086275 0.101961
0.137255 0.141176 0.160784
0.231373 0.223529 0.235294
0.372549 0.368627 0.352941
0.580392 0.584314 0.560784
0.074510 0.086275 0.105882
0.078431 0.094118 0.105882
0.105882 0.109804 0.125490
0.141176 0.145098 0.160784
0.215686 0.215686 0.223529
0.325490 0.321569 0.313726
0.474510 0.478431 0.458824
0.666667 0.670588 0.650980
0.207843 0.200000 0.211765
0.215686 0.207843 0.227451
0.239216 0.231373 0.243137
0.290196 0.282353 0.286275
0.372549 0.368627 0.360784
0.490196 0.494118 0.474510
0.639216 0.643137 0.623529
0.776471 0.772549 0.764706
0.498039 0.501961 0.478431
0.501961 0.509804 0.490196
0.537255 0.541176 0.517647
0.576471 0.580392 0.556863
0.647059 0.650980 0.631373
0.729412 0.733333 0.713726
0.807843 0.803922 0.796078
0.858824 0.850980 0.854902
0.784314 0.780392 0.772549
0.784314 0.780392 0.772549
0.796078 0.788235 0.792157
0.811765 0.803922 0.807843
0.839216 0.831373 0.835294
0.858824 0.850980 0.854902
0.878431 0.870588 0.874510
0.882353 0.874510 0.878431
0.878431 0.874510 0.866667
0.882353 0.874510 0.878431
0.882353 0.878431 0.870588
0.882353 0.874510 0.878431
0.882353 0.874510 0.878431
0.886275 0.870588 0.874510
0.866667 0.858824 0.862745
0.843137 0.839216 0.831373
0.839216 0.831373 0.835294
0.839216 0.835294 0.827451
0.835294 0.827451 0.831373
0.823529 0.815686 0.819608
0.815686 0.811765 0.803922
0.803922 0.788235 0.784314
0.776471 0.772549 0.764706
0.737255 0.737255 0.729412
0.043137 0.039216 0.058824
0.043137 0.039216 0.058824
0.054902 0.058824 0.074510
0.078431 0.090196 0.109804
0.152941 0.156863 0.172549
0.266667 0.258824 0.270588
0.427451 0.431373 0.411765
0.647059 0.650980 0.631373
0.054902 0.058824 0.078431
0.058824 0.062745 0.082353
0.074510 0.078431 0.098039
0.098039 0.109804 0.129412
0.180392 0.176471 0.196078
0.298039 0.290196 0.294118
0.470588 0.474510 0.454902
0.678431 0.682353 0.662745
0.109804 0.113725 0.129412
0.113725 0.117647 0.133333
0.133333 0.137255 0.152941
0.176471 0.172549 0.192157
0.266667 0.258824 0.262745
0.388235 0.392157 0.372549
0.568627 0.572549 0.552941
0.741176 0.745098 0.725490
0.247059 0.239216 0.250980
0.250980 0.243137 0.254902
0.278431 0.270588 0.282353
0.321569 0.317647 0.309804
0.415686 0.419608 0.400000
0.552941 0.556863 0.533333
0.698039 0.701961 0.682353
0.819608 0.815686 0.807843
0.552941 0.556863 0.533333
0.560784 0.564706 0.541176
0.572549 0.580392 0.560784
0.611765 0.615686 0.596078
0.678431 0.682353 0.662745
0.756863 0.760784 0.741176
0.827451 0.819608 0.823529
0.874510 0.866667 0.870588
0.815686 0.807843 0.811765
0.819608 0.811765 0.815686
0.823529 0.819608 0.811765
0.831373 0.827451 0.819608
0.847059 0.839216 0.843137
0.874510 0.858824 0.862745
0.890196 0.874510 0.878431
0.878431 0.870588 0.874510
0.882353 0.874510 0.878431
0.882353 0.874510 0.878431
0.882353 0.874510 0.886275
0.890196 0.874510 0.878431
0.886275 0.870588 0.874510
0.882353 0.866667 0.870588
0.858824 0.850980 0.854902
0.835294 0.831373 0.823529
0.823529 0.819608 0.811765
0.823529 0.819608 0.811765
0.819608 0.815686 0.807843
0.807843 0.803922 0.796078
0.800000 0.796078 0.788235
0.784314 0.780392 0.772549
0.760784 0.756863 0.749020
0.725490 0.725490 0.717647
