FILES/02-ce8139b5.cube
TITLE "/Users/aaronseiha/Desktop/Xpose"
LUT_3D_SIZE 5
DOMAIN_MIN 0.000000 0.000000 0.000000
DOMAIN_MAX 0.903226 0.903226 0.903226
0.000000 0.000000 0.000000
0.019608 0.003922 0.007843
0.031373 0.011765 0.027451
0.105882 0.109804 0.129412
0.368627 0.364706 0.356863
0.027451 0.007843 0.023529
0.035294 0.027451 0.047059
0.066667 0.062745 0.086275
0.184314 0.180392 0.200000
0.482353 0.486275 0.466667
0.188235 0.192157 0.207843
0.219608 0.219608 0.227451
0.313726 0.305882 0.309804
0.490196 0.494118 0.474510
0.760784 0.756863 0.741176
0.752941 0.752941 0.745098
0.776471 0.772549 0.764706
0.811765 0.803922 0.807843
0.870588 0.854902 0.858824
0.878431 0.870588 0.874510
0.847059 0.839216 0.843137
0.847059 0.839216 0.843137
0.835294 0.827451 0.831373
0.815686 0.811765 0.803922
0.760784 0.760784 0.752941
0.007843 0.000000 0.003922
0.019608 0.003922 0.007843
0.031373 0.023529 0.043137
0.117647 0.121569 0.137255
0.388235 0.388235 0.380392
0.023529 0.015686 0.027451
0.035294 0.027451 0.047059
0.070588 0.074510 0.094118
0.203922 0.200000 0.219608
0.509804 0.513726 0.494118
0.200000 0.196078 0.215686
0.231373 0.231373 0.239216
0.321569 0.317647 0.309804
0.505882 0.509804 0.486275
0.768627 0.768627 0.760784
0.764706 0.760784 0.752941
0.776471 0.772549 0.764706
0.815686 0.807843 0.811765
0.862745 0.854902 0.858824
0.878431 0.870588 0.874510
0.847059 0.843137 0.835294
0.843137 0.835294 0.839216
0.835294 0.827451 0.831373
0.807843 0.803922 0.796078
0.768627 0.764706 0.756863
0.023529 0.000000 0.007843
0.019608 0.000000 0.015686
0.035294 0.027451 0.047059
0.141176 0.145098 0.160784
0.431373 0.435294 0.415686
0.031373 0.023529 0.043137
0.043137 0.039216 0.058824
0.082353 0.086275 0.105882
0.239216 0.231373 0.243137
0.549020 0.552941 0.533333
0.223529 0.223529 0.231373
0.258824 0.250980 0.262745
0.352941 0.349020 0.341176
0.541176 0.545098 0.521569
0.788235 0.784314 0.776471
0.780392 0.776471 0.768627
0.792157 0.788235 0.780392
0.823529 0.819608 0.811765
0.866667 0.858824 0.862745
0.886275 0.870588 0.874510
0.847059 0.839216 0.843137
0.839216 0.831373 0.835294
0.831373 0.823529 0.827451
0.803922 0.800000 0.792157
0.760784 0.756863 0.749020
0.031373 0.011765 0.027451
0.031373 0.023529 0.035294
0.054902 0.058824 0.078431
0.184314 0.180392 0.200000
0.498039 0.501961 0.482353
0.050980 0.047059 0.070588
0.066667 0.070588 0.086275
0.121569 0.125490 0.145098
0.286275 0.278431 0.282353
0.603922 0.607843 0.588235
0.278431 0.270588 0.274510
0.309804 0.301961 0.305882
0.396078 0.396078 0.388235
0.600000 0.603922 0.584314
0.803922 0.800000 0.792157
0.803922 0.800000 0.792157
0.811765 0.803922 0.807843
0.835294 0.835294 0.827451
0.878431 0.862745 0.866667
0.878431 0.870588 0.874510
0.847059 0.839216 0.843137
0.835294 0.827451 0.831373
0.827451 0.823529 0.815686
0.792157 0.788235 0.780392
0.749020 0.745098 0.737255
0.043137 0.039216 0.058824
0.058824 0.054902 0.074510
0.105882 0.109804 0.125490
0.301961 0.294118 0.298039
0.647059 0.650980 0.631373
0.086275 0.090196 0.109804
0.101961 0.113725 0.133333
0.184314 0.184314 0.192157
0.400000 0.400000 0.392157
0.725490 0.725490 0.717647
0.352941 0.349020 0.341176
0.380392 0.376471 0.368627
0.466667 0.470588 0.450980
0.674510 0.678431 0.658824
0.847059 0.839216 0.843137
0.850980 0.843137 0.847059
0.854902 0.847059 0.850980
0.862745 0.858824 0.850980
0.878431 0.870588 0.874510
0.874510 0.866667 0.870588
0.823529 0.819608 0.811765
0.815686 0.807843 0.811765
0.807843 0.803922 0.796078
0.776471 0.772549 0.764706
0.725490 0.725490 0.717647
