FILES/03-1f693ebf.cube
TITLE "/Users/aaronseiha/Desktop/Clean Blue"
LUT_3D_SIZE 5
DOMAIN_MIN 0.000000 0.000000 0.000000
DOMAIN_MAX 0.903226 0.903226 0.903226
0.000000 0.000000 0.000000
0.039216 0.019608 0.003922
0.121569 0.031373 0.000000
0.262745 0.058824 0.003922
0.529412 0.152941 0.003922
0.011765 0.035294 0.027451
0.039216 0.058824 0.043137
0.141176 0.101961 0.062745
0.329412 0.156863 0.050980
0.603922 0.274510 0.023529
0.058824 0.105882 0.090196
0.058824 0.105882 0.090196
0.172549 0.184314 0.156863
0.564706 0.368627 0.223529
0.956863 0.564706 0.125490
0.117647 0.196078 0.149020
0.137255 0.207843 0.152941
0.188235 0.239216 0.168627
0.670588 0.580392 0.384314
0.996078 0.854902 0.666667
0.376471 0.466667 0.262745
0.388235 0.478431 0.266667
0.454902 0.517647 0.274510
0.709804 0.682353 0.376471
1.000000 0.917647 0.756863
0.007843 0.039216 0.047059
0.015686 0.058824 0.066667
0.078431 0.082353 0.101961
0.254902 0.094118 0.070588
0.541176 0.168627 0.058824
0.019608 0.074510 0.086275
0.039216 0.094118 0.105882
0.125490 0.105882 0.090196
0.294118 0.156863 0.082353
0.580392 0.258824 0.074510
0.054902 0.129412 0.121569
0.070588 0.133333 0.133333
0.196078 0.219608 0.203922
0.564706 0.384314 0.250980
0.937255 0.556863 0.152941
0.141176 0.227451 0.180392
0.149020 0.235294 0.184314
0.211765 0.270588 0.196078
0.717647 0.635294 0.458824
1.000000 0.874510 0.721569
0.384314 0.490196 0.290196
0.403922 0.494118 0.282353
0.462745 0.533333 0.290196
0.713726 0.690196 0.392157
1.000000 0.929412 0.803922
0.035294 0.109804 0.125490
0.039216 0.121569 0.141176
0.054902 0.152941 0.172549
0.098039 0.211765 0.235294
0.521569 0.160784 0.258824
0.047059 0.125490 0.152941
0.050980 0.141176 0.164706
0.070588 0.164706 0.203922
0.184314 0.215686 0.258824
0.631373 0.152941 0.211765
0.074510 0.180392 0.207843
0.086275 0.192157 0.227451
0.203922 0.266667 0.266667
0.431373 0.301961 0.227451
0.772549 0.415686 0.192157
0.200000 0.321569 0.298039
0.211765 0.329412 0.298039
0.262745 0.356863 0.305882
0.800000 0.752941 0.603922
0.992157 0.898039 0.788235
0.458824 0.568627 0.407843
0.470588 0.576471 0.400000
0.517647 0.607843 0.396078
0.737255 0.733333 0.478431
0.996078 0.949020 0.862745
0.086275 0.200000 0.223529
0.098039 0.211765 0.243137
0.133333 0.262745 0.290196
0.239216 0.376471 0.400000
0.321569 0.478431 0.486275
0.098039 0.211765 0.243137
0.113725 0.227451 0.250980
0.152941 0.282353 0.317647
0.247059 0.400000 0.419608
0.368627 0.505882 0.513726
0.149020 0.266667 0.298039
0.156863 0.286275 0.313726
0.203922 0.349020 0.372549
0.305882 0.462745 0.470588
0.482353 0.619608 0.603922
0.286275 0.435294 0.447059
0.305882 0.462745 0.470588
0.384314 0.537255 0.533333
0.749020 0.745098 0.666667
0.996078 0.768627 0.580392
0.666667 0.800000 0.701961
0.674510 0.803922 0.690196
0.709804 0.811765 0.674510
0.807843 0.847059 0.650980
0.996078 0.964706 0.913725
0.305882 0.462745 0.470588
0.325490 0.474510 0.478431
0.368627 0.517647 0.521569
0.529412 0.666667 0.639216
0.745098 0.835294 0.772549
0.325490 0.482353 0.490196
0.341176 0.498039 0.498039
0.384314 0.537255 0.533333
0.552941 0.690196 0.662745
0.764706 0.854902 0.792157
0.372549 0.521569 0.525490
0.384314 0.537255 0.533333
0.439216 0.580392 0.572549
0.607843 0.733333 0.690196
0.815686 0.882353 0.819608
0.470588 0.611765 0.596078
0.490196 0.635294 0.607843
0.552941 0.682353 0.654902
0.701961 0.807843 0.749020
0.886275 0.929412 0.866667
0.788235 0.858824 0.803922
0.803922 0.870588 0.807843
0.850980 0.898039 0.843137
0.913725 0.937255 0.882353
0.996078 0.972549 0.925490
