FILES/03-1f693ebf.cube
TITLE "/Users/aaronseiha/Desktop/Clean Blue"
LUT_3D_SIZE 32
0.000000 0.000000 0.000000
0.000000 0.000000 0.000000
0.000000 0.000000 0.000000
0.003922 0.003922 0.003922
0.007843 0.003922 0.000000
0.011765 0.007843 0.000000
0.027451 0.011765 0.000000
0.039216 0.019608 0.003922
0.050980 0.019608 0.007843
0.058824 0.023529 0.003922
0.074510 0.023529 0.000000
0.086275 0.027451 0.000000
0.094118 0.027451 0.000000
0.109804 0.031373 0.000000
0.121569 0.031373 0.000000
0.133333 0.039216 0.000000
0.152941 0.039216 0.007843
0.176471 0.043137 0.003922
0.192157 0.050980 0.003922
0.207843 0.050980 0.003922
0.235294 0.054902 0.000000
0.262745 0.058824 0.003922
0.290196 0.062745 0.015686
0.317647 0.070588 0.003922
0.349020 0.082353 0.007843
0.388235 0.086275 0.007843
0.431373 0.113725 0.007843
0.482353 0.125490 0.011765
0.529412 0.152941 0.003922
0.584314 0.180392 0.003922
0.635294 0.215686 0.003922
0.701961 0.258824 0.000000
0.000000 0.000000 0.000000
0.000000 0.000000 0.000000
0.003922 0.003922 0.003922
0.007843 0.007843 0.007843
0.007843 0.007843 0.000000
0.019608 0.015686 0.000000
0.027451 0.011765 0.000000
0.043137 0.023529 0.007843
0.050980 0.019608 0.007843
0.062745 0.027451 0.007843
0.066667 0.023529 0.000000
0.086275 0.027451 0.000000
0.101961 0.035294 0.003922
0.105882 0.035294 0.000000
0.117647 0.039216 0.003922
0.137255 0.043137 0.003922
0.160784 0.050980 0.003922
0.176471 0.050980 0.007843
0.192157 0.050980 0.003922
0.219608 0.054902 0.007843
0.231373 0.058824 0.007843
0.258824 0.066667 0.007843
0.294118 0.074510 0.007843
0.317647 0.078431 0.003922
0.352941 0.090196 0.015686
0.392157 0.098039 0.007843
0.439216 0.121569 0.007843
0.482353 0.133333 0.007843
0.541176 0.164706 0.007843
0.584314 0.192157 0.000000
0.639216 0.227451 0.003922
0.701961 0.266667 0.000000
0.003922 0.003922 0.003922
0.003922 0.003922 0.003922
0.003922 0.011765 0.007843
0.007843 0.015686 0.011765
0.007843 0.007843 0.007843
0.015686 0.015686 0.007843
0.031373 0.015686 0.003922
0.047059 0.027451 0.011765
0.054902 0.027451 0.003922
0.066667 0.031373 0.011765
0.074510 0.031373 0.007843
0.086275 0.035294 0.003922
0.098039 0.043137 0.007843
0.113725 0.043137 0.003922
0.121569 0.043137 0.007843
0.141176 0.047059 0.007843
0.164706 0.054902 0.011765
0.180392 0.054902 0.003922
0.200000 0.058824 0.011765
0.215686 0.062745 0.003922
0.239216 0.070588 0.007843
0.266667 0.074510 0.007843
0.290196 0.082353 0.011765
0.313726 0.086275 0.007843
0.356863 0.098039 0.011765
0.392157 0.109804 0.011765
0.443137 0.125490 0.007843
0.490196 0.141176 0.007843
0.533333 0.176471 0.003922
0.584314 0.203922 0.003922
0.643137 0.231373 0.003922
0.709804 0.274510 0.000000
0.003922 0.011765 0.007843
0.003922 0.011765 0.007843
0.003922 0.011765 0.007843
0.007843 0.015686 0.011765
0.011765 0.011765 0.011765
0.015686 0.015686 0.007843
0.027451 0.023529 0.007843
0.047059 0.035294 0.015686
0.058824 0.031373 0.007843
0.070588 0.035294 0.007843
0.078431 0.039216 0.003922
0.094118 0.043137 0.007843
0.098039 0.043137 0.007843
0.113725 0.047059 0.007843
0.121569 0.050980 0.003922
0.145098 0.050980 0.003922
0.168627 0.058824 0.011765
0.184314 0.058824 0.007843
0.196078 0.066667 0.007843
0.219608 0.074510 0.011765
0.243137 0.074510 0.011765
0.270588 0.086275 0.015686
0.298039 0.094118 0.011765
0.321569 0.094118 0.015686
0.364706 0.113725 0.015686
0.400000 0.121569 0.011765
0.443137 0.145098 0.019608
0.494118 0.160784 0.007843
0.541176 0.184314 0.011765
0.592157 0.211765 0.003922
0.654902 0.247059 0.007843
0.721569 0.286275 0.003922
0.000000 0.015686 0.011765
0.000000 0.015686 0.011765
0.007843 0.015686 0.011765
0.007843 0.015686 0.011765
0.011765 0.019608 0.007843
0.019608 0.027451 0.015686
0.031373 0.035294 0.015686
0.039216 0.035294 0.019608
0.066667 0.039216 0.015686
0.070588 0.043137 0.011765
0.082353 0.047059 0.019608
0.098039 0.047059 0.015686
0.105882 0.054902 0.019608
0.109804 0.054902 0.011765
0.129412 0.058824 0.019608
0.149020 0.062745 0.011765
0.168627 0.066667 0.007843
0.184314 0.070588 0.015686
0.203922 0.074510 0.015686
0.227451 0.082353 0.011765
0.250980 0.090196 0.019608
0.274510 0.098039 0.015686
0.301961 0.105882 0.015686
0.333333 0.113725 0.007843
0.372549 0.121569 0.011765
0.411765 0.133333 0.007843
0.458824 0.164706 0.011765
0.501961 0.176471 0.003922
0.549020 0.203922 0.015686
0.603922 0.231373 0.011765
0.662745 0.262745 0.003922
0.721569 0.305882 0.000000
0.003922 0.019608 0.015686
0.003922 0.019608 0.015686
0.003922 0.019608 0.015686
0.007843 0.023529 0.019608
0.007843 0.027451 0.011765
0.023529 0.031373 0.019608
0.031373 0.039216 0.027451
0.039216 0.043137 0.023529
0.062745 0.050980 0.031373
0.070588 0.050980 0.027451
0.086275 0.058824 0.035294
0.094118 0.058824 0.031373
0.117647 0.062745 0.027451
0.129412 0.062745 0.031373
0.137255 0.066667 0.027451
0.149020 0.074510 0.019608
0.176471 0.086275 0.031373
0.192157 0.082353 0.027451
0.211765 0.090196 0.019608
0.239216 0.094118 0.019608
0.258824 0.098039 0.019608
0.290196 0.109804 0.019608
0.317647 0.121569 0.031373
0.349020 0.129412 0.031373
0.384314 0.145098 0.023529
0.423529 0.156863 0.019608
0.470588 0.184314 0.023529
0.517647 0.196078 0.011765
0.560784 0.227451 0.015686
0.619608 0.250980 0.007843
0.670588 0.286275 0.007843
0.733333 0.333333 0.003922
0.011765 0.027451 0.023529
0.011765 0.027451 0.023529
0.011765 0.027451 0.023529
0.007843 0.031373 0.023529
0.011765 0.035294 0.027451
0.023529 0.043137 0.027451
0.031373 0.039216 0.027451
0.043137 0.050980 0.031373
0.054902 0.058824 0.039216
0.066667 0.062745 0.043137
0.082353 0.070588 0.050980
0.094118 0.074510 0.050980
0.109804 0.074510 0.039216
0.121569 0.082353 0.043137
0.141176 0.086275 0.043137
0.160784 0.090196 0.035294
0.192157 0.101961 0.039216
0.207843 0.101961 0.027451
0.227451 0.105882 0.027451
0.254902 0.117647 0.039216
0.278431 0.117647 0.031373
0.305882 0.133333 0.035294
0.337255 0.141176 0.035294
0.360784 0.152941 0.027451
0.403922 0.168627 0.027451
0.439216 0.184314 0.027451
0.494118 0.203922 0.027451
0.537255 0.223529 0.023529
0.588235 0.250980 0.027451
0.643137 0.278431 0.007843
0.694118 0.313726 0.003922
0.752941 0.364706 0.000000
0.011765 0.035294 0.027451
0.011765 0.035294 0.027451
0.011765 0.035294 0.027451
0.015686 0.039216 0.031373
0.007843 0.043137 0.031373
0.019608 0.043137 0.035294
0.027451 0.050980 0.035294
0.039216 0.058824 0.043137
0.058824 0.066667 0.054902
0.066667 0.074510 0.062745
0.078431 0.082353 0.062745
0.090196 0.086275 0.070588
0.109804 0.094118 0.058824
0.129412 0.094118 0.058824
0.141176 0.101961 0.062745
0.168627 0.105882 0.054902
0.200000 0.117647 0.050980
0.223529 0.125490 0.047059
0.247059 0.125490 0.043137
0.278431 0.137255 0.043137
0.301961 0.145098 0.043137
0.329412 0.156863 0.050980
0.356863 0.164706 0.039216
0.384314 0.176471 0.050980
0.423529 0.188235 0.043137
0.470588 0.207843 0.039216
0.513726 0.231373 0.035294
0.560784 0.250980 0.027451
0.603922 0.274510 0.023529
0.662745 0.309804 0.011765
0.717647 0.349020 0.007843
0.776471 0.392157 0.003922
0.011765 0.047059 0.035294
0.011765 0.047059 0.035294
0.019608 0.043137 0.027451
0.019608 0.043137 0.027451
0.023529 0.047059 0.039216
0.027451 0.050980 0.043137
0.031373 0.054902 0.039216
0.039216 0.058824 0.043137
0.050980 0.074510 0.066667
0.062745 0.082353 0.066667
0.082353 0.090196 0.078431
0.094118 0.098039 0.078431
0.109804 0.105882 0.086275
0.125490 0.105882 0.082353
0.152941 0.117647 0.082353
0.176471 0.121569 0.078431
0.211765 0.137255 0.070588
0.243137 0.145098 0.066667
0.278431 0.152941 0.070588
0.301961 0.160784 0.058824
0.321569 0.168627 0.054902
0.356863 0.180392 0.058824
0.388235 0.192157 0.054902
0.419608 0.200000 0.054902
0.458824 0.219608 0.047059
0.494118 0.235294 0.047059
0.537255 0.258824 0.054902
0.584314 0.274510 0.043137
0.635294 0.309804 0.035294
0.690196 0.341176 0.019608
0.756863 0.376471 0.007843
0.815686 0.419608 0.003922
0.019608 0.054902 0.035294
0.019608 0.054902 0.035294
0.019608 0.054902 0.035294
0.023529 0.058824 0.039216
0.023529 0.058824 0.039216
0.023529 0.058824 0.039216
0.031373 0.066667 0.047059
0.039216 0.062745 0.047059
0.047059 0.082353 0.070588
0.054902 0.090196 0.070588
0.074510 0.098039 0.082353
0.090196 0.109804 0.086275
0.109804 0.117647 0.098039
0.125490 0.125490 0.094118
0.152941 0.137255 0.101961
0.176471 0.145098 0.101961
0.231373 0.156863 0.098039
0.262745 0.164706 0.086275
0.294118 0.176471 0.082353
0.325490 0.184314 0.082353
0.356863 0.196078 0.078431
0.392157 0.211765 0.078431
0.423529 0.219608 0.066667
0.458824 0.235294 0.058824
0.494118 0.250980 0.066667
0.541176 0.266667 0.062745
0.580392 0.286275 0.058824
0.623529 0.313726 0.050980
0.670588 0.345098 0.039216
0.729412 0.380392 0.027451
0.792157 0.407843 0.011765
0.858824 0.450980 0.007843
0.023529 0.066667 0.050980
0.023529 0.066667 0.043137
0.027451 0.070588 0.047059
0.027451 0.070588 0.047059
0.031373 0.074510 0.050980
0.031373 0.074510 0.050980
0.031373 0.074510 0.050980
0.035294 0.078431 0.054902
0.050980 0.086275 0.074510
0.058824 0.094118 0.082353
0.078431 0.101961 0.094118
0.098039 0.117647 0.101961
0.109804 0.129412 0.113725
0.133333 0.137255 0.117647
0.160784 0.149020 0.121569
0.192157 0.156863 0.121569
0.243137 0.172549 0.117647
0.278431 0.188235 0.117647
0.317647 0.196078 0.113725
0.349020 0.207843 0.105882
0.392157 0.223529 0.098039
0.427451 0.239216 0.098039
0.466667 0.254902 0.082353
0.509804 0.266667 0.074510
0.545098 0.282353 0.078431
0.584314 0.301961 0.070588
0.631373 0.325490 0.066667
0.666667 0.356863 0.062745
0.721569 0.384314 0.050980
0.776471 0.415686 0.027451
0.835294 0.454902 0.011765
0.898039 0.498039 0.003922
0.031373 0.074510 0.050980
0.035294 0.078431 0.054902
0.031373 0.074510 0.050980
0.035294 0.078431 0.054902
0.035294 0.078431 0.054902
0.035294 0.078431 0.054902
0.047059 0.082353 0.062745
0.043137 0.078431 0.058824
0.047059 0.090196 0.074510
0.058824 0.094118 0.074510
0.074510 0.109804 0.098039
0.094118 0.117647 0.101961
0.113725 0.133333 0.117647
0.137255 0.145098 0.125490
0.164706 0.160784 0.141176
0.200000 0.172549 0.141176
0.258824 0.196078 0.145098
0.298039 0.207843 0.145098
0.341176 0.219608 0.137255
0.380392 0.239216 0.137255
0.423529 0.247059 0.125490
0.466667 0.262745 0.117647
0.509804 0.278431 0.113725
0.545098 0.294118 0.105882
0.588235 0.317647 0.086275
0.635294 0.341176 0.078431
0.678431 0.368627 0.074510
0.729412 0.396078 0.070588
0.776471 0.423529 0.047059
0.835294 0.458824 0.027451
0.890196 0.498039 0.011765
0.937255 0.537255 0.000000
0.039216 0.086275 0.070588
0.043137 0.086275 0.070588
0.043137 0.086275 0.070588
0.043137 0.086275 0.062745
0.047059 0.090196 0.066667
0.047059 0.090196 0.066667
0.047059 0.090196 0.066667
0.047059 0.090196 0.066667
0.054902 0.098039 0.082353
0.066667 0.109804 0.086275
0.074510 0.109804 0.090196
0.098039 0.121569 0.105882
0.109804 0.133333 0.117647
0.133333 0.152941 0.129412
0.168627 0.172549 0.141176
0.203922 0.188235 0.145098
0.274510 0.219608 0.168627
0.317647 0.235294 0.168627
0.368627 0.247059 0.164706
0.407843 0.262745 0.160784
0.454902 0.278431 0.149020
0.498039 0.294118 0.141176
0.541176 0.309804 0.137255
0.588235 0.329412 0.133333
0.635294 0.352941 0.121569
0.686275 0.376471 0.105882
0.745098 0.411765 0.094118
0.800000 0.447059 0.070588
0.850980 0.470588 0.058824
0.898039 0.509804 0.039216
0.941176 0.549020 0.011765
0.980392 0.584314 0.000000
0.047059 0.094118 0.078431
0.047059 0.094118 0.078431
0.047059 0.094118 0.078431
0.047059 0.098039 0.070588
0.050980 0.098039 0.082353
0.050980 0.098039 0.082353
0.050980 0.098039 0.082353
0.058824 0.101961 0.086275
0.058824 0.101961 0.086275
0.066667 0.109804 0.086275
0.074510 0.117647 0.101961
0.090196 0.125490 0.105882
0.105882 0.141176 0.121569
0.137255 0.160784 0.145098
0.172549 0.176471 0.152941
0.215686 0.200000 0.164706
0.286275 0.239216 0.184314
0.341176 0.258824 0.192157
0.388235 0.278431 0.192157
0.435294 0.294118 0.192157
0.486275 0.309804 0.180392
0.533333 0.329412 0.176471
0.584314 0.345098 0.168627
0.627451 0.368627 0.164706
0.674510 0.396078 0.152941
0.737255 0.423529 0.137255
0.803922 0.454902 0.125490
0.858824 0.490196 0.113725
0.913725 0.521569 0.074510
0.956863 0.560784 0.050980
0.988235 0.596078 0.023529
1.000000 0.623529 0.000000
0.058824 0.105882 0.090196
0.054902 0.101961 0.086275
0.054902 0.101961 0.086275
0.054902 0.101961 0.086275
0.058824 0.109804 0.082353
0.054902 0.101961 0.086275
0.062745 0.109804 0.094118
0.058824 0.105882 0.090196
0.066667 0.117647 0.090196
0.070588 0.121569 0.094118
0.074510 0.125490 0.098039
0.090196 0.133333 0.109804
0.109804 0.145098 0.125490
0.129412 0.156863 0.129412
0.172549 0.184314 0.156863
0.207843 0.207843 0.160784
0.301961 0.254902 0.192157
0.352941 0.282353 0.203922
0.411765 0.301961 0.207843
0.462745 0.329412 0.219608
0.509804 0.349020 0.223529
0.564706 0.368627 0.223529
0.619608 0.388235 0.215686
0.670588 0.411765 0.207843
0.733333 0.443137 0.203922
0.792157 0.470588 0.180392
0.858824 0.505882 0.168627
0.898039 0.537255 0.149020
0.956863 0.564706 0.125490
0.988235 0.600000 0.101961
1.000000 0.631373 0.066667
1.000000 0.654902 0.035294
0.054902 0.113725 0.094118
0.058824 0.117647 0.098039
0.054902 0.113725 0.094118
0.054902 0.113725 0.094118
0.066667 0.117647 0.090196
0.066667 0.117647 0.090196
0.066667 0.117647 0.090196
0.066667 0.117647 0.090196
0.066667 0.125490 0.098039
0.074510 0.125490 0.098039
0.082353 0.133333 0.105882
0.090196 0.141176 0.113725
0.105882 0.149020 0.117647
0.129412 0.168627 0.137255
0.164706 0.188235 0.149020
0.207843 0.215686 0.164706
0.301961 0.270588 0.196078
0.368627 0.305882 0.215686
0.427451 0.333333 0.231373
0.482353 0.360784 0.250980
0.533333 0.392157 0.258824
0.596078 0.407843 0.250980
0.658824 0.439216 0.254902
0.717647 0.462745 0.250980
0.780392 0.490196 0.250980
0.843137 0.521569 0.235294
0.905882 0.552941 0.215686
0.949020 0.584314 0.207843
0.984314 0.611765 0.188235
0.996078 0.643137 0.172549
1.000000 0.662745 0.141176
1.000000 0.678431 0.121569
0.066667 0.125490 0.105882
0.066667 0.125490 0.105882
0.070588 0.129412 0.109804
0.070588 0.129412 0.109804
0.070588 0.129412 0.109804
0.070588 0.129412 0.109804
0.074510 0.133333 0.113725
0.078431 0.137255 0.117647
0.078431 0.137255 0.109804
0.078431 0.137255 0.109804
0.086275 0.145098 0.117647
0.098039 0.149020 0.121569
0.105882 0.156863 0.121569
0.129412 0.176471 0.137255
0.152941 0.192157 0.149020
0.207843 0.219608 0.176471
0.290196 0.278431 0.203922
0.364706 0.321569 0.235294
0.443137 0.364706 0.258824
0.501961 0.403922 0.282353
0.572549 0.443137 0.305882
0.643137 0.478431 0.321569
0.713726 0.513726 0.337255
0.780392 0.545098 0.341176
0.847059 0.580392 0.341176
0.901961 0.611765 0.333333
0.956863 0.639216 0.329412
0.992157 0.662745 0.309804
1.000000 0.682353 0.305882
1.000000 0.698039 0.301961
0.996078 0.713726 0.282353
1.000000 0.725490 0.278431
0.074510 0.141176 0.109804
0.074510 0.141176 0.109804
0.074510 0.141176 0.109804
0.078431 0.145098 0.113725
0.082353 0.141176 0.113725
0.082353 0.141176 0.113725
0.082353 0.141176 0.113725
0.086275 0.145098 0.117647
0.086275 0.149020 0.109804
0.086275 0.145098 0.117647
0.094118 0.152941 0.125490
0.105882 0.156863 0.129412
0.113725 0.164706 0.129412
0.133333 0.180392 0.141176
0.152941 0.192157 0.149020
0.200000 0.223529 0.168627
0.274510 0.282353 0.200000
0.356863 0.325490 0.235294
0.431373 0.372549 0.258824
0.509804 0.419608 0.294118
0.580392 0.470588 0.317647
0.662745 0.517647 0.345098
0.737255 0.556863 0.364706
0.803922 0.596078 0.384314
0.870588 0.627451 0.388235
0.925490 0.662745 0.396078
0.976471 0.686275 0.400000
1.000000 0.709804 0.392157
1.000000 0.721569 0.392157
0.996078 0.733333 0.376471
1.000000 0.749020 0.368627
1.000000 0.756863 0.368627
0.082353 0.149020 0.117647
0.086275 0.152941 0.121569
0.086275 0.152941 0.121569
0.090196 0.156863 0.125490
0.086275 0.152941 0.121569
0.090196 0.156863 0.125490
0.090196 0.156863 0.125490
0.094118 0.160784 0.129412
0.098039 0.160784 0.121569
0.101961 0.164706 0.125490
0.105882 0.168627 0.129412
0.109804 0.172549 0.133333
0.121569 0.172549 0.133333
0.133333 0.184314 0.145098
0.152941 0.200000 0.152941
0.192157 0.223529 0.164706
0.270588 0.282353 0.200000
0.345098 0.325490 0.239216
0.423529 0.380392 0.270588
0.505882 0.431373 0.305882
0.584314 0.482353 0.337255
0.674510 0.541176 0.364706
0.760784 0.588235 0.396078
0.831373 0.631373 0.407843
0.901961 0.670588 0.443137
0.941176 0.701961 0.454902
0.984314 0.729412 0.470588
0.996078 0.745098 0.466667
1.000000 0.760784 0.474510
1.000000 0.772549 0.474510
1.000000 0.780392 0.462745
1.000000 0.788235 0.462745
0.094118 0.160784 0.121569
0.098039 0.164706 0.125490
0.101961 0.168627 0.129412
0.098039 0.164706 0.125490
0.101961 0.168627 0.129412
0.101961 0.168627 0.129412
0.101961 0.168627 0.129412
0.105882 0.168627 0.129412
0.113725 0.176471 0.137255
0.113725 0.176471 0.133333
0.121569 0.184314 0.141176
0.121569 0.184314 0.141176
0.125490 0.188235 0.145098
0.145098 0.200000 0.149020
0.160784 0.207843 0.160784
0.200000 0.231373 0.172549
0.266667 0.278431 0.196078
0.337255 0.333333 0.223529
0.411765 0.388235 0.254902
0.494118 0.439216 0.294118
0.584314 0.501961 0.333333
0.678431 0.556863 0.376471
0.764706 0.619608 0.415686
0.854902 0.670588 0.450980
0.913725 0.709804 0.482353
0.956863 0.737255 0.498039
0.992157 0.764706 0.517647
1.000000 0.780392 0.533333
1.000000 0.796078 0.537255
1.000000 0.800000 0.541176
1.000000 0.815686 0.549020
0.996078 0.823529 0.545098
0.109804 0.176471 0.137255
0.113725 0.180392 0.141176
0.113725 0.180392 0.141176
0.117647 0.184314 0.145098
0.117647 0.184314 0.145098
0.113725 0.184314 0.137255
0.117647 0.188235 0.141176
0.121569 0.192157 0.145098
0.125490 0.196078 0.149020
0.125490 0.188235 0.145098
0.133333 0.196078 0.152941
0.137255 0.200000 0.156863
0.145098 0.211765 0.149020
0.156863 0.211765 0.152941
0.172549 0.223529 0.156863
0.196078 0.239216 0.172549
0.266667 0.286275 0.196078
0.325490 0.325490 0.215686
0.400000 0.380392 0.254902
0.482353 0.443137 0.301961
0.576471 0.509804 0.337255
0.674510 0.572549 0.380392
0.776471 0.639216 0.427451
0.866667 0.690196 0.458824
0.925490 0.733333 0.501961
0.964706 0.768627 0.529412
0.988235 0.796078 0.568627
1.000000 0.811765 0.584314
1.000000 0.823529 0.600000
1.000000 0.831373 0.615686
1.000000 0.839216 0.619608
1.000000 0.847059 0.631373
0.117647 0.196078 0.149020
0.121569 0.200000 0.152941
0.121569 0.200000 0.152941
0.125490 0.203922 0.156863
0.133333 0.203922 0.156863
0.129412 0.200000 0.152941
0.125490 0.207843 0.149020
0.137255 0.207843 0.152941
0.141176 0.211765 0.149020
0.141176 0.211765 0.149020
0.145098 0.215686 0.152941
0.152941 0.219608 0.156863
0.160784 0.227451 0.156863
0.172549 0.227451 0.160784
0.188235 0.239216 0.168627
0.207843 0.254902 0.176471
0.274510 0.294118 0.203922
0.325490 0.337255 0.215686
0.400000 0.388235 0.250980
0.474510 0.443137 0.290196
0.568627 0.509804 0.341176
0.670588 0.580392 0.384314
0.776471 0.647059 0.435294
0.866667 0.709804 0.470588
0.929412 0.756863 0.517647
0.964706 0.788235 0.556863
0.996078 0.815686 0.611765
1.000000 0.843137 0.639216
0.996078 0.854902 0.666667
1.000000 0.858824 0.682353
1.000000 0.870588 0.694118
1.000000 0.878431 0.705882
0.137255 0.219608 0.160784
0.141176 0.223529 0.164706
0.141176 0.223529 0.156863
0.152941 0.223529 0.160784
0.145098 0.227451 0.168627
0.149020 0.219608 0.156863
0.152941 0.223529 0.160784
0.156863 0.231373 0.156863
0.156863 0.231373 0.156863
0.168627 0.235294 0.164706
0.168627 0.235294 0.164706
0.172549 0.239216 0.164706
0.188235 0.247059 0.164706
0.196078 0.254902 0.172549
0.207843 0.262745 0.172549
0.223529 0.270588 0.176471
0.274510 0.309804 0.196078
0.325490 0.349020 0.215686
0.396078 0.396078 0.247059
0.466667 0.447059 0.282353
0.564706 0.513726 0.337255
0.662745 0.584314 0.384314
0.772549 0.658824 0.431373
0.858824 0.721569 0.470588
0.929412 0.772549 0.529412
0.968627 0.811765 0.572549
0.996078 0.843137 0.627451
1.000000 0.858824 0.662745
1.000000 0.870588 0.701961
1.000000 0.886275 0.729412
0.996078 0.894118 0.749020
1.000000 0.905882 0.764706
0.160784 0.243137 0.168627
0.160784 0.243137 0.168627
0.164706 0.247059 0.172549
0.168627 0.243137 0.168627
0.172549 0.247059 0.168627
0.172549 0.247059 0.168627
0.176471 0.250980 0.172549
0.176471 0.250980 0.172549
0.184314 0.258824 0.180392
0.188235 0.258824 0.172549
0.192157 0.262745 0.176471
0.196078 0.266667 0.172549
0.211765 0.274510 0.172549
0.223529 0.278431 0.180392
0.231373 0.286275 0.184314
0.247059 0.298039 0.188235
0.290196 0.325490 0.203922
0.337255 0.360784 0.219608
0.396078 0.403922 0.250980
0.470588 0.458824 0.290196
0.556863 0.513726 0.333333
0.658824 0.592157 0.380392
0.768627 0.666667 0.427451
0.862745 0.729412 0.478431
0.929412 0.780392 0.525490
0.964706 0.827451 0.576471
0.992157 0.854902 0.643137
1.000000 0.878431 0.694118
1.000000 0.890196 0.733333
1.000000 0.898039 0.760784
1.000000 0.909804 0.784314
1.000000 0.917647 0.803922
0.192157 0.266667 0.180392
0.196078 0.270588 0.184314
0.196078 0.270588 0.184314
0.200000 0.278431 0.180392
0.196078 0.274510 0.176471
0.200000 0.278431 0.180392
0.203922 0.282353 0.184314
0.203922 0.282353 0.184314
0.211765 0.290196 0.184314
0.215686 0.286275 0.184314
0.219608 0.294118 0.184314
0.235294 0.298039 0.192157
0.243137 0.305882 0.192157
0.247059 0.313726 0.188235
0.258824 0.317647 0.188235
0.274510 0.329412 0.192157
0.309804 0.349020 0.215686
0.349020 0.380392 0.227451
0.400000 0.423529 0.250980
0.470588 0.466667 0.286275
0.549020 0.525490 0.329412
0.643137 0.596078 0.368627
0.756863 0.674510 0.427451
0.854902 0.741176 0.474510
0.921569 0.792157 0.529412
0.968627 0.835294 0.588235
0.992157 0.862745 0.654902
1.000000 0.878431 0.705882
0.996078 0.901961 0.752941
1.000000 0.913725 0.788235
1.000000 0.925490 0.807843
1.000000 0.933333 0.831373
0.227451 0.305882 0.196078
0.227451 0.305882 0.196078
0.227451 0.305882 0.196078
0.227451 0.305882 0.196078
0.227451 0.309804 0.188235
0.231373 0.313726 0.192157
0.235294 0.317647 0.188235
0.243137 0.317647 0.192157
0.247059 0.321569 0.196078
0.247059 0.321569 0.196078
0.254902 0.329412 0.203922
0.262745 0.329412 0.196078
0.274510 0.341176 0.200000
0.282353 0.345098 0.200000
0.294118 0.356863 0.211765
0.309804 0.368627 0.215686
0.341176 0.384314 0.215686
0.376471 0.403922 0.231373
0.419608 0.443137 0.262745
0.470588 0.478431 0.286275
0.556863 0.537255 0.321569
0.647059 0.600000 0.364706
0.752941 0.678431 0.419608
0.854902 0.749020 0.470588
0.917647 0.800000 0.525490
0.960784 0.839216 0.588235
0.992157 0.870588 0.658824
0.996078 0.890196 0.713726
1.000000 0.901961 0.756863
0.996078 0.921569 0.796078
0.996078 0.929412 0.819608
1.000000 0.929412 0.835294
0.266667 0.352941 0.211765
0.270588 0.356863 0.215686
0.274510 0.352941 0.207843
0.278431 0.356863 0.211765
0.274510 0.360784 0.211765
0.274510 0.360784 0.211765
0.278431 0.364706 0.211765
0.278431 0.364706 0.211765
0.286275 0.368627 0.215686
0.290196 0.372549 0.211765
0.294118 0.376471 0.207843
0.309804 0.384314 0.207843
0.313726 0.388235 0.211765
0.329412 0.396078 0.219608
0.337255 0.407843 0.219608
0.352941 0.415686 0.223529
0.392157 0.431373 0.235294
0.411765 0.443137 0.243137
0.443137 0.470588 0.266667
0.494118 0.505882 0.290196
0.564706 0.556863 0.317647
0.654902 0.619608 0.364706
0.752941 0.686275 0.411765
0.847059 0.752941 0.470588
0.917647 0.807843 0.517647
0.964706 0.850980 0.584314
0.996078 0.874510 0.658824
1.000000 0.894118 0.709804
1.000000 0.909804 0.760784
1.000000 0.929412 0.803922
0.996078 0.933333 0.831373
0.996078 0.937255 0.847059
0.317647 0.407843 0.235294
0.317647 0.407843 0.235294
0.321569 0.411765 0.239216
0.317647 0.407843 0.235294
0.321569 0.411765 0.239216
0.321569 0.411765 0.231373
0.329412 0.415686 0.235294
0.333333 0.419608 0.235294
0.333333 0.419608 0.235294
0.349020 0.423529 0.243137
0.352941 0.431373 0.239216
0.360784 0.431373 0.235294
0.364706 0.443137 0.235294
0.372549 0.443137 0.239216
0.388235 0.454902 0.243137
0.407843 0.466667 0.250980
0.439216 0.482353 0.254902
0.458824 0.498039 0.262745
0.478431 0.509804 0.278431
0.529412 0.533333 0.298039
0.592157 0.576471 0.325490
0.670588 0.639216 0.356863
