FILES/03-1f693ebf.cube
TITLE "/Users/aaronseiha/Desktop/Clean Blue"
LUT_3D_SIZE 8
DOMAIN_MIN 0.000000 0.000000 0.000000
DOMAIN_MAX 0.903226 0.903226 0.903226
0.000000 0.000000 0.000000
0.007843 0.003922 0.000000
0.050980 0.019608 0.007843
0.094118 0.027451 0.000000
0.152941 0.039216 0.007843
0.235294 0.054902 0.000000
0.349020 0.082353 0.007843
0.529412 0.152941 0.003922
0.000000 0.015686 0.011765
0.011765 0.019608 0.007843
0.066667 0.039216 0.015686
0.105882 0.054902 0.019608
0.168627 0.066667 0.007843
0.250980 0.090196 0.019608
0.372549 0.121569 0.011765
0.549020 0.203922 0.015686
0.011765 0.047059 0.035294
0.023529 0.047059 0.039216
0.050980 0.074510 0.066667
0.109804 0.105882 0.086275
0.211765 0.137255 0.070588
0.321569 0.168627 0.054902
0.458824 0.219608 0.047059
0.635294 0.309804 0.035294
0.039216 0.086275 0.070588
0.047059 0.090196 0.066667
0.054902 0.098039 0.082353
0.109804 0.133333 0.117647
0.274510 0.219608 0.168627
0.454902 0.278431 0.149020
0.635294 0.352941 0.121569
0.850980 0.470588 0.058824
0.066667 0.125490 0.105882
0.070588 0.129412 0.109804
0.078431 0.137255 0.109804
0.105882 0.156863 0.121569
0.290196 0.278431 0.203922
0.572549 0.443137 0.305882
0.847059 0.580392 0.341176
1.000000 0.682353 0.305882
0.109804 0.176471 0.137255
0.117647 0.184314 0.145098
0.125490 0.196078 0.149020
0.145098 0.211765 0.149020
0.266667 0.286275 0.196078
0.576471 0.509804 0.337255
0.925490 0.733333 0.501961
1.000000 0.823529 0.600000
0.192157 0.266667 0.180392
0.196078 0.274510 0.176471
0.211765 0.290196 0.184314
0.243137 0.305882 0.192157
0.309804 0.349020 0.215686
0.549020 0.525490 0.329412
0.921569 0.792157 0.529412
0.996078 0.901961 0.752941
0.376471 0.466667 0.262745
0.380392 0.474510 0.270588
0.392157 0.482353 0.262745
0.431373 0.501961 0.274510
0.494118 0.541176 0.290196
0.635294 0.623529 0.345098
0.933333 0.827451 0.517647
1.000000 0.917647 0.756863
0.003922 0.019608 0.023529
0.000000 0.019608 0.031373
0.027451 0.031373 0.047059
0.090196 0.035294 0.031373
0.149020 0.058824 0.035294
0.231373 0.074510 0.035294
0.349020 0.105882 0.023529
0.533333 0.172549 0.027451
0.000000 0.035294 0.031373
0.011765 0.047059 0.035294
0.047059 0.054902 0.043137
0.094118 0.062745 0.050980
0.156863 0.078431 0.043137
0.239216 0.098039 0.035294
0.360784 0.141176 0.043137
0.549020 0.207843 0.031373
0.019608 0.058824 0.062745
0.027451 0.066667 0.062745
0.050980 0.090196 0.094118
0.109804 0.113725 0.094118
0.207843 0.137255 0.082353
0.309804 0.168627 0.074510
0.435294 0.219608 0.066667
0.619608 0.301961 0.054902
0.039216 0.098039 0.086275
0.050980 0.098039 0.090196
0.058824 0.105882 0.105882
0.117647 0.152941 0.141176
0.278431 0.223529 0.180392
0.450980 0.278431 0.164706
0.631373 0.352941 0.133333
0.835294 0.466667 0.082353
0.074510 0.141176 0.117647
0.078431 0.141176 0.129412
0.078431 0.145098 0.121569
0.117647 0.168627 0.141176
0.301961 0.298039 0.227451
0.580392 0.462745 0.329412
0.847059 0.588235 0.360784
1.000000 0.682353 0.321569
0.109804 0.188235 0.152941
0.109804 0.196078 0.145098
0.125490 0.203922 0.156863
0.152941 0.215686 0.164706
0.270588 0.301961 0.211765
0.588235 0.529412 0.368627
0.929412 0.752941 0.529412
1.000000 0.835294 0.627451
0.196078 0.282353 0.192157
0.207843 0.282353 0.196078
0.215686 0.294118 0.188235
0.247059 0.321569 0.203922
0.321569 0.360784 0.227451
0.564706 0.541176 0.352941
0.933333 0.800000 0.552941
0.996078 0.909804 0.764706
0.380392 0.474510 0.278431
0.384314 0.482353 0.266667
0.400000 0.490196 0.270588
0.431373 0.509804 0.278431
0.501961 0.549020 0.290196
0.639216 0.631373 0.341176
0.925490 0.835294 0.529412
1.000000 0.921569 0.776471
0.011765 0.054902 0.062745
0.019608 0.062745 0.070588
0.015686 0.074510 0.086275
0.019608 0.090196 0.105882
0.109804 0.090196 0.113725
0.223529 0.090196 0.094118
0.356863 0.109804 0.090196
0.549020 0.160784 0.070588
0.023529 0.066667 0.074510
0.019608 0.074510 0.086275
0.023529 0.082353 0.094118
0.043137 0.094118 0.117647
0.149020 0.090196 0.101961
0.239216 0.105882 0.098039
0.364706 0.137255 0.082353
0.552941 0.196078 0.082353
0.019608 0.090196 0.105882
0.023529 0.094118 0.109804
0.050980 0.109804 0.121569
0.101961 0.117647 0.113725
0.172549 0.129412 0.105882
0.266667 0.160784 0.094118
0.411765 0.200000 0.098039
0.600000 0.270588 0.086275
0.043137 0.121569 0.125490
0.050980 0.121569 0.121569
0.054902 0.125490 0.133333
0.129412 0.172549 0.180392
0.286275 0.235294 0.203922
0.435294 0.278431 0.180392
0.584314 0.333333 0.152941
0.784314 0.423529 0.121569
0.082353 0.160784 0.156863
0.082353 0.160784 0.156863
0.090196 0.172549 0.152941
0.129412 0.188235 0.168627
0.333333 0.337255 0.274510
0.596078 0.494118 0.388235
0.843137 0.596078 0.388235
1.000000 0.686275 0.345098
0.133333 0.215686 0.180392
0.133333 0.215686 0.180392
0.141176 0.227451 0.180392
0.172549 0.243137 0.196078
0.301961 0.333333 0.250980
0.627451 0.580392 0.431373
0.933333 0.784314 0.592157
1.000000 0.850980 0.666667
0.219608 0.313726 0.219608
0.227451 0.313726 0.223529
0.235294 0.329412 0.227451
0.266667 0.345098 0.235294
0.337255 0.392157 0.254902
0.584314 0.568627 0.384314
0.937255 0.831373 0.615686
1.000000 0.917647 0.811765
0.396078 0.490196 0.294118
0.400000 0.494118 0.290196
0.415686 0.505882 0.294118
0.447059 0.521569 0.301961
0.521569 0.568627 0.309804
0.647059 0.643137 0.380392
0.937255 0.850980 0.564706
1.000000 0.929412 0.803922
0.023529 0.094118 0.109804
0.027451 0.098039 0.113725
0.035294 0.109804 0.125490
0.035294 0.129412 0.145098
0.054902 0.145098 0.168627
0.117647 0.168627 0.203922
0.317647 0.133333 0.196078
0.584314 0.086275 0.168627
0.027451 0.101961 0.117647
0.031373 0.105882 0.129412
0.043137 0.117647 0.141176
0.047059 0.125490 0.152941
0.058824 0.149020 0.180392
0.160784 0.160784 0.200000
0.364706 0.125490 0.184314
0.596078 0.121569 0.149020
0.035294 0.117647 0.137255
0.039216 0.121569 0.141176
0.043137 0.133333 0.156863
0.047059 0.145098 0.164706
0.113725 0.164706 0.196078
0.270588 0.149020 0.180392
0.419608 0.164706 0.156863
0.631373 0.211765 0.149020
0.050980 0.141176 0.164706
0.058824 0.149020 0.172549
0.062745 0.160784 0.180392
0.129412 0.188235 0.200000
0.239216 0.211765 0.188235
0.345098 0.235294 0.180392
0.501961 0.278431 0.172549
0.709804 0.356863 0.152941
0.094118 0.203922 0.215686
0.101961 0.203922 0.207843
0.113725 0.207843 0.207843
0.145098 0.223529 0.219608
0.356863 0.396078 0.364706
0.596078 0.513726 0.439216
0.819608 0.592157 0.403922
1.000000 0.670588 0.333333
0.156863 0.262745 0.243137
0.164706 0.270588 0.243137
0.172549 0.274510 0.239216
0.203922 0.290196 0.243137
0.333333 0.384314 0.317647
0.682353 0.647059 0.517647
0.937255 0.819608 0.670588
1.000000 0.862745 0.713726
0.254902 0.364706 0.278431
0.254902 0.368627 0.282353
0.278431 0.380392 0.282353
0.298039 0.392157 0.290196
0.368627 0.435294 0.309804
0.615686 0.619608 0.454902
0.941176 0.866667 0.709804
0.996078 0.937255 0.847059
0.431373 0.537255 0.360784
0.439216 0.541176 0.364706
0.447059 0.549020 0.360784
0.474510 0.564706 0.345098
0.545098 0.603922 0.372549
0.670588 0.678431 0.423529
0.941176 0.862745 0.615686
1.000000 0.941176 0.850980
0.047059 0.141176 0.156863
0.047059 0.137255 0.160784
0.050980 0.149020 0.168627
0.066667 0.172549 0.200000
0.094118 0.207843 0.239216
0.105882 0.219608 0.243137
0.152941 0.282353 0.309804
0.380392 0.337255 0.403922
0.050980 0.141176 0.164706
0.050980 0.141176 0.172549
0.058824 0.156863 0.176471
0.082353 0.180392 0.207843
0.101961 0.215686 0.239216
0.109804 0.219608 0.262745
0.168627 0.305882 0.329412
0.419608 0.321569 0.396078
0.058824 0.156863 0.176471
0.062745 0.160784 0.180392
0.066667 0.172549 0.200000
0.094118 0.200000 0.227451
0.109804 0.227451 0.258824
0.133333 0.262745 0.290196
0.227451 0.313726 0.356863
0.537255 0.286275 0.380392
0.074510 0.180392 0.207843
0.078431 0.184314 0.211765
0.094118 0.207843 0.231373
0.117647 0.235294 0.266667
0.129412 0.258824 0.286275
0.211765 0.305882 0.345098
0.439216 0.278431 0.341176
0.737255 0.258824 0.301961
0.125490 0.243137 0.274510
0.129412 0.247059 0.278431
0.141176 0.274510 0.309804
0.164706 0.301961 0.317647
0.333333 0.392157 0.380392
0.482353 0.411765 0.356863
0.647059 0.447059 0.325490
0.874510 0.525490 0.290196
0.207843 0.356863 0.360784
0.211765 0.364706 0.360784
0.227451 0.360784 0.356863
0.247059 0.372549 0.360784
0.352941 0.443137 0.411765
0.745098 0.729412 0.631373
0.929412 0.835294 0.701961
1.000000 0.850980 0.674510
0.313726 0.462745 0.411765
0.321569 0.462745 0.407843
0.333333 0.466667 0.400000
0.352941 0.478431 0.396078
0.407843 0.509804 0.411765
0.647059 0.674510 0.541176
0.941176 0.909804 0.819608
0.992157 0.945098 0.882353
0.505882 0.631373 0.486275
0.509804 0.635294 0.490196
0.517647 0.639216 0.478431
0.541176 0.643137 0.466667
0.603922 0.678431 0.462745
0.709804 0.745098 0.498039
0.937255 0.882353 0.690196
0.988235 0.956863 0.882353
0.074510 0.180392 0.207843
0.078431 0.184314 0.211765
0.086275 0.192157 0.219608
0.105882 0.227451 0.247059
0.149020 0.278431 0.305882
0.196078 0.333333 0.356863
0.211765 0.345098 0.380392
0.301961 0.458824 0.466667
0.082353 0.188235 0.215686
0.082353 0.196078 0.219608
0.090196 0.203922 0.235294
0.109804 0.227451 0.258824
0.156863 0.294118 0.317647
0.203922 0.341176 0.364706
0.215686 0.360784 0.384314
0.317647 0.462745 0.486275
0.094118 0.200000 0.227451
0.094118 0.207843 0.231373
0.105882 0.219608 0.250980
0.129412 0.247059 0.278431
0.184314 0.317647 0.352941
0.211765 0.356863 0.388235
0.243137 0.388235 0.411765
0.352941 0.501961 0.505882
0.113725 0.231373 0.262745
0.117647 0.235294 0.266667
0.125490 0.254902 0.282353
0.152941 0.282353 0.317647
0.211765 0.356863 0.380392
0.247059 0.396078 0.407843
0.298039 0.447059 0.458824
0.435294 0.552941 0.552941
0.156863 0.286275 0.313726
0.164706 0.294118 0.321569
0.180392 0.317647 0.341176
0.203922 0.349020 0.372549
0.278431 0.431373 0.450980
0.317647 0.466667 0.478431
0.462745 0.517647 0.529412
0.807843 0.486275 0.533333
0.243137 0.388235 0.411765
0.250980 0.396078 0.419608
0.270588 0.423529 0.443137
0.313726 0.470588 0.478431
0.372549 0.513726 0.505882
0.650980 0.666667 0.607843
0.839216 0.686275 0.556863
0.984314 0.721569 0.513726
0.411765 0.572549 0.549020
0.419608 0.580392 0.549020
0.431373 0.596078 0.556863
0.454902 0.603922 0.560784
0.486275 0.615686 0.549020
0.650980 0.713726 0.607843
0.956863 0.933333 0.870588
0.988235 0.952941 0.894118
0.627451 0.764706 0.647059
0.635294 0.764706 0.650980
0.647059 0.768627 0.643137
0.650980 0.768627 0.627451
0.690196 0.780392 0.607843
0.768627 0.815686 0.619608
0.925490 0.909804 0.764706
0.992157 0.964706 0.901961
0.133333 0.262745 0.298039
0.137255 0.266667 0.294118
0.149020 0.278431 0.305882
0.168627 0.305882 0.329412
0.227451 0.372549 0.396078
0.309804 0.466667 0.466667
0.384314 0.537255 0.533333
0.415686 0.568627 0.556863
0.141176 0.270588 0.298039
0.145098 0.274510 0.301961
0.156863 0.294118 0.317647
0.180392 0.313726 0.349020
0.235294 0.380392 0.403922
0.325490 0.474510 0.486275
0.403922 0.545098 0.545098
0.431373 0.572549 0.564706
0.152941 0.286275 0.321569
0.156863 0.294118 0.317647
0.172549 0.309804 0.333333
0.192157 0.337255 0.360784
0.254902 0.400000 0.423529
0.349020 0.498039 0.501961
0.415686 0.568627 0.556863
0.458824 0.600000 0.584314
0.180392 0.317647 0.341176
0.188235 0.321569 0.356863
0.196078 0.341176 0.372549
0.223529 0.368627 0.392157
0.282353 0.427451 0.450980
0.388235 0.537255 0.541176
0.454902 0.596078 0.588235
0.505882 0.650980 0.619608
0.223529 0.368627 0.392157
0.227451 0.372549 0.396078
0.250980 0.396078 0.419608
0.278431 0.423529 0.447059
0.337255 0.486275 0.490196
0.458824 0.600000 0.592157
0.529412 0.658824 0.631373
0.619608 0.745098 0.701961
0.294118 0.443137 0.454902
0.298039 0.454902 0.462745
0.317647 0.466667 0.478431
0.349020 0.505882 0.505882
0.419608 0.572549 0.560784
0.549020 0.686275 0.658824
0.627451 0.752941 0.701961
0.803922 0.827451 0.788235
0.439216 0.592157 0.580392
0.454902 0.596078 0.588235
0.478431 0.619608 0.603922
0.525490 0.662745 0.635294
0.627451 0.745098 0.705882
0.713726 0.807843 0.745098
0.917647 0.921569 0.850980
0.980392 0.909804 0.815686
0.768627 0.858824 0.788235
0.772549 0.862745 0.792157
0.780392 0.870588 0.800000
0.800000 0.882353 0.807843
0.827451 0.898039 0.811765
0.847059 0.901961 0.803922
0.909804 0.917647 0.823529
1.000000 0.976471 0.929412
0.305882 0.462745 0.470588
0.313726 0.470588 0.478431
0.321569 0.478431 0.478431
0.349020 0.498039 0.501961
0.400000 0.552941 0.549020
0.498039 0.643137 0.615686
0.639216 0.756863 0.717647
0.745098 0.835294 0.772549
0.317647 0.466667 0.478431
0.321569 0.478431 0.486275
0.333333 0.482353 0.494118
0.356863 0.505882 0.509804
0.403922 0.556863 0.552941
0.505882 0.650980 0.623529
0.654902 0.764706 0.717647
0.752941 0.843137 0.780392
0.329412 0.486275 0.486275
0.337255 0.486275 0.490196
0.345098 0.501961 0.501961
0.372549 0.521569 0.525490
0.427451 0.568627 0.560784
0.537255 0.666667 0.639216
0.674510 0.784314 0.729412
0.772549 0.854902 0.796078
0.356863 0.505882 0.509804
0.360784 0.509804 0.513726
0.372549 0.521569 0.525490
0.400000 0.552941 0.549020
0.450980 0.592157 0.576471
0.556863 0.686275 0.650980
0.709804 0.815686 0.756863
0.800000 0.870588 0.807843
0.403922 0.545098 0.545098
0.400000 0.552941 0.549020
0.423529 0.564706 0.556863
0.447059 0.588235 0.572549
0.494118 0.639216 0.611765
0.600000 0.721569 0.690196
0.768627 0.850980 0.792157
0.847059 0.901961 0.843137
0.450980 0.592157 0.576471
0.462745 0.603922 0.588235
0.474510 0.619608 0.592157
0.505882 0.643137 0.619608
0.564706 0.694118 0.658824
0.650980 0.768627 0.721569
0.823529 0.890196 0.827451
0.874510 0.917647 0.854902
0.552941 0.682353 0.654902
0.549020 0.690196 0.650980
0.576471 0.705882 0.670588
0.611765 0.737255 0.694118
0.682353 0.792157 0.737255
0.768627 0.850980 0.792157
0.874510 0.917647 0.862745
0.925490 0.941176 0.886275
0.788235 0.858824 0.803922
0.792157 0.862745 0.807843
0.807843 0.874510 0.811765
0.831373 0.886275 0.827451
0.866667 0.913725 0.858824
0.909804 0.933333 0.878431
0.945098 0.952941 0.901961
0.996078 0.972549 0.925490
