FILES/04-7f880f81.cube
TITLE "/Users/aaronseiha/Desktop/BW"
LUT_3D_SIZE 5
DOMAIN_MIN 0.000000 0.000000 0.000000
DOMAIN_MAX 0.903226 0.903226 0.903226
0.003922 0.000000 0.000000
0.027451 0.003922 0.019608
0.062745 0.066667 0.086275
0.207843 0.207843 0.215686
0.407843 0.403922 0.388235
0.054902 0.058824 0.078431
0.082353 0.086275 0.105882
0.149020 0.152941 0.168627
0.278431 0.270588 0.282353
0.490196 0.494118 0.474510
0.278431 0.270588 0.274510
0.309804 0.294118 0.290196
0.368627 0.364706 0.356863
0.498039 0.501961 0.482353
0.737255 0.741176 0.721569
0.733333 0.737255 0.717647
0.752941 0.756863 0.737255
0.792157 0.792157 0.792157
0.866667 0.862745 0.854902
0.925490 0.917647 0.921569
0.960784 0.960784 0.960784
0.964706 0.956863 0.960784
0.968627 0.960784 0.964706
0.976471 0.968627 0.972549
0.980392 0.980392 0.980392
0.015686 0.000000 0.003922
0.027451 0.007843 0.023529
0.082353 0.086275 0.105882
0.219608 0.219608 0.227451
0.419608 0.423529 0.403922
0.066667 0.070588 0.090196
0.086275 0.098039 0.117647
0.160784 0.164706 0.180392
0.290196 0.282353 0.294118
0.509804 0.513726 0.490196
0.290196 0.282353 0.286275
0.309804 0.301961 0.305882
0.372549 0.368627 0.352941
0.509804 0.513726 0.494118
0.752941 0.749020 0.741176
0.745098 0.741176 0.725490
0.756863 0.756863 0.749020
0.807843 0.803922 0.796078
0.866667 0.862745 0.854902
0.929412 0.921569 0.925490
0.964706 0.956863 0.960784
0.964706 0.956863 0.960784
0.972549 0.964706 0.968627
0.972549 0.972549 0.972549
0.984314 0.984314 0.984314
0.027451 0.007843 0.023529
0.039216 0.031373 0.050980
0.098039 0.101961 0.121569
0.239216 0.239216 0.247059
0.450980 0.454902 0.431373
0.078431 0.090196 0.109804
0.113725 0.117647 0.137255
0.184314 0.180392 0.200000
0.313726 0.309804 0.301961
0.541176 0.545098 0.521569
0.301961 0.294118 0.298039
0.333333 0.317647 0.321569
0.392157 0.388235 0.372549
0.541176 0.545098 0.525490
0.764706 0.760784 0.752941
0.760784 0.756863 0.749020
0.776471 0.776471 0.768627
0.811765 0.803922 0.807843
0.874510 0.866667 0.870588
0.933333 0.925490 0.929412
0.964706 0.964706 0.964706
0.964706 0.956863 0.960784
0.972549 0.972549 0.972549
0.980392 0.972549 0.976471
0.984314 0.984314 0.984314
0.054902 0.058824 0.078431
0.078431 0.082353 0.101961
0.141176 0.145098 0.160784
0.270588 0.262745 0.266667
0.494118 0.505882 0.478431
0.129412 0.133333 0.149020
0.156863 0.160784 0.176471
0.227451 0.219608 0.231373
0.345098 0.341176 0.333333
0.588235 0.592157 0.572549
0.341176 0.337255 0.329412
0.364706 0.360784 0.352941
0.427451 0.427451 0.419608
0.584314 0.588235 0.568627
0.788235 0.784314 0.776471
0.792157 0.788235 0.780392
0.800000 0.796078 0.788235
0.835294 0.831373 0.823529
0.886275 0.878431 0.882353
0.937255 0.929412 0.933333
0.968627 0.960784 0.964706
0.964706 0.956863 0.960784
0.976471 0.968627 0.972549
0.972549 0.972549 0.972549
0.984314 0.984314 0.984314
0.109804 0.113725 0.133333
0.137255 0.141176 0.156863
0.203922 0.203922 0.211765
0.356863 0.352941 0.345098
0.623529 0.635294 0.607843
0.184314 0.180392 0.200000
0.211765 0.211765 0.219608
0.274510 0.266667 0.270588
0.423529 0.427451 0.407843
0.705882 0.709804 0.690196
0.392157 0.396078 0.376471
0.407843 0.411765 0.392157
0.478431 0.482353 0.462745
0.654902 0.658824 0.639216
0.843137 0.835294 0.839216
0.850980 0.843137 0.847059
0.854902 0.850980 0.843137
0.866667 0.858824 0.862745
0.901961 0.894118 0.898039
0.945098 0.937255 0.941176
0.972549 0.964706 0.968627
0.968627 0.968627 0.968627
0.972549 0.972549 0.972549
0.980392 0.980392 0.980392
0.984314 0.984314 0.984314
