FILES/04-7f880f81.cube
TITLE "/Users/aaronseiha/Desktop/BW"
LUT_3D_SIZE 32
0.003922 0.000000 0.000000
0.003922 0.000000 0.000000
0.007843 0.000000 0.003922
0.007843 0.000000 0.003922
0.023529 0.000000 0.007843
0.023529 0.000000 0.007843
0.023529 0.000000 0.007843
0.027451 0.003922 0.019608
0.027451 0.007843 0.023529
0.035294 0.015686 0.031373
0.027451 0.019608 0.031373
0.039216 0.031373 0.050980
0.043137 0.039216 0.058824
0.050980 0.054902 0.070588
0.062745 0.066667 0.086275
0.078431 0.082353 0.101961
0.105882 0.109804 0.129412
0.121569 0.125490 0.145098
0.141176 0.137255 0.156863
0.160784 0.156863 0.176471
0.180392 0.176471 0.196078
0.207843 0.207843 0.215686
0.223529 0.223529 0.231373
0.247059 0.239216 0.243137
0.270588 0.262745 0.274510
0.298039 0.290196 0.301961
0.333333 0.329412 0.321569
0.360784 0.356863 0.341176
0.407843 0.403922 0.388235
0.447059 0.450980 0.431373
0.501961 0.505882 0.482353
0.560784 0.572549 0.545098
0.015686 0.000000 0.003922
0.015686 0.000000 0.003922
0.019608 0.003922 0.007843
0.019608 0.003922 0.007843
0.023529 0.000000 0.007843
0.023529 0.000000 0.007843
0.019608 0.000000 0.015686
0.027451 0.007843 0.023529
0.019608 0.011765 0.023529
0.027451 0.019608 0.031373
0.031373 0.023529 0.043137
0.039216 0.031373 0.050980
0.043137 0.047059 0.066667
0.054902 0.058824 0.078431
0.066667 0.070588 0.090196
0.082353 0.086275 0.105882
0.105882 0.117647 0.137255
0.129412 0.133333 0.149020
0.145098 0.149020 0.164706
0.164706 0.168627 0.184314
0.180392 0.184314 0.200000
0.211765 0.211765 0.219608
0.227451 0.227451 0.235294
0.247059 0.247059 0.247059
0.278431 0.270588 0.282353
0.301961 0.294118 0.298039
0.333333 0.329412 0.321569
0.368627 0.364706 0.356863
0.407843 0.403922 0.388235
0.454902 0.458824 0.439216
0.509804 0.513726 0.490196
0.572549 0.576471 0.552941
0.019608 0.003922 0.007843
0.019608 0.003922 0.007843
0.019608 0.003922 0.007843
0.019608 0.003922 0.007843
0.023529 0.000000 0.007843
0.023529 0.000000 0.015686
0.031373 0.007843 0.023529
0.035294 0.011765 0.027451
0.027451 0.019608 0.039216
0.031373 0.023529 0.043137
0.039216 0.031373 0.050980
0.043137 0.039216 0.058824
0.050980 0.054902 0.070588
0.062745 0.066667 0.082353
0.074510 0.078431 0.094118
0.090196 0.094118 0.113725
0.109804 0.121569 0.141176
0.133333 0.137255 0.152941
0.149020 0.152941 0.168627
0.168627 0.172549 0.188235
0.192157 0.188235 0.207843
0.215686 0.215686 0.223529
0.235294 0.235294 0.243137
0.250980 0.250980 0.258824
0.282353 0.274510 0.278431
0.309804 0.301961 0.305882
0.341176 0.337255 0.329412
0.372549 0.368627 0.360784
0.415686 0.411765 0.403922
0.462745 0.466667 0.447059
0.513726 0.517647 0.494118
0.572549 0.584314 0.556863
0.019608 0.000000 0.015686
0.019608 0.000000 0.015686
0.027451 0.007843 0.023529
0.027451 0.007843 0.023529
0.027451 0.007843 0.023529
0.031373 0.011765 0.027451
0.031373 0.011765 0.027451
0.035294 0.015686 0.031373
0.027451 0.027451 0.035294
0.035294 0.031373 0.050980
0.039216 0.035294 0.054902
0.050980 0.047059 0.066667
0.058824 0.062745 0.082353
0.066667 0.070588 0.090196
0.082353 0.086275 0.105882
0.098039 0.101961 0.121569
0.121569 0.125490 0.145098
0.141176 0.145098 0.160784
0.156863 0.160784 0.176471
0.180392 0.176471 0.196078
0.200000 0.200000 0.207843
0.219608 0.219608 0.227451
0.239216 0.239216 0.239216
0.258824 0.258824 0.258824
0.286275 0.278431 0.282353
0.309804 0.301961 0.305882
0.349020 0.345098 0.337255
0.380392 0.380392 0.372549
0.419608 0.423529 0.403922
0.466667 0.470588 0.447059
0.525490 0.529412 0.505882
0.580392 0.592157 0.564706
0.027451 0.007843 0.023529
0.023529 0.015686 0.027451
0.031373 0.011765 0.027451
0.031373 0.011765 0.027451
0.027451 0.019608 0.031373
0.031373 0.023529 0.035294
0.035294 0.027451 0.047059
0.039216 0.031373 0.050980
0.043137 0.039216 0.058824
0.047059 0.043137 0.062745
0.050980 0.047059 0.066667
0.058824 0.062745 0.078431
0.070588 0.074510 0.090196
0.074510 0.090196 0.101961
0.086275 0.101961 0.113725
0.101961 0.117647 0.129412
0.137255 0.141176 0.156863
0.149020 0.152941 0.168627
0.172549 0.168627 0.188235
0.192157 0.188235 0.207843
0.211765 0.203922 0.223529
0.231373 0.223529 0.235294
0.254902 0.247059 0.258824
0.274510 0.266667 0.278431
0.294118 0.286275 0.290196
0.321569 0.313726 0.317647
0.356863 0.352941 0.345098
0.392157 0.388235 0.372549
0.431373 0.435294 0.415686
0.482353 0.486275 0.462745
0.537255 0.541176 0.517647
0.600000 0.603922 0.580392
0.027451 0.019608 0.039216
0.031373 0.023529 0.043137
0.031373 0.023529 0.043137
0.035294 0.027451 0.047059
0.043137 0.035294 0.047059
0.039216 0.035294 0.054902
0.047059 0.043137 0.062745
0.047059 0.043137 0.062745
0.050980 0.054902 0.070588
0.054902 0.058824 0.074510
0.062745 0.066667 0.082353
0.074510 0.078431 0.094118
0.086275 0.090196 0.109804
0.094118 0.098039 0.117647
0.109804 0.113725 0.133333
0.121569 0.125490 0.145098
0.149020 0.152941 0.172549
0.164706 0.168627 0.184314
0.184314 0.180392 0.200000
0.203922 0.200000 0.219608
0.219608 0.219608 0.227451
0.247059 0.239216 0.250980
0.262745 0.254902 0.266667
0.286275 0.278431 0.282353
0.309804 0.305882 0.298039
0.333333 0.329412 0.321569
0.372549 0.368627 0.352941
0.407843 0.403922 0.388235
0.447059 0.450980 0.427451
0.498039 0.501961 0.482353
0.556863 0.560784 0.541176
0.611765 0.615686 0.596078
0.043137 0.039216 0.058824
0.043137 0.039216 0.058824
0.043137 0.039216 0.058824
0.047059 0.043137 0.062745
0.047059 0.050980 0.066667
0.054902 0.058824 0.078431
0.058824 0.062745 0.082353
0.066667 0.070588 0.090196
0.074510 0.078431 0.098039
0.078431 0.082353 0.101961
0.078431 0.090196 0.109804
0.086275 0.098039 0.117647
0.105882 0.109804 0.129412
0.117647 0.121569 0.141176
0.125490 0.129412 0.149020
0.141176 0.145098 0.164706
0.168627 0.164706 0.184314
0.184314 0.180392 0.200000
0.203922 0.196078 0.215686
0.223529 0.215686 0.235294
0.239216 0.231373 0.243137
0.258824 0.250980 0.262745
0.278431 0.270588 0.274510
0.298039 0.290196 0.294118
0.321569 0.317647 0.309804
0.352941 0.349020 0.341176
0.388235 0.384314 0.368627
0.427451 0.423529 0.407843
0.466667 0.470588 0.447059
0.521569 0.525490 0.501961
0.576471 0.580392 0.556863
0.635294 0.639216 0.615686
0.054902 0.058824 0.078431
0.054902 0.058824 0.078431
0.058824 0.062745 0.082353
0.062745 0.066667 0.086275
0.066667 0.070588 0.090196
0.074510 0.078431 0.098039
0.078431 0.082353 0.101961
0.082353 0.086275 0.105882
0.094118 0.098039 0.117647
0.098039 0.101961 0.121569
0.105882 0.109804 0.129412
0.117647 0.121569 0.141176
0.129412 0.133333 0.149020
0.137255 0.141176 0.156863
0.149020 0.152941 0.168627
0.160784 0.164706 0.180392
0.188235 0.184314 0.203922
0.203922 0.203922 0.211765
0.223529 0.215686 0.227451
0.239216 0.231373 0.243137
0.254902 0.247059 0.258824
0.278431 0.270588 0.282353
0.298039 0.290196 0.294118
0.313726 0.305882 0.309804
0.337255 0.337255 0.329412
0.364706 0.364706 0.356863
0.403922 0.407843 0.388235
0.443137 0.447059 0.427451
0.490196 0.494118 0.474510
0.545098 0.549020 0.525490
0.600000 0.603922 0.580392
0.654902 0.658824 0.639216
0.078431 0.082353 0.101961
0.082353 0.086275 0.105882
0.082353 0.086275 0.105882
0.086275 0.090196 0.109804
0.090196 0.094118 0.113725
0.094118 0.098039 0.117647
0.101961 0.105882 0.125490
0.105882 0.109804 0.129412
0.117647 0.121569 0.141176
0.121569 0.125490 0.145098
0.129412 0.133333 0.152941
0.141176 0.145098 0.164706
0.156863 0.152941 0.176471
0.164706 0.160784 0.180392
0.176471 0.172549 0.192157
0.188235 0.184314 0.203922
0.211765 0.211765 0.219608
0.227451 0.219608 0.231373
0.243137 0.235294 0.239216
0.258824 0.250980 0.254902
0.274510 0.266667 0.270588
0.294118 0.286275 0.290196
0.313726 0.305882 0.309804
0.337255 0.329412 0.333333
0.360784 0.364706 0.345098
0.392157 0.396078 0.376471
0.431373 0.435294 0.415686
0.470588 0.474510 0.454902
0.517647 0.521569 0.501961
0.572549 0.576471 0.556863
0.627451 0.631373 0.611765
0.678431 0.682353 0.662745
0.105882 0.109804 0.129412
0.109804 0.113725 0.133333
0.109804 0.113725 0.133333
0.113725 0.117647 0.137255
0.117647 0.121569 0.141176
0.121569 0.125490 0.145098
0.129412 0.133333 0.152941
0.133333 0.137255 0.156863
0.149020 0.145098 0.164706
0.152941 0.149020 0.168627
0.156863 0.160784 0.176471
0.168627 0.172549 0.188235
0.180392 0.176471 0.196078
0.188235 0.188235 0.196078
0.200000 0.200000 0.207843
0.211765 0.211765 0.219608
0.235294 0.227451 0.239216
0.250980 0.243137 0.254902
0.262745 0.254902 0.258824
0.278431 0.270588 0.274510
0.298039 0.290196 0.294118
0.313726 0.305882 0.309804
0.337255 0.333333 0.325490
0.360784 0.356863 0.349020
0.384314 0.388235 0.368627
0.411765 0.415686 0.396078
0.458824 0.462745 0.443137
0.501961 0.505882 0.482353
0.552941 0.556863 0.533333
0.603922 0.607843 0.588235
0.658824 0.662745 0.643137
0.705882 0.705882 0.698039
0.137255 0.141176 0.160784
0.137255 0.141176 0.160784
0.141176 0.145098 0.164706
0.141176 0.145098 0.164706
0.149020 0.152941 0.168627
0.152941 0.156863 0.172549
0.156863 0.160784 0.176471
0.160784 0.164706 0.180392
0.172549 0.172549 0.180392
0.180392 0.180392 0.188235
0.192157 0.192157 0.200000
0.200000 0.200000 0.207843
0.211765 0.211765 0.219608
0.219608 0.219608 0.227451
0.227451 0.227451 0.235294
0.239216 0.239216 0.239216
0.262745 0.254902 0.266667
0.278431 0.270588 0.274510
0.286275 0.278431 0.282353
0.309804 0.301961 0.305882
0.321569 0.317647 0.309804
0.341176 0.337255 0.329412
0.364706 0.360784 0.352941
0.388235 0.384314 0.376471
0.415686 0.419608 0.400000
0.450980 0.454902 0.435294
0.494118 0.498039 0.478431
0.537255 0.541176 0.517647
0.580392 0.592157 0.564706
0.635294 0.639216 0.619608
0.686275 0.690196 0.670588
0.733333 0.737255 0.717647
0.172549 0.168627 0.188235
0.172549 0.168627 0.188235
0.172549 0.168627 0.188235
0.180392 0.176471 0.196078
0.180392 0.180392 0.188235
0.184314 0.184314 0.192157
0.192157 0.192157 0.200000
0.196078 0.196078 0.203922
0.203922 0.203922 0.211765
0.211765 0.211765 0.219608
0.219608 0.219608 0.227451
0.231373 0.223529 0.235294
0.243137 0.235294 0.247059
0.250980 0.243137 0.254902
0.258824 0.250980 0.262745
0.270588 0.262745 0.274510
0.290196 0.282353 0.286275
0.305882 0.301961 0.294118
0.321569 0.317647 0.309804
0.333333 0.329412 0.321569
0.352941 0.349020 0.341176
0.372549 0.368627 0.360784
0.396078 0.392157 0.376471
0.419608 0.415686 0.400000
0.450980 0.454902 0.435294
0.486275 0.482353 0.466667
0.529412 0.533333 0.513726
0.572549 0.576471 0.556863
0.619608 0.627451 0.607843
0.670588 0.674510 0.654902
0.717647 0.721569 0.701961
0.764706 0.760784 0.752941
0.203922 0.200000 0.219608
0.200000 0.203922 0.219608
0.203922 0.207843 0.223529
0.207843 0.211765 0.227451
0.211765 0.207843 0.227451
0.219608 0.215686 0.235294
0.223529 0.219608 0.239216
0.227451 0.223529 0.243137
0.239216 0.231373 0.243137
0.247059 0.239216 0.250980
0.254902 0.247059 0.258824
0.262745 0.254902 0.266667
0.270588 0.262745 0.274510
0.282353 0.274510 0.278431
0.294118 0.286275 0.290196
0.305882 0.298039 0.301961
0.325490 0.317647 0.321569
0.337255 0.329412 0.333333
0.352941 0.345098 0.349020
0.368627 0.360784 0.364706
0.384314 0.388235 0.368627
0.407843 0.411765 0.392157
0.431373 0.435294 0.415686
0.454902 0.458824 0.439216
0.490196 0.494118 0.474510
0.525490 0.529412 0.505882
0.572549 0.576471 0.556863
0.615686 0.619608 0.600000
0.662745 0.666667 0.647059
0.701961 0.705882 0.686275
0.752941 0.749020 0.741176
0.792157 0.788235 0.780392
0.239216 0.239216 0.247059
0.239216 0.239216 0.247059
0.243137 0.243137 0.250980
0.243137 0.243137 0.250980
0.250980 0.243137 0.254902
0.254902 0.247059 0.258824
0.258824 0.250980 0.262745
0.266667 0.258824 0.270588
0.270588 0.270588 0.270588
0.278431 0.278431 0.278431
0.286275 0.278431 0.282353
0.294118 0.286275 0.290196
0.305882 0.298039 0.301961
0.313726 0.305882 0.309804
0.329412 0.321569 0.325490
0.337255 0.329412 0.333333
0.360784 0.356863 0.341176
0.376471 0.372549 0.356863
0.392157 0.388235 0.372549
0.407843 0.403922 0.388235
0.423529 0.427451 0.407843
0.447059 0.450980 0.431373
0.474510 0.478431 0.458824
0.501961 0.505882 0.486275
0.533333 0.537255 0.517647
0.576471 0.580392 0.560784
0.623529 0.627451 0.607843
0.662745 0.666667 0.647059
0.701961 0.705882 0.686275
0.741176 0.737255 0.721569
0.780392 0.776471 0.768627
0.815686 0.807843 0.811765
0.278431 0.270588 0.274510
0.282353 0.274510 0.278431
0.282353 0.274510 0.278431
0.282353 0.274510 0.278431
0.298039 0.282353 0.286275
0.298039 0.282353 0.286275
0.305882 0.290196 0.286275
0.309804 0.294118 0.290196
0.301961 0.301961 0.301961
0.313726 0.313726 0.313726
0.317647 0.317647 0.317647
0.329412 0.329412 0.329412
0.337255 0.337255 0.337255
0.352941 0.349020 0.341176
0.368627 0.364706 0.356863
0.376471 0.376471 0.368627
0.400000 0.403922 0.384314
0.415686 0.419608 0.400000
0.435294 0.439216 0.419608
0.450980 0.454902 0.435294
0.474510 0.478431 0.458824
0.498039 0.501961 0.482353
0.525490 0.529412 0.509804
0.556863 0.560784 0.541176
0.588235 0.592157 0.572549
0.619608 0.623529 0.603922
0.662745 0.666667 0.647059
0.701961 0.705882 0.686275
0.737255 0.741176 0.721569
0.776471 0.772549 0.764706
0.807843 0.800000 0.803922
0.839216 0.831373 0.835294
0.321569 0.313726 0.317647
0.321569 0.313726 0.317647
0.321569 0.313726 0.317647
0.325490 0.317647 0.321569
0.325490 0.317647 0.321569
0.329412 0.321569 0.325490
0.337255 0.329412 0.333333
0.349020 0.333333 0.337255
0.345098 0.345098 0.337255
0.356863 0.356863 0.349020
0.360784 0.360784 0.352941
0.372549 0.368627 0.360784
0.388235 0.384314 0.368627
0.400000 0.396078 0.380392
0.411765 0.407843 0.392157
0.427451 0.423529 0.407843
0.450980 0.454902 0.435294
0.466667 0.470588 0.450980
0.486275 0.490196 0.470588
0.505882 0.509804 0.490196
0.525490 0.529412 0.505882
0.549020 0.552941 0.529412
0.580392 0.584314 0.560784
0.607843 0.611765 0.588235
0.639216 0.643137 0.623529
0.666667 0.674510 0.654902
0.709804 0.713726 0.694118
0.741176 0.745098 0.725490
0.772549 0.772549 0.764706
0.807843 0.800000 0.803922
0.835294 0.827451 0.831373
0.858824 0.850980 0.854902
0.392157 0.388235 0.372549
0.396078 0.392157 0.376471
0.400000 0.396078 0.380392
0.403922 0.400000 0.384314
0.400000 0.403922 0.384314
0.403922 0.407843 0.388235
0.411765 0.415686 0.396078
0.419608 0.423529 0.403922
0.427451 0.423529 0.407843
0.431373 0.435294 0.415686
0.443137 0.447059 0.427451
0.454902 0.458824 0.435294
0.462745 0.466667 0.447059
0.478431 0.482353 0.458824
0.494118 0.498039 0.474510
0.513726 0.517647 0.494118
0.541176 0.545098 0.525490
0.560784 0.564706 0.545098
0.580392 0.584314 0.564706
0.600000 0.603922 0.584314
0.627451 0.623529 0.607843
0.643137 0.647059 0.627451
0.670588 0.674510 0.654902
0.694118 0.698039 0.678431
0.717647 0.721569 0.701961
0.745098 0.749020 0.729412
0.776471 0.780392 0.760784
0.800000 0.803922 0.784314
0.831373 0.827451 0.819608
0.850980 0.847059 0.839216
0.874510 0.866667 0.870588
0.894118 0.886275 0.890196
0.447059 0.450980 0.431373
0.450980 0.454902 0.431373
0.450980 0.454902 0.431373
0.454902 0.458824 0.435294
0.458824 0.462745 0.443137
0.462745 0.466667 0.447059
0.470588 0.474510 0.454902
0.478431 0.474510 0.458824
0.482353 0.486275 0.466667
0.494118 0.498039 0.478431
0.505882 0.509804 0.490196
0.513726 0.517647 0.498039
0.529412 0.533333 0.513726
0.541176 0.545098 0.521569
0.556863 0.560784 0.537255
0.572549 0.576471 0.552941
0.600000 0.603922 0.584314
0.619608 0.623529 0.603922
0.639216 0.643137 0.623529
0.658824 0.662745 0.643137
0.678431 0.682353 0.662745
0.694118 0.698039 0.678431
0.717647 0.721569 0.701961
0.745098 0.741176 0.725490
0.764706 0.760784 0.752941
0.792157 0.788235 0.780392
0.815686 0.811765 0.803922
0.831373 0.823529 0.827451
0.854902 0.847059 0.850980
0.870588 0.862745 0.866667
0.890196 0.882353 0.886275
0.909804 0.901961 0.905882
0.513726 0.521569 0.501961
0.513726 0.521569 0.501961
0.517647 0.525490 0.505882
0.521569 0.529412 0.509804
0.525490 0.529412 0.505882
0.533333 0.537255 0.513726
0.537255 0.541176 0.517647
0.545098 0.549020 0.525490
0.549020 0.560784 0.533333
0.556863 0.568627 0.541176
0.572549 0.576471 0.552941
0.584314 0.588235 0.564706
0.596078 0.600000 0.580392
0.607843 0.611765 0.592157
0.623529 0.627451 0.607843
0.639216 0.643137 0.623529
0.662745 0.666667 0.647059
0.682353 0.686275 0.666667
0.694118 0.698039 0.678431
0.713726 0.717647 0.698039
0.737255 0.733333 0.725490
0.745098 0.749020 0.729412
0.768627 0.768627 0.760784
0.784314 0.784314 0.776471
0.803922 0.796078 0.800000
0.827451 0.819608 0.823529
0.847059 0.839216 0.843137
0.862745 0.854902 0.858824
0.878431 0.870588 0.874510
0.894118 0.886275 0.890196
0.905882 0.898039 0.901961
0.921569 0.913725 0.917647
0.592157 0.596078 0.572549
0.596078 0.600000 0.576471
0.596078 0.600000 0.576471
0.600000 0.603922 0.580392
0.600000 0.603922 0.580392
0.603922 0.607843 0.584314
0.611765 0.615686 0.592157
0.615686 0.619608 0.596078
0.623529 0.627451 0.603922
0.631373 0.635294 0.611765
0.643137 0.647059 0.623529
0.650980 0.654902 0.631373
0.662745 0.666667 0.647059
0.674510 0.678431 0.658824
0.682353 0.686275 0.666667
0.698039 0.701961 0.682353
0.717647 0.717647 0.709804
0.733333 0.733333 0.725490
0.749020 0.749020 0.741176
0.764706 0.764706 0.756863
0.780392 0.776471 0.768627
0.796078 0.792157 0.784314
0.811765 0.807843 0.800000
0.827451 0.823529 0.815686
0.843137 0.839216 0.831373
0.854902 0.847059 0.850980
0.870588 0.862745 0.866667
0.886275 0.878431 0.882353
0.898039 0.890196 0.894118
0.909804 0.901961 0.905882
0.917647 0.909804 0.913725
0.929412 0.921569 0.933333
0.658824 0.666667 0.647059
0.662745 0.670588 0.650980
0.670588 0.674510 0.654902
0.670588 0.674510 0.654902
0.674510 0.678431 0.658824
0.678431 0.682353 0.662745
0.682353 0.686275 0.666667
0.690196 0.694118 0.674510
0.698039 0.694118 0.686275
0.698039 0.701961 0.682353
0.705882 0.709804 0.690196
0.717647 0.721569 0.701961
0.725490 0.725490 0.717647
0.733333 0.733333 0.725490
0.745098 0.745098 0.737255
0.756863 0.760784 0.741176
0.776471 0.772549 0.764706
0.788235 0.784314 0.776471
0.796078 0.792157 0.784314
0.811765 0.807843 0.800000
0.823529 0.815686 0.819608
0.835294 0.827451 0.831373
0.847059 0.839216 0.843137
0.854902 0.847059 0.850980
0.866667 0.858824 0.862745
0.882353 0.874510 0.878431
0.894118 0.886275 0.890196
0.901961 0.894118 0.898039
0.921569 0.905882 0.909804
0.925490 0.917647 0.921569
0.933333 0.925490 0.929412
0.941176 0.933333 0.937255
0.733333 0.737255 0.717647
0.737255 0.737255 0.729412
0.737255 0.737255 0.729412
0.741176 0.741176 0.733333
0.741176 0.741176 0.733333
0.741176 0.741176 0.733333
0.745098 0.749020 0.729412
0.752941 0.756863 0.737255
0.756863 0.756863 0.749020
0.760784 0.760784 0.752941
0.768627 0.768627 0.760784
0.772549 0.772549 0.764706
0.780392 0.780392 0.772549
0.784314 0.784314 0.784314
0.792157 0.792157 0.792157
0.811765 0.807843 0.800000
0.819608 0.815686 0.807843
0.831373 0.827451 0.819608
0.839216 0.835294 0.827451
0.850980 0.847059 0.839216
0.858824 0.854902 0.847059
0.866667 0.862745 0.854902
0.878431 0.874510 0.866667
0.882353 0.874510 0.878431
0.898039 0.882353 0.886275
0.901961 0.894118 0.898039
0.909804 0.901961 0.905882
0.921569 0.913725 0.917647
0.925490 0.917647 0.921569
0.933333 0.925490 0.929412
0.941176 0.933333 0.937255
0.949020 0.941176 0.945098
0.796078 0.792157 0.784314
0.800000 0.796078 0.788235
0.800000 0.796078 0.788235
0.800000 0.796078 0.788235
0.803922 0.796078 0.800000
0.803922 0.796078 0.800000
0.803922 0.800000 0.792157
0.811765 0.807843 0.800000
0.815686 0.807843 0.811765
0.815686 0.807843 0.811765
0.819608 0.811765 0.815686
0.823529 0.815686 0.819608
0.835294 0.831373 0.823529
0.835294 0.831373 0.823529
0.843137 0.839216 0.831373
0.850980 0.847059 0.839216
0.866667 0.850980 0.854902
0.874510 0.858824 0.862745
0.878431 0.862745 0.866667
0.886275 0.870588 0.874510
0.886275 0.878431 0.882353
0.894118 0.886275 0.890196
0.901961 0.894118 0.898039
0.905882 0.898039 0.901961
0.909804 0.901961 0.905882
0.921569 0.913725 0.917647
0.925490 0.917647 0.921569
0.933333 0.925490 0.929412
0.941176 0.933333 0.945098
0.945098 0.937255 0.941176
0.949020 0.941176 0.945098
0.952941 0.952941 0.952941
0.843137 0.835294 0.839216
0.847059 0.839216 0.843137
0.847059 0.839216 0.843137
0.847059 0.839216 0.843137
0.850980 0.843137 0.847059
0.850980 0.843137 0.847059
0.850980 0.843137 0.847059
0.854902 0.847059 0.850980
0.858824 0.850980 0.854902
0.858824 0.850980 0.854902
0.862745 0.854902 0.858824
0.866667 0.858824 0.862745
0.870588 0.862745 0.866667
0.874510 0.866667 0.870588
0.878431 0.870588 0.874510
0.882353 0.874510 0.878431
0.890196 0.886275 0.878431
0.894118 0.890196 0.882353
0.898039 0.894118 0.886275
0.905882 0.898039 0.901961
0.909804 0.901961 0.905882
0.917647 0.909804 0.913725
0.917647 0.909804 0.913725
0.921569 0.913725 0.917647
0.929412 0.921569 0.925490
0.933333 0.925490 0.929412
0.941176 0.933333 0.937255
0.941176 0.933333 0.945098
0.949020 0.941176 0.945098
0.952941 0.945098 0.949020
0.956863 0.949020 0.952941
0.956863 0.956863 0.956863
0.882353 0.874510 0.878431
0.886275 0.878431 0.882353
0.890196 0.874510 0.878431
0.890196 0.874510 0.878431
0.886275 0.878431 0.882353
0.886275 0.878431 0.882353
0.890196 0.882353 0.886275
0.898039 0.882353 0.886275
0.890196 0.882353 0.886275
0.894118 0.886275 0.890196
0.894118 0.886275 0.890196
0.898039 0.890196 0.894118
0.901961 0.894118 0.898039
0.901961 0.894118 0.898039
0.905882 0.898039 0.901961
0.909804 0.901961 0.905882
0.913725 0.905882 0.909804
0.917647 0.909804 0.913725
0.921569 0.913725 0.917647
0.925490 0.917647 0.921569
0.925490 0.917647 0.921569
0.933333 0.925490 0.929412
0.937255 0.929412 0.933333
0.941176 0.933333 0.937255
0.941176 0.933333 0.937255
0.945098 0.937255 0.941176
0.949020 0.941176 0.945098
0.956863 0.949020 0.952941
0.956863 0.949020 0.952941
0.964706 0.956863 0.960784
0.968627 0.960784 0.964706
0.972549 0.964706 0.968627
0.909804 0.901961 0.905882
0.913725 0.905882 0.909804
0.909804 0.901961 0.905882
0.913725 0.905882 0.909804
0.913725 0.905882 0.909804
0.913725 0.905882 0.909804
0.913725 0.905882 0.909804
0.917647 0.909804 0.913725
0.921569 0.913725 0.917647
0.917647 0.909804 0.913725
0.917647 0.909804 0.913725
0.921569 0.913725 0.917647
0.925490 0.917647 0.921569
0.925490 0.917647 0.921569
0.925490 0.917647 0.921569
0.929412 0.921569 0.925490
0.941176 0.925490 0.929412
0.941176 0.925490 0.929412
0.945098 0.929412 0.933333
0.941176 0.933333 0.937255
0.945098 0.937255 0.941176
0.941176 0.933333 0.937255
0.945098 0.937255 0.941176
0.949020 0.941176 0.945098
0.952941 0.945098 0.949020
0.956863 0.949020 0.952941
0.952941 0.952941 0.952941
0.956863 0.956863 0.956863
0.964706 0.956863 0.960784
0.968627 0.960784 0.964706
0.972549 0.964706 0.968627
0.976471 0.972549 0.964706
0.933333 0.925490 0.929412
0.937255 0.929412 0.933333
0.933333 0.925490 0.929412
0.933333 0.925490 0.929412
0.937255 0.929412 0.933333
0.937255 0.929412 0.933333
0.937255 0.929412 0.933333
0.937255 0.929412 0.933333
0.937255 0.929412 0.933333
0.941176 0.933333 0.937255
0.937255 0.929412 0.933333
0.941176 0.933333 0.937255
0.945098 0.937255 0.941176
0.941176 0.933333 0.937255
0.945098 0.937255 0.941176
0.949020 0.941176 0.945098
0.949020 0.941176 0.945098
0.952941 0.945098 0.949020
0.952941 0.945098 0.956863
0.952941 0.945098 0.956863
0.960784 0.952941 0.956863
0.956863 0.949020 0.952941
0.964706 0.956863 0.960784
0.960784 0.952941 0.956863
0.960784 0.960784 0.960784
0.964706 0.964706 0.964706
0.964706 0.964706 0.964706
0.968627 0.968627 0.968627
0.972549 0.964706 0.968627
0.972549 0.972549 0.972549
0.976471 0.976471 0.976471
0.980392 0.980392 0.980392
0.952941 0.945098 0.949020
0.952941 0.945098 0.949020
0.952941 0.945098 0.949020
0.949020 0.941176 0.945098
0.952941 0.945098 0.949020
0.952941 0.945098 0.949020
0.952941 0.945098 0.949020
0.952941 0.945098 0.949020
0.952941 0.945098 0.949020
0.956863 0.949020 0.952941
0.956863 0.949020 0.952941
0.956863 0.949020 0.952941
0.956863 0.956863 0.964706
0.952941 0.952941 0.960784
0.956863 0.956863 0.964706
0.956863 0.956863 0.964706
0.960784 0.952941 0.964706
0.964706 0.956863 0.968627
0.964706 0.956863 0.968627
0.964706 0.956863 0.960784
0.964706 0.964706 0.964706
0.960784 0.960784 0.960784
