FILES/DISPLAY_P3_32-39f386c4.cube
TITLE "DISPLAY P3 32"
LUT_3D_SIZE 8
DOMAIN_MIN 0.000000 0.000000 0.000000
DOMAIN_MAX 0.903226 0.903226 0.903226
0.007843 0.027451 0.031373
0.045588 0.042157 0.034314
0.159804 0.046078 0.041176
0.303431 0.048529 0.036275
0.485784 0.041299 0.029779
0.610662 0.039216 0.019608
0.743750 0.075368 0.013971
0.872059 0.143015 0.010049
0.000980 0.069608 0.046569
0.051225 0.077328 0.043382
0.143750 0.086397 0.036642
0.300919 0.090809 0.038971
0.481373 0.091789 0.040181
0.616544 0.097381 0.025873
0.734559 0.121676 0.009069
0.872059 0.177528 0.034498
0.000000 0.165686 0.085294
0.000000 0.202328 0.072549
0.243627 0.185539 0.039706
0.328186 0.161887 0.046446
0.476685 0.163450 0.025337
0.607077 0.178768 0.014951
0.740135 0.198254 0.010478
0.865380 0.245833 0.001532
0.000000 0.300000 0.149020
0.000000 0.338848 0.141422
0.230760 0.394485 0.059191
0.465993 0.327022 0.001838
0.530453 0.258012 0.015349
0.624020 0.265839 0.003294
0.738603 0.286765 0.000000
0.866881 0.327344 0.001792
0.000000 0.455147 0.206005
0.000000 0.480270 0.217770
0.000000 0.534099 0.175705
0.417693 0.572641 0.081066
0.644244 0.478186 0.000000
0.684417 0.389055 0.000000
0.739216 0.377083 0.000000
0.834386 0.406350 0.000000
0.000000 0.602574 0.294118
0.000000 0.621584 0.295343
0.222212 0.643382 0.294884
0.415227 0.686918 0.260218
0.701819 0.686416 0.176754
0.787351 0.605691 0.000000
0.825735 0.518260 0.000000
0.875360 0.506373 0.000000
0.239338 0.735539 0.385662
0.304305 0.733226 0.397901
0.403554 0.752635 0.398928
0.525245 0.786229 0.397151
0.732054 0.815686 0.364882
0.854756 0.799583 0.305538
0.905392 0.725490 0.082816
0.947181 0.660172 0.000000
0.466667 0.850980 0.520466
0.496569 0.859191 0.514369
0.565349 0.869700 0.524418
0.641085 0.890794 0.523499
0.784731 0.919535 0.518601
0.903546 0.920841 0.497794
0.968183 0.897917 0.428267
1.000000 0.855339 0.270221
0.011765 0.035294 0.050980
0.027941 0.045588 0.050858
0.127696 0.058824 0.048039
0.258517 0.073162 0.046875
0.432230 0.060907 0.044715
0.561075 0.052497 0.038971
0.692494 0.077221 0.018551
0.825858 0.115043 0.024280
0.000551 0.061397 0.069547
0.022434 0.077597 0.070297
0.124372 0.092632 0.070619
0.260646 0.092371 0.053868
0.425232 0.097143 0.035449
0.556239 0.093474 0.032204
0.690782 0.108010 0.023570
0.824106 0.151936 0.027095
0.000000 0.132108 0.102328
0.000000 0.154764 0.103202
0.198560 0.167463 0.082690
0.283747 0.148912 0.076777
0.433356 0.157158 0.058471
0.555587 0.162400 0.024533
0.691184 0.178876 0.006664
0.825134 0.217103 0.009934
0.000000 0.245772 0.150613
0.000000 0.268336 0.157820
0.153263 0.334375 0.104688
0.398629 0.296232 0.063971
0.483125 0.239321 0.065715
0.576220 0.241973 0.039518
0.694579 0.263582 0.009909
0.829576 0.297564 0.000333
0.000000 0.411780 0.213358
0.000000 0.445776 0.221936
0.022545 0.491529 0.208536
0.375101 0.542913 0.128184
0.617310 0.462522 0.000000
0.659052 0.377528 0.009115
0.719315 0.370113 0.003646
0.818627 0.394363 0.000000
0.000000 0.568796 0.286443
0.000000 0.582225 0.292212
0.188143 0.613913 0.292670
0.390112 0.664974 0.272021
0.677501 0.670679 0.199520
0.771746 0.590268 0.003096
0.811145 0.510192 0.000000
0.862667 0.496153 0.000000
0.175613 0.704167 0.382598
0.249948 0.712418 0.388944
0.366265 0.733203 0.395841
0.503761 0.767978 0.395939
0.704268 0.801317 0.364828
0.836771 0.786404 0.306754
0.892233 0.710826 0.112860
0.934639 0.646201 0.000000
0.434926 0.836075 0.502558
0.462699 0.840818 0.501197
0.544118 0.851180 0.507158
0.618325 0.879287 0.512981
0.767270 0.905020 0.508516
0.892209 0.910873 0.493707
0.961038 0.890771 0.420930
1.000000 0.846987 0.258351
0.000000 0.058824 0.100000
0.011520 0.061642 0.099265
0.111520 0.070588 0.099510
0.271446 0.057598 0.090319
0.425521 0.071630 0.077696
0.539737 0.075153 0.053523
0.667157 0.090717 0.014583
0.812347 0.130668 0.007108
0.000000 0.084804 0.111397
0.009942 0.089522 0.115778
0.128431 0.106587 0.120159
0.278906 0.097794 0.103002
0.425295 0.104458 0.078638
0.541000 0.105040 0.060386
0.658414 0.132073 0.023177
0.809685 0.161117 0.021657
0.000000 0.132353 0.132108
0.000000 0.143229 0.131311
0.149326 0.165870 0.141605
0.288297 0.165441 0.132996
0.433257 0.164660 0.106265
0.545121 0.167839 0.074288
0.668903 0.182284 0.032851
0.806204 0.220021 0.006204
0.000000 0.209191 0.166544
0.000000 0.224571 0.170772
0.184038 0.266115 0.182292
0.368091 0.292203 0.150260
0.457721 0.248212 0.125747
0.563212 0.246542 0.108571
0.679370 0.258157 0.069769
0.810608 0.291651 0.003332
0.000000 0.359038 0.225490
0.000000 0.385934 0.238603
0.167302 0.429642 0.246278
0.329814 0.511049 0.210489
0.603500 0.465175 0.119157
0.643453 0.381776 0.105638
0.710403 0.370401 0.099741
0.814658 0.395466 0.039686
0.000000 0.525000 0.291697
0.000000 0.542850 0.303569
0.219210 0.575260 0.318934
0.392773 0.627777 0.316276
0.654841 0.661661 0.266512
0.758695 0.592405 0.143154
0.792254 0.509270 0.099260
0.850907 0.503152 0.099215
0.144455 0.673192 0.389216
0.222292 0.682709 0.390380
0.363251 0.702459 0.399663
0.501524 0.740131 0.414534
0.679665 0.787022 0.392261
0.828399 0.782005 0.349856
0.883223 0.709222 0.196842
0.928719 0.643332 0.125985
0.392402 0.814216 0.492463
0.436776 0.821392 0.502934
0.504236 0.835983 0.512354
0.599023 0.863163 0.522338
0.743641 0.902015 0.518382
0.874939 0.908760 0.508734
0.957801 0.893873 0.450042
0.994364 0.848662 0.302348
0.000000 0.079902 0.156373
0.000000 0.087439 0.155699
0.116054 0.105392 0.174387
0.290196 0.104779 0.171446
0.457797 0.051241 0.136918
0.561550 0.058487 0.108808
0.676149 0.088833 0.080346
0.805392 0.143244 0.045144
0.000000 0.099203 0.158333
0.000000 0.109268 0.166705
0.132751 0.130576 0.182154
0.299571 0.133464 0.180898
0.458014 0.096528 0.146527
0.569529 0.095822 0.120891
0.674994 0.127459 0.094311
0.803579 0.168158 0.029580
0.000000 0.146814 0.181740
0.000000 0.153156 0.184023
0.144424 0.170435 0.188143
0.310555 0.200061 0.207659
0.469313 0.171504 0.165119
0.566452 0.176628 0.136834
0.680132 0.185221 0.107774
0.812060 0.215510 0.060849
0.000000 0.206250 0.198713
0.000000 0.215694 0.203431
0.153523 0.232460 0.210187
0.323407 0.277681 0.230637
0.473325 0.270858 0.197449
0.574479 0.262657 0.166309
0.687086 0.265838 0.138542
0.811357 0.292886 0.090298
0.000000 0.319041 0.241682
0.000000 0.336776 0.253190
0.167884 0.366563 0.262063
0.353159 0.431246 0.290185
0.582299 0.478071 0.241249
0.629401 0.399243 0.205150
0.705543 0.392208 0.178988
0.817236 0.401715 0.145558
0.000000 0.472426 0.310478
0.000000 0.491077 0.314409
0.200096 0.522074 0.329347
0.392906 0.569792 0.347968
0.614963 0.651385 0.337709
0.746025 0.601772 0.260543
0.787686 0.518348 0.211713
0.844161 0.509772 0.178783
0.000000 0.635187 0.384176
0.125025 0.643765 0.389367
0.322235 0.665977 0.408195
0.482583 0.702955 0.427332
0.656367 0.771637 0.437400
0.810647 0.786223 0.411500
0.872472 0.721579 0.292356
0.916104 0.646461 0.221099
0.278891 0.788817 0.487837
0.346437 0.797696 0.499977
0.453148 0.808180 0.509007
0.574035 0.834400 0.529092
0.724497 0.883555 0.544684
0.855474 0.908166 0.538437
0.951302 0.899450 0.501459
0.988714 0.847794 0.362659
0.000000 0.121569 0.237132
0.000000 0.126838 0.244715
0.137653 0.141636 0.263358
0.300980 0.173453 0.300781
0.521078 0.163239 0.283215
0.638848 0.126329 0.236010
0.709892 0.064514 0.190269
0.823261 0.131836 0.161347
0.000000 0.139231 0.246615
0.000000 0.143003 0.247101
0.141460 0.157318 0.260233
0.311313 0.193530 0.297516
0.525865 0.195227 0.294577
0.644320 0.153459 0.249100
0.716987 0.114907 0.192801
0.824191 0.154265 0.162955
0.000000 0.172028 0.257475
0.008395 0.178267 0.256985
0.151134 0.188710 0.264285
0.308647 0.231851 0.298376
0.531224 0.263534 0.308884
0.635525 0.218158 0.258390
0.722365 0.193664 0.216986
0.823823 0.222077 0.174117
0.000000 0.224709 0.274724
0.008159 0.233257 0.276459
0.160164 0.250728 0.281821
0.301427 0.279841 0.295893
0.538355 0.351834 0.330292
0.630783 0.303216 0.275405
0.720239 0.290860 0.236269
0.831328 0.292264 0.195982
0.000000 0.313366 0.294719
0.000000 0.321201 0.298068
0.143470 0.339707 0.308578
0.294012 0.372476 0.320391
0.521025 0.446111 0.348072
0.632682 0.446638 0.320250
0.723214 0.419051 0.281979
0.827958 0.411864 0.230601
0.000000 0.417647 0.334463
0.000000 0.431309 0.342165
0.089935 0.450407 0.343299
0.287430 0.484589 0.362419
0.557710 0.570748 0.403126
0.724492 0.618334 0.389426
0.756161 0.545397 0.323737
0.840505 0.526346 0.286675
0.000000 0.571710 0.392383
0.000000 0.581621 0.401194
0.001221 0.597134 0.404407
0.334006 0.632027 0.425463
0.620913 0.700942 0.475339
0.769536 0.772775 0.479648
0.873863 0.733567 0.406859
0.898143 0.655973 0.332693
0.000000 0.737695 0.485195
0.000000 0.744285 0.489821
0.139079 0.762157 0.498957
0.449761 0.783076 0.520545
0.677569 0.837386 0.568742
0.808148 0.895848 0.595697
0.933465 0.910087 0.583582
0.993209 0.860315 0.448824
0.000000 0.155637 0.319118
0.000000 0.159390 0.319455
0.153615 0.171324 0.336765
0.304442 0.210815 0.372472
0.527309 0.265583 0.409398
0.698284 0.264216 0.385241
0.792674 0.263308 0.332747
0.841908 0.160662 0.266165
0.000000 0.161320 0.322641
0.000000 0.172534 0.323392
0.153385 0.186202 0.335524
0.310600 0.223392 0.367151
0.538611 0.288860 0.412382
0.699200 0.292049 0.386981
0.787570 0.290135 0.337809
0.841315 0.191797 0.271772
0.000000 0.199694 0.328523
0.018164 0.204190 0.328619
0.162117 0.211160 0.335179
0.305239 0.248920 0.359800
0.544229 0.347731 0.418116
0.696028 0.351766 0.406080
0.783286 0.335379 0.351864
0.845223 0.249810 0.276749
0.000000 0.246324 0.339476
0.020159 0.252039 0.343583
0.166854 0.266835 0.349973
0.292574 0.288113 0.354343
0.539128 0.397851 0.414702
0.691673 0.429786 0.413959
0.769003 0.388049 0.362906
0.848079 0.322532 0.292515
0.000000 0.328922 0.356288
0.000000 0.336261 0.357666
0.131184 0.346359 0.364744
0.278374 0.371798 0.371133
0.488027 0.428292 0.390291
0.683459 0.522033 0.429929
0.752474 0.463569 0.382420
0.846615 0.432142 0.318315
0.000000 0.418382 0.381277
0.000000 0.425454 0.387752
0.069803 0.437106 0.390755
0.262408 0.452997 0.397172
0.477809 0.508767 0.414021
0.668073 0.578826 0.445253
0.760415 0.569554 0.410681
0.846071 0.537374 0.353849
0.000000 0.531985 0.427451
0.000000 0.540515 0.425538
0.000000 0.551317 0.430988
0.185803 0.572361 0.434530
0.480914 0.618298 0.450635
0.707849 0.700014 0.505425
0.859070 0.746733 0.497786
0.876267 0.668582 0.415311
0.000000 0.690560 0.493616
0.000000 0.705408 0.500638
0.000000 0.712797 0.501329
0.057320 0.730703 0.514324
0.536070 0.776394 0.544991
0.761453 0.844608 0.608545
0.904189 0.906021 0.656394
0.981863 0.867042 0.531973
0.000000 0.204779 0.425245
0.048192 0.204994 0.425077
0.184712 0.217188 0.430576
0.330683 0.253676 0.446615
0.565545 0.354044 0.491912
0.716544 0.405710 0.514756
0.844853 0.415384 0.480630
0.905028 0.423445 0.437826
0.000000 0.210876 0.427497
0.057502 0.216556 0.426944
0.185428 0.229519 0.434030
0.331851 0.261985 0.448767
0.564263 0.368130 0.498652
0.714674 0.426017 0.507870
0.835643 0.437733 0.484229
0.908385 0.436454 0.435326
0.000000 0.243903 0.419975
0.046955 0.242620 0.421052
0.177459 0.253416 0.425283
0.317862 0.285133 0.439212
0.557743 0.394323 0.491491
0.718659 0.471993 0.518132
0.836258 0.477827 0.492768
0.899981 0.466943 0.442769
0.000000 0.283854 0.430224
0.010143 0.288163 0.429940
0.172461 0.294746 0.430362
0.304611 0.315502 0.434279
0.540535 0.417984 0.477950
0.725668 0.520729 0.525129
0.835144 0.524104 0.499653
0.897941 0.497113 0.453299
0.000000 0.355637 0.434314
0.000000 0.359465 0.435416
0.079777 0.366378 0.437870
0.258131 0.379147 0.444812
0.467348 0.424714 0.449660
0.682189 0.547181 0.506543
0.816518 0.591165 0.516230
0.876323 0.523483 0.444212
0.000000 0.434241 0.448384
0.000000 0.436222 0.453895
0.000000 0.445852 0.452121
0.209046 0.456334 0.458206
0.441000 0.495787 0.465991
0.629680 0.550027 0.479318
0.818502 0.654074 0.540000
0.876254 0.568225 0.452716
0.000000 0.528251 0.476896
0.000000 0.538632 0.478920
0.000000 0.540286 0.483211
0.156563 0.554429 0.479119
0.424016 0.589449 0.487806
0.612146 0.628764 0.506328
0.800563 0.704911 0.545844
0.883984 0.677824 0.494365
0.000000 0.667689 0.542318
0.000000 0.674560 0.546674
0.000000 0.678602 0.535179
0.000000 0.685836 0.541777
0.360246 0.714565 0.549979
0.602219 0.757752 0.573275
0.844844 0.849067 0.672151
0.968379 0.884455 0.653692
0.202941 0.315931 0.563725
0.232445 0.316253 0.566192
0.312102 0.329381 0.563603
0.430285 0.354795 0.569501
0.621837 0.450123 0.597132
0.769612 0.532970 0.633582
0.866992 0.553554 0.631288
0.959735 0.569765 0.594661
0.191605 0.325506 0.565732
0.225013 0.324475 0.563649
0.303577 0.329565 0.560375
0.425404 0.362584 0.566356
0.618605 0.453621 0.590119
0.772945 0.543885 0.633585
0.871207 0.569795 0.633078
0.965189 0.581021 0.602991
0.172335 0.347825 0.564154
0.215031 0.342341 0.559574
0.297021 0.351953 0.559383
0.412929 0.380155 0.562263
0.614650 0.468720 0.590374
0.762407 0.559098 0.625297
0.869283 0.596331 0.638173
0.963327 0.605463 0.614998
0.128002 0.382062 0.567279
0.184702 0.380205 0.567557
0.272105 0.390843 0.563117
0.385717 0.404509 0.560532
0.584045 0.474161 0.578390
0.752588 0.572063 0.617619
0.873315 0.630587 0.653562
0.962126 0.636671 0.630459
0.000000 0.427328 0.549437
0.000000 0.432402 0.562575
0.118078 0.436954 0.557027
0.295512 0.439599 0.558605
0.486075 0.471182 0.549181
0.675492 0.556466 0.580848
0.851314 0.662725 0.647502
0.946637 0.670192 0.626448
0.000000 0.498403 0.578439
0.000000 0.504739 0.576382
0.000000 0.504157 0.570337
0.202152 0.514065 0.569560
0.440726 0.533117 0.568620
0.612308 0.557004 0.566073
0.824285 0.679156 0.640745
0.939748 0.730044 0.661054
0.000000 0.590564 0.592161
0.000000 0.605673 0.596755
0.000000 0.600768 0.598733
0.045743 0.605284 0.592890
0.386726 0.618577 0.591189
0.570790 0.634535 0.594056
0.742700 0.671616 0.598614
0.938170 0.802102 0.708127
0.000000 0.718417 0.641456
0.000000 0.718731 0.649170
0.000000 0.720764 0.645182
0.012078 0.726190 0.647254
0.379887 0.736837 0.644992
0.555098 0.752880 0.648284
0.731009 0.775280 0.659318
0.926291 0.857438 0.743909
