FILES/DISPLAY_P3_32-3b8e76e9.cube
TITLE "DISPLAY P3 32"
LUT_3D_SIZE 8
DOMAIN_MIN 0.000000 0.000000 0.000000
DOMAIN_MAX 0.903226 0.903226 0.903226
0.007843 0.027451 0.031373
0.048577 0.042631 0.033855
0.167015 0.049083 0.041397
0.317995 0.049478 0.038030
0.467995 0.040291 0.030550
0.602878 0.037998 0.021174
0.736528 0.070304 0.015908
0.868786 0.140702 0.012397
0.000854 0.069734 0.046790
0.050150 0.079491 0.041744
0.149125 0.086374 0.037181
0.308636 0.091729 0.037085
0.453371 0.095102 0.035896
0.597078 0.095825 0.027036
0.722855 0.118589 0.012684
0.863622 0.173034 0.029771
0.000000 0.165148 0.085832
0.001030 0.202380 0.069705
0.243583 0.185980 0.036611
0.332273 0.159479 0.041214
0.450171 0.164722 0.027645
0.582414 0.176234 0.017476
0.718732 0.194964 0.009920
0.850878 0.240365 0.001904
0.000000 0.299858 0.149637
0.000000 0.338754 0.141692
0.221902 0.390044 0.058215
0.457062 0.325672 0.000690
0.514125 0.261794 0.015243
0.599436 0.263534 0.013454
0.713260 0.279329 0.000000
0.847666 0.320365 0.000992
0.000000 0.456926 0.208792
0.000000 0.485348 0.216655
0.061581 0.544797 0.165519
0.479921 0.570666 0.060377
0.647717 0.481993 0.000000
0.689727 0.391611 0.000000
0.748631 0.381919 0.000000
0.851269 0.412300 0.000000
0.000000 0.600791 0.290813
0.011869 0.618561 0.296198
0.236827 0.647642 0.295361
0.455393 0.689976 0.256074
0.693526 0.688652 0.187253
0.790360 0.607104 0.002858
0.829943 0.519843 0.000000
0.884319 0.513101 0.000000
0.228463 0.729285 0.382480
0.300335 0.730049 0.394646
0.411646 0.751851 0.397385
0.540683 0.789260 0.392822
0.715281 0.811870 0.366982
0.850711 0.798869 0.309537
0.907126 0.725645 0.090120
0.948238 0.659632 0.001634
0.462492 0.847517 0.516588
0.493597 0.855716 0.510859
0.566584 0.868716 0.521968
0.650175 0.891751 0.522745
0.766843 0.914721 0.516998
0.896595 0.920814 0.501477
0.966719 0.899531 0.432509
0.999972 0.855618 0.270711
0.012192 0.035721 0.052261
0.030448 0.045881 0.052363
0.134768 0.058665 0.047683
0.271033 0.070055 0.045985
0.411844 0.065391 0.041843
0.548897 0.056411 0.035870
0.682703 0.071871 0.019213
0.821987 0.113741 0.023428
0.000427 0.064091 0.070463
0.022763 0.079857 0.071500
0.129959 0.092046 0.069272
0.269961 0.095423 0.056532
0.406279 0.097831 0.039635
0.540555 0.097670 0.031444
0.677491 0.110144 0.022705
0.818317 0.150808 0.023296
0.000000 0.134662 0.104048
0.000961 0.156864 0.104505
0.198867 0.171256 0.083237
0.293940 0.153153 0.076158
0.413231 0.158791 0.061943
0.536721 0.165812 0.031552
0.674208 0.179714 0.007557
0.815540 0.216854 0.008969
0.000000 0.247236 0.150617
0.000067 0.274733 0.158138
0.157289 0.339905 0.111431
0.406100 0.301932 0.062240
0.471683 0.245493 0.065282
0.560505 0.244710 0.051938
0.677435 0.263113 0.013941
0.816784 0.297053 0.000388
0.000000 0.402525 0.212071
0.000000 0.435670 0.218362
0.073603 0.490774 0.199878
0.426887 0.534124 0.118713
0.609094 0.454873 0.007089
0.652790 0.370007 0.018708
0.718188 0.363611 0.016460
0.822921 0.389507 0.000090
0.000000 0.558266 0.282446
0.000308 0.576422 0.289494
0.201806 0.612272 0.290148
0.415680 0.661471 0.261550
0.658279 0.666232 0.198326
0.765203 0.586804 0.016305
0.806136 0.503776 0.000188
0.860999 0.493229 0.000703
0.148837 0.696533 0.377549
0.248136 0.705858 0.384646
0.374667 0.728505 0.391070
0.510791 0.765685 0.388743
0.683294 0.793869 0.363187
0.828376 0.782187 0.306379
0.890835 0.707553 0.117896
0.931536 0.640922 0.002676
0.425642 0.831555 0.497493
0.459042 0.837231 0.497741
0.540504 0.850003 0.504775
0.626065 0.877678 0.508989
0.746566 0.900691 0.506456
0.880700 0.908586 0.492906
0.957562 0.891179 0.423803
0.999282 0.844931 0.259054
0.000000 0.059836 0.102973
0.011594 0.065080 0.103898
0.122965 0.072911 0.104944
0.288742 0.059963 0.094567
0.414521 0.066360 0.078187
0.529634 0.074264 0.056060
0.657571 0.091637 0.017743
0.808069 0.130131 0.007861
0.000000 0.086187 0.113200
0.009742 0.090942 0.117801
0.136792 0.108029 0.123031
0.290806 0.099166 0.105334
0.411959 0.103328 0.086720
0.531452 0.106365 0.067558
0.651574 0.129694 0.027924
0.803560 0.160030 0.018600
0.000000 0.134064 0.133412
0.001808 0.146166 0.134061
0.157455 0.169608 0.142613
0.296207 0.168496 0.133587
0.416284 0.168186 0.112608
0.533977 0.172069 0.084663
0.659471 0.184113 0.047077
0.801371 0.218985 0.006771
0.000000 0.213632 0.167302
0.003149 0.230125 0.174150
0.185150 0.273995 0.187262
0.376408 0.301259 0.154815
0.451520 0.256598 0.133025
0.550294 0.253227 0.116108
0.669026 0.263226 0.078334
0.803112 0.294871 0.005459
0.000000 0.345562 0.221817
0.005075 0.367604 0.233842
0.186753 0.416969 0.244137
0.366726 0.500806 0.208147
0.583668 0.452271 0.136950
0.632024 0.372056 0.117525
0.702547 0.363706 0.106913
0.813595 0.385566 0.049240
0.000000 0.510369 0.290392
0.004111 0.530719 0.301422
0.228452 0.567243 0.314533
0.405648 0.624040 0.312483
0.629144 0.653644 0.268879
0.747649 0.584885 0.150513
0.786660 0.501984 0.103584
0.847973 0.495033 0.101902
0.115086 0.662916 0.382765
0.210770 0.674594 0.385663
0.366228 0.696495 0.396105
0.507723 0.735572 0.410419
0.656046 0.778261 0.391630
0.816546 0.776830 0.350825
0.878620 0.705109 0.204410
0.923744 0.636973 0.129227
0.377691 0.809271 0.487840
0.426381 0.815792 0.496999
0.504845 0.831806 0.508658
0.606522 0.859859 0.519053
0.722556 0.891889 0.516914
0.862732 0.906031 0.509754
0.952785 0.892781 0.454784
0.993914 0.845346 0.302041
0.000000 0.081752 0.162635
0.001148 0.089503 0.163633
0.127816 0.112050 0.182572
0.307040 0.108468 0.179291
0.451600 0.061971 0.150334
0.558939 0.053329 0.117736
0.671244 0.083195 0.090087
0.801522 0.139483 0.053692
0.000000 0.102639 0.165725
0.002348 0.112235 0.171158
0.145470 0.134785 0.188840
0.314837 0.137603 0.190855
0.451700 0.103920 0.159320
0.561862 0.098034 0.128644
0.670681 0.124128 0.102328
0.802081 0.164682 0.046045
0.000000 0.150098 0.185462
0.002817 0.158091 0.188698
0.155147 0.176201 0.195129
0.326866 0.206701 0.212902
0.458636 0.179697 0.175470
0.561568 0.179781 0.148785
0.674764 0.189799 0.120569
0.806582 0.218180 0.072238
0.000000 0.211618 0.205625
0.001026 0.221553 0.208537
0.160010 0.242113 0.217209
0.336525 0.288819 0.235314
0.463543 0.284089 0.213339
0.566741 0.273825 0.180696
0.681031 0.275704 0.148905
0.807365 0.298154 0.099806
0.000000 0.305772 0.239502
0.001541 0.320486 0.250133
0.175246 0.352630 0.260269
0.362068 0.419704 0.287281
0.556269 0.463751 0.255492
0.615816 0.390259 0.215003
0.698999 0.381622 0.184764
0.813967 0.390721 0.144948
0.000000 0.454964 0.305707
0.000261 0.473697 0.311255
0.205434 0.506137 0.324942
0.407551 0.561168 0.351800
0.586956 0.634432 0.344580
0.732135 0.591900 0.270238
0.775006 0.510405 0.216767
0.838379 0.502910 0.187402
0.000000 0.620911 0.380233
0.081026 0.631968 0.387910
0.314168 0.656037 0.404597
0.489860 0.693613 0.425587
0.632845 0.753386 0.436089
0.796597 0.776767 0.411618
0.867602 0.714086 0.303166
0.909520 0.639573 0.229206
0.244973 0.781553 0.486710
0.326930 0.790012 0.495955
0.446761 0.803260 0.505323
0.577280 0.831234 0.526392
0.703984 0.871844 0.544355
0.839892 0.904104 0.540702
0.945087 0.898293 0.506245
0.989330 0.845932 0.367268
0.000000 0.113979 0.227704
0.001164 0.122546 0.234536
0.143680 0.141998 0.255874
0.314664 0.168055 0.288026
0.498055 0.156174 0.269269
0.621376 0.111681 0.226482
0.702114 0.065155 0.180305
0.819139 0.131058 0.147395
0.000000 0.134062 0.235963
0.002454 0.139788 0.238251
0.150433 0.157448 0.255927
0.324768 0.192635 0.290005
0.502942 0.188574 0.282495
0.624282 0.143622 0.233414
0.705881 0.114252 0.184128
0.819054 0.156826 0.154551
0.000000 0.171497 0.246855
0.011189 0.178468 0.249251
0.159485 0.191815 0.257500
0.326023 0.237540 0.293065
0.507871 0.258732 0.295992
0.616691 0.214956 0.246796
0.709646 0.196311 0.204503
0.818171 0.223999 0.164806
0.000000 0.226520 0.262377
0.009138 0.236053 0.271093
0.169006 0.254215 0.276752
0.319955 0.286945 0.290545
0.513828 0.350294 0.321133
0.616378 0.307186 0.270088
0.712115 0.295648 0.226999
0.822795 0.301190 0.182513
0.000000 0.303071 0.288233
0.000681 0.312852 0.292519
0.157948 0.332175 0.300903
0.315543 0.368510 0.313528
0.505884 0.435512 0.339213
0.621988 0.429315 0.311582
0.714648 0.404635 0.267353
0.825424 0.398773 0.215740
0.000000 0.412331 0.326382
0.000000 0.425678 0.334375
0.123043 0.446974 0.339415
0.317924 0.486728 0.357068
0.541182 0.560675 0.391137
0.710210 0.606265 0.376956
0.753338 0.530920 0.312942
0.835130 0.514922 0.269757
0.000000 0.568188 0.385560
0.000000 0.580396 0.394938
0.066142 0.597334 0.399425
0.378170 0.634108 0.423480
0.599572 0.693388 0.461513
0.759364 0.764017 0.468289
0.862879 0.723679 0.393925
0.893975 0.649152 0.322193
0.000000 0.738345 0.480098
0.002103 0.747861 0.488148
0.221442 0.764469 0.499543
0.486521 0.789487 0.524202
0.663671 0.833518 0.560983
0.801454 0.892174 0.584843
0.930953 0.905783 0.574176
0.989372 0.855494 0.436188
0.000000 0.151897 0.311291
0.002513 0.156344 0.313893
0.159294 0.170974 0.329817
0.323130 0.211213 0.368338
0.506203 0.252106 0.397801
0.683536 0.253008 0.373139
0.780485 0.243668 0.321983
0.839019 0.155432 0.256794
0.000000 0.160279 0.314079
0.004998 0.170012 0.316525
0.160357 0.183753 0.329452
0.325345 0.225222 0.365301
0.513458 0.276758 0.400866
0.683315 0.280325 0.379863
0.776916 0.270047 0.327773
0.838200 0.185158 0.262121
0.000000 0.198349 0.318416
0.021400 0.203094 0.320958
0.167342 0.211681 0.328670
0.318827 0.253565 0.357328
0.517766 0.333462 0.405723
0.678015 0.347126 0.393056
0.769241 0.318610 0.337950
0.838480 0.248222 0.268748
0.000000 0.248566 0.330675
0.022300 0.255295 0.337399
0.170550 0.269565 0.343446
0.306583 0.295561 0.351336
0.509213 0.382263 0.398331
0.675679 0.426251 0.406798
0.758576 0.379071 0.350932
0.842585 0.324984 0.285890
0.000000 0.322648 0.351725
0.001605 0.325949 0.355245
0.151149 0.340986 0.359104
0.301610 0.366685 0.369531
0.475842 0.418010 0.386427
0.675303 0.510410 0.424325
0.750931 0.451328 0.370350
0.843468 0.419093 0.308901
0.000000 0.409097 0.374540
0.000000 0.418044 0.380446
0.095660 0.429853 0.382827
0.279802 0.452666 0.391709
0.460226 0.498800 0.406709
0.659892 0.573325 0.439685
0.755479 0.559828 0.404064
0.845440 0.528413 0.343574
0.000000 0.524807 0.418654
0.000000 0.534402 0.417281
0.000000 0.545906 0.424375
0.220709 0.571481 0.427859
0.465472 0.612293 0.447270
0.696659 0.692971 0.498793
0.850836 0.738390 0.487413
0.876345 0.660781 0.407768
0.000000 0.690517 0.488786
0.000000 0.701923 0.498269
0.000000 0.712048 0.499280
0.153932 0.734229 0.510031
0.521832 0.771396 0.541154
0.748900 0.840309 0.600801
0.899901 0.902859 0.646567
0.982329 0.864030 0.523189
0.000000 0.201265 0.418438
0.045665 0.202705 0.417820
0.188773 0.215853 0.423359
0.344212 0.255093 0.446309
0.538331 0.338588 0.484292
0.701237 0.396237 0.506929
0.835209 0.409117 0.475563
0.900139 0.410956 0.427203
0.000000 0.207725 0.417138
0.053197 0.212415 0.417185
0.189431 0.225961 0.425219
0.342239 0.263940 0.444810
0.535655 0.350703 0.487506
0.699930 0.416283 0.503345
0.829112 0.428229 0.477613
0.900372 0.421580 0.426723
0.000000 0.239327 0.411543
0.040223 0.240407 0.413835
0.181376 0.252159 0.417811
0.329645 0.286373 0.435283
0.529639 0.377342 0.478057
0.702452 0.462804 0.509961
0.825310 0.469938 0.486153
0.892549 0.451115 0.431564
0.000000 0.282911 0.421004
0.013123 0.288024 0.421717
0.172329 0.296307 0.424034
0.310977 0.318412 0.428563
0.504084 0.397318 0.461709
0.704477 0.511236 0.512698
0.821859 0.520648 0.494470
0.887366 0.483441 0.442299
0.000000 0.350076 0.433925
0.000000 0.354969 0.434313
0.118849 0.360727 0.436124
0.285081 0.378608 0.442817
0.458904 0.417397 0.450097
0.676915 0.537699 0.502965
0.813958 0.582642 0.513546
0.878974 0.516068 0.442133
0.000000 0.428467 0.446624
0.000000 0.432232 0.451376
0.011597 0.441794 0.449914
0.239050 0.453472 0.455005
0.425606 0.488961 0.461435
0.619129 0.545473 0.476409
0.812559 0.645823 0.533283
0.876208 0.564633 0.448795
0.000000 0.523508 0.471484
0.000000 0.532339 0.473147
0.000000 0.535456 0.477324
0.188866 0.552859 0.476742
0.408266 0.579533 0.482734
0.602604 0.621793 0.500028
0.796923 0.701389 0.544354
0.882696 0.673524 0.490965
0.000000 0.662839 0.534905
0.000000 0.670394 0.539118
0.000000 0.676734 0.533046
0.002013 0.686861 0.538159
0.333420 0.710357 0.544697
0.589401 0.753219 0.568355
0.836388 0.845533 0.662621
0.967876 0.881315 0.646774
0.195114 0.312160 0.559171
0.228242 0.313131 0.562033
0.312993 0.326320 0.559801
0.442501 0.357986 0.567703
0.599632 0.436819 0.589702
0.755634 0.525200 0.626726
0.862599 0.550865 0.627928
0.956609 0.566150 0.592031
0.175027 0.316748 0.556856
0.214246 0.317615 0.556085
0.300774 0.324973 0.553470
0.431004 0.360613 0.559966
0.593877 0.437260 0.581599
0.754335 0.531394 0.623345
0.863098 0.563558 0.628301
0.959601 0.575097 0.597296
0.142894 0.336567 0.553777
0.194336 0.334693 0.550492
0.288579 0.344245 0.550114
0.411918 0.376123 0.554528
0.581869 0.448593 0.577178
0.742937 0.544378 0.613847
0.859447 0.588902 0.631766
0.956722 0.597448 0.605386
0.077919 0.372444 0.555689
0.149291 0.373560 0.555342
0.254637 0.380418 0.552823
0.380529 0.397695 0.551178
0.544726 0.452675 0.563173
0.726681 0.553994 0.604610
0.858575 0.624069 0.641891
0.953438 0.628611 0.617263
0.001848 0.429977 0.559201
0.032652 0.433992 0.567578
0.172429 0.436535 0.561454
0.329728 0.444003 0.559603
0.485921 0.469306 0.553646
0.677700 0.554333 0.586129
0.852358 0.664077 0.653664
0.952484 0.675063 0.634083
0.000000 0.497245 0.576957
0.000000 0.502558 0.576277
0.018162 0.503941 0.571961
0.243829 0.512652 0.571270
0.430317 0.527157 0.567883
0.607618 0.555313 0.568437
0.823333 0.679228 0.643283
0.945626 0.730772 0.663352
0.000000 0.585573 0.590252
0.000000 0.598516 0.595408
0.000000 0.597154 0.594606
0.112139 0.602757 0.590828
0.372326 0.614539 0.589293
0.561217 0.629532 0.591257
0.740834 0.671025 0.601370
0.940618 0.800664 0.707942
0.000000 0.712606 0.636260
0.000000 0.714365 0.642932
0.000000 0.716781 0.640824
0.051133 0.723855 0.643164
0.355829 0.731166 0.640476
0.542587 0.749025 0.645608
0.724488 0.773648 0.656962
0.925718 0.858043 0.743792
