FILES/DISPLAY_P3_32-39f386c4.cube
TITLE "DISPLAY P3 32"
LUT_3D_SIZE 5
DOMAIN_MIN 0.000000 0.000000 0.000000
DOMAIN_MAX 0.903226 0.903226 0.903226
0.007843 0.027451 0.031373
0.129902 0.043995 0.040074
0.373529 0.042647 0.039216
0.654657 0.049510 0.030147
0.872059 0.143015 0.010049
0.000000 0.110294 0.058824
0.134984 0.129714 0.031365
0.326095 0.127321 0.043237
0.605492 0.147135 0.023797
0.846936 0.205928 0.030557
0.000000 0.308578 0.155147
0.000000 0.396684 0.111144
0.486014 0.346829 0.000000
0.612500 0.277206 0.010876
0.813680 0.327367 0.000000
0.000000 0.608824 0.300490
0.138327 0.642034 0.293015
0.516759 0.706173 0.256081
0.806510 0.620205 0.000000
0.879312 0.530507 0.000000
0.466667 0.850980 0.520466
0.540885 0.867034 0.517727
0.688159 0.904328 0.519776
0.924763 0.920458 0.485271
1.000000 0.855339 0.270221
0.000858 0.050980 0.087132
0.083701 0.062075 0.090008
0.330767 0.065816 0.072794
0.570565 0.078163 0.028922
0.810378 0.120512 0.023778
0.000000 0.104462 0.103684
0.093856 0.126985 0.118807
0.319862 0.136886 0.095843
0.561017 0.147859 0.051102
0.798710 0.189996 0.000670
0.000000 0.255392 0.173529
0.122471 0.313660 0.192171
0.451435 0.347802 0.113096
0.588746 0.279631 0.093565
0.798578 0.317592 0.003124
0.000000 0.568091 0.305002
0.184264 0.601745 0.320027
0.498598 0.681582 0.306084
0.788158 0.614667 0.120229
0.864244 0.523669 0.060592
0.407717 0.820056 0.496772
0.493948 0.833683 0.507341
0.654590 0.881874 0.515291
0.908116 0.908640 0.498116
0.999295 0.847568 0.286558
0.000000 0.088480 0.186520
0.088863 0.115449 0.206993
0.378906 0.125015 0.211504
0.610983 0.049663 0.146569
0.809758 0.135340 0.088143
0.000000 0.136780 0.192647
0.104199 0.156200 0.205277
0.381812 0.195771 0.232246
0.608872 0.151292 0.156480
0.802612 0.195602 0.091622
0.000000 0.238480 0.230959
0.104663 0.261670 0.240564
0.397798 0.337699 0.270369
0.616509 0.318500 0.209251
0.810869 0.326464 0.137275
0.000000 0.483532 0.329320
0.088438 0.518112 0.346931
0.476685 0.603635 0.385263
0.772414 0.629735 0.320160
0.846618 0.542676 0.234738
0.098621 0.775368 0.489583
0.356595 0.785662 0.496592
0.616325 0.837889 0.545432
0.873983 0.908121 0.558740
0.994516 0.854408 0.388242
0.000000 0.162010 0.344853
0.115487 0.176838 0.350000
0.399648 0.244363 0.410386
0.737148 0.296706 0.408992
0.853799 0.217402 0.306618
0.000000 0.188013 0.332230
0.120163 0.202223 0.342909
0.385956 0.275092 0.394927
0.726418 0.358570 0.418138
0.834283 0.247007 0.308600
0.000000 0.272840 0.356464
0.118072 0.290442 0.366123
0.356249 0.333487 0.381301
0.719427 0.479136 0.438217
0.844619 0.362691 0.324981
0.000000 0.437745 0.395450
0.000000 0.450919 0.403077
0.321322 0.487498 0.416558
0.705086 0.603312 0.468226
0.848986 0.566357 0.386512
0.000000 0.682598 0.504887
0.000000 0.697229 0.512042
0.224542 0.729378 0.527742
0.778988 0.841442 0.619881
0.984831 0.872264 0.563556
0.202941 0.315931 0.563725
0.289212 0.319485 0.561845
0.504619 0.384436 0.578309
0.800980 0.551095 0.640181
0.959735 0.569765 0.594661
0.102168 0.297875 0.526183
0.232305 0.314205 0.538079
0.456582 0.372811 0.549912
0.772200 0.545947 0.615994
0.947136 0.584800 0.598211
0.000000 0.368666 0.538534
0.159115 0.372349 0.541035
0.396485 0.399728 0.538751
0.751055 0.570600 0.603159
0.937553 0.632914 0.604981
0.000000 0.504036 0.564239
0.000000 0.513580 0.563959
0.265052 0.527062 0.566405
0.628158 0.569577 0.560797
0.939746 0.739850 0.665705
0.000000 0.718417 0.641456
0.000000 0.720086 0.645335
0.211302 0.731048 0.645864
0.594152 0.753423 0.646995
0.926291 0.857438 0.743909
