FILES/DISPLAY_P3-1e9781a9.cube
#Generated with IWLTBAP LUT Generator 2.1
#Website: https://luts.iwltbap.com
TITLE "DISPLAY P3"
LUT_3D_SIZE 5
0.007843 0.027451 0.031373
0.159804 0.046078 0.041176
0.449020 0.039216 0.031373
0.711765 0.052941 0.022549
0.968627 0.239216 0.082353
0.000000 0.165686 0.085294
0.243627 0.185539 0.039706
0.443627 0.167647 0.028922
0.709069 0.190196 0.009314
0.965686 0.310784 0.042157
0.000000 0.458824 0.211765
0.062255 0.549510 0.163235
0.655882 0.485294 0.000000
0.748039 0.383333 0.000000
0.952941 0.468627 0.039216
0.191176 0.707843 0.371569
0.400735 0.741912 0.392647
0.713235 0.808333 0.364706
0.903676 0.725490 0.119363
0.999020 0.678431 0.126471
0.568627 0.937255 0.615686
0.668627 0.948039 0.645098
0.837255 0.974510 0.676471
0.976471 0.983333 0.700980
1.000000 0.968627 0.474510
0.000000 0.058824 0.100000
0.111520 0.070588 0.099510
0.400000 0.066176 0.073529
0.626716 0.088480 0.023775
0.921569 0.188235 0.031373
0.000000 0.132353 0.132108
0.149326 0.165870 0.141605
0.402206 0.162623 0.109191
0.638419 0.176103 0.050797
0.918382 0.266667 0.036029
0.000000 0.337745 0.217157
0.177696 0.402941 0.238235
0.571814 0.439706 0.133333
0.683824 0.352574 0.109191
0.909314 0.419608 0.004902
0.046324 0.636275 0.360294
0.337929 0.676716 0.380086
0.631250 0.755882 0.374632
0.860049 0.687377 0.187132
0.958333 0.621569 0.138235
0.474510 0.909804 0.592157
0.592402 0.924020 0.612745
0.789216 0.950980 0.638725
0.959804 0.973529 0.657843
1.000000 0.945098 0.428431
0.000000 0.105882 0.217647
0.129902 0.137745 0.243137
0.471569 0.150000 0.255882
0.682353 0.052451 0.176471
0.921569 0.196078 0.105882
0.000000 0.166667 0.238235
0.149877 0.186029 0.248407
0.487745 0.244608 0.282598
0.686397 0.183333 0.193873
0.921569 0.262255 0.122059
0.000000 0.295098 0.283333
0.150245 0.319853 0.291912
0.487745 0.414706 0.326961
0.691422 0.390931 0.257353
0.921569 0.418627 0.174510
0.000000 0.540686 0.369118
0.061520 0.573162 0.386152
0.574510 0.668137 0.439706
0.835539 0.700858 0.379412
0.944608 0.626961 0.290686
0.000000 0.870588 0.576471
0.350980 0.884804 0.597549
0.702941 0.928431 0.664706
0.929902 0.971569 0.726961
1.000000 0.945098 0.513725
0.000000 0.189216 0.395098
0.165441 0.203922 0.401225
0.504412 0.316176 0.467647
0.805392 0.381373 0.459559
0.944118 0.296078 0.348039
0.000000 0.228431 0.397059
0.174571 0.244547 0.405637
0.507475 0.355637 0.464338
0.802635 0.443627 0.468199
0.941667 0.339706 0.349755
0.000000 0.339216 0.419118
0.123897 0.351348 0.422426
0.444608 0.401716 0.433578
0.796936 0.563235 0.499510
0.957843 0.455882 0.378431
0.000000 0.499020 0.456127
0.000000 0.514767 0.456373
0.406127 0.559804 0.466054
0.772794 0.674020 0.526654
0.975735 0.659069 0.429657
0.000000 0.809804 0.616667
0.000000 0.827451 0.626961
0.088235 0.869608 0.655882
0.869608 0.952696 0.790686
1.000000 0.969608 0.730392
0.462745 0.509804 0.760784
0.510784 0.511765 0.739216
0.676471 0.547059 0.727451
0.896078 0.664706 0.770588
1.000000 0.705882 0.745098
0.423529 0.529412 0.744118
0.485294 0.521324 0.732843
0.672549 0.556373 0.730392
0.894363 0.682598 0.789706
1.000000 0.737255 0.766667
0.349020 0.588235 0.762745
0.392157 0.586765 0.753922
0.595098 0.595098 0.742157
0.874510 0.711765 0.791667
1.000000 0.807843 0.815686
0.269608 0.710784 0.793137
0.280882 0.713480 0.801961
0.416176 0.724020 0.807843
0.777941 0.742402 0.815931
0.999020 0.897059 0.902941
0.000000 0.913725 0.854902
0.000000 0.924510 0.853922
0.000000 0.939216 0.862745
0.701961 0.969608 0.914706
0.984314 0.988235 0.968627
