FILES/DISPLAY_P3_32-39f386c4.cube
TITLE "DISPLAY P3 32"
LUT_3D_SIZE 32
0.007843 0.027451 0.031373
0.019240 0.031250 0.027328
0.019608 0.031373 0.027451
0.034926 0.034926 0.034926
0.045588 0.042157 0.034314
0.068750 0.045833 0.030760
0.092647 0.043137 0.041667
0.129902 0.043995 0.040074
0.159804 0.046078 0.041176
0.187745 0.057721 0.042034
0.226471 0.052206 0.039216
0.267770 0.039216 0.035294
0.303431 0.048529 0.036275
0.341054 0.050980 0.040809
0.373529 0.042647 0.039216
0.416422 0.035049 0.033211
0.485784 0.041299 0.029779
0.516667 0.035784 0.033578
0.554657 0.034559 0.039216
0.588725 0.035784 0.024020
0.610662 0.039216 0.019608
0.654657 0.049510 0.030147
0.680025 0.047672 0.030882
0.711765 0.052941 0.022549
0.743750 0.075368 0.013971
0.774020 0.079167 0.004657
0.809681 0.095956 0.012377
0.838235 0.119118 0.034314
0.872059 0.143015 0.010049
0.906618 0.169608 0.023529
0.933946 0.196814 0.024755
0.968627 0.239216 0.082353
0.008211 0.027328 0.023775
0.011891 0.031246 0.027336
0.026248 0.034926 0.031005
0.031250 0.039093 0.035172
0.038235 0.039216 0.038480
0.049161 0.045852 0.038886
0.069217 0.050245 0.034559
0.090958 0.059287 0.041965
0.115380 0.058670 0.033517
0.145221 0.058770 0.039250
0.177290 0.057644 0.041828
0.215973 0.057717 0.043133
0.247181 0.062515 0.036841
0.287427 0.060317 0.031641
0.325245 0.058578 0.037132
0.359861 0.051095 0.039020
0.431193 0.046879 0.048464
0.458647 0.049127 0.035608
0.498675 0.043876 0.025490
0.530836 0.050582 0.037469
0.559030 0.041747 0.025245
0.597426 0.052152 0.026348
0.625789 0.047706 0.026279
0.654565 0.048958 0.029994
0.690319 0.046243 0.021580
0.725789 0.065227 0.009559
0.760417 0.075896 0.008333
0.795175 0.096278 0.021538
0.825735 0.114974 0.006315
0.863971 0.134681 0.023667
0.898893 0.158081 0.038117
0.933701 0.192770 0.046814
0.011765 0.031373 0.027941
0.019240 0.038848 0.034926
0.018888 0.039185 0.035034
0.016942 0.042547 0.028631
0.031587 0.042892 0.031127
0.048606 0.053715 0.032024
0.067647 0.050980 0.034559
0.084697 0.062117 0.042034
0.103370 0.058701 0.038174
0.132544 0.065388 0.039461
0.162760 0.068873 0.039384
0.199923 0.067762 0.035463
0.241176 0.070282 0.043015
0.277750 0.062745 0.039017
0.314920 0.062500 0.038802
0.348032 0.062125 0.025973
0.417639 0.062370 0.039560
0.457843 0.055116 0.043673
0.484651 0.058678 0.029971
0.523621 0.048897 0.035110
0.554573 0.052367 0.035332
0.586106 0.061596 0.033241
0.614897 0.066222 0.031457
0.645588 0.063174 0.021875
0.684766 0.058808 0.023422
0.719746 0.074954 0.022503
0.758494 0.096392 0.023966
0.791176 0.095159 0.023407
0.824632 0.115127 0.023506
0.856342 0.144868 0.022595
0.890456 0.165288 0.020450
0.929657 0.195833 0.025000
0.000000 0.050613 0.031373
0.007108 0.050502 0.030748
0.008555 0.057253 0.035371
0.026681 0.050613 0.025264
0.030653 0.057154 0.040181
0.044240 0.058146 0.034176
0.058387 0.061711 0.035294
0.082763 0.069076 0.045259
0.111857 0.069853 0.032108
0.140790 0.070692 0.037320
0.170374 0.076471 0.047909
0.213737 0.078676 0.039809
0.250506 0.077834 0.034467
0.291081 0.072848 0.040617
0.327367 0.075728 0.047342
0.367869 0.072281 0.041621
0.440564 0.078091 0.045393
0.470106 0.070588 0.041376
0.506943 0.077248 0.039216
0.546278 0.069485 0.034865
0.575360 0.077076 0.028918
0.613465 0.082958 0.033732
0.650000 0.077857 0.029063
0.682016 0.081434 0.020864
0.718666 0.090648 0.015070
0.756334 0.099234 0.007475
0.794780 0.115866 0.015694
0.826808 0.132521 0.016651
0.854465 0.156059 0.015200
0.889338 0.174510 0.023231
0.920221 0.202060 0.025107
0.962500 0.243750 0.061642
0.000980 0.069608 0.046569
0.000015 0.076455 0.038006
0.000460 0.081036 0.035692
0.021860 0.083333 0.037868
0.051225 0.077328 0.043382
0.070787 0.079442 0.032108
0.085233 0.077359 0.037347
0.108885 0.085555 0.033854
0.143750 0.086397 0.036642
0.175061 0.085784 0.039216
0.217126 0.090839 0.035631
0.263312 0.090196 0.043888
0.300919 0.090809 0.038971
0.337117 0.092846 0.034589
0.367555 0.089767 0.041422
0.403676 0.093137 0.037393
0.481373 0.091789 0.040181
0.516667 0.090993 0.039001
0.551517 0.088159 0.023820
0.583027 0.092525 0.027328
0.616544 0.097381 0.025873
0.646385 0.104228 0.012990
0.679228 0.106847 0.015089
0.708578 0.116667 0.017402
0.734559 0.121676 0.009069
0.774449 0.127635 0.008303
0.816284 0.141085 0.012377
0.844547 0.157843 0.005637
0.872059 0.177528 0.034498
0.900460 0.203523 0.029749
0.934406 0.222365 0.032016
0.972549 0.255882 0.055392
0.000000 0.070588 0.048284
0.000000 0.082230 0.050858
0.000000 0.085011 0.043099
0.003562 0.089583 0.039273
0.022197 0.092479 0.040702
0.050559 0.090728 0.039216
0.083693 0.084934 0.037875
0.101471 0.085417 0.037856
0.125398 0.087929 0.038909
0.146592 0.085440 0.028945
0.178975 0.093084 0.030951
0.216054 0.094030 0.034471
0.253661 0.090196 0.037209
0.285903 0.096446 0.033571
0.317425 0.101011 0.036405
0.349016 0.098652 0.040154
0.418627 0.101061 0.034720
0.459957 0.102252 0.039070
0.491418 0.101356 0.038346
0.523346 0.097426 0.031036
0.558402 0.096691 0.031602
0.592930 0.101141 0.028271
0.627478 0.105538 0.028286
0.657721 0.098652 0.013909
0.690954 0.107353 0.027439
0.726463 0.118030 0.032345
0.762186 0.132912 0.008169
0.792724 0.142203 0.009743
0.828064 0.156985 0.017467
0.858410 0.172135 0.020251
0.893873 0.196484 0.021994
0.933088 0.228064 0.042892
0.000000 0.085539 0.053186
0.000000 0.096347 0.052650
0.000000 0.099556 0.042019
0.000000 0.107897 0.042471
0.003860 0.110968 0.037714
0.040165 0.110164 0.037354
0.082874 0.103676 0.038940
0.107675 0.100613 0.034559
0.134743 0.097733 0.035478
0.154695 0.097511 0.028631
0.179672 0.104688 0.038725
0.207116 0.105760 0.033969
0.244363 0.108517 0.042525
0.272932 0.108471 0.033004
0.306464 0.112990 0.039537
0.340709 0.108678 0.041988
0.410271 0.115074 0.033364
0.447794 0.115119 0.038802
0.478991 0.117333 0.032506
0.514216 0.115564 0.025980
0.544631 0.117042 0.031495
0.579412 0.121523 0.026991
0.612990 0.126103 0.023200
0.646507 0.124510 0.014093
0.678600 0.133096 0.023820
0.715931 0.135922 0.008441
0.759911 0.146929 0.011834
0.789216 0.152083 0.010386
0.820642 0.172112 0.003922
0.853094 0.185677 0.026026
0.890786 0.208188 0.027773
0.923775 0.231373 0.060539
0.000000 0.110294 0.058824
0.000000 0.114120 0.061818
0.000000 0.121676 0.057407
0.000000 0.126390 0.054331
0.000000 0.133441 0.044240
0.031185 0.137745 0.047718
0.098767 0.138680 0.050820
0.134984 0.129714 0.031365
0.162745 0.126103 0.045864
0.187381 0.119236 0.037255
0.212891 0.118137 0.030415
0.237109 0.123874 0.036910
0.259589 0.125077 0.044884
0.293976 0.127696 0.041835
0.326095 0.127321 0.043237
0.361309 0.129534 0.033019
0.435505 0.132652 0.036152
0.466766 0.137737 0.029856
0.501367 0.137906 0.028405
0.533640 0.139338 0.024280
0.571373 0.141471 0.024556
0.605492 0.147135 0.023797
0.640204 0.149269 0.018501
0.672855 0.150797 0.019792
0.703301 0.160704 0.011194
0.739867 0.172794 0.007146
0.779756 0.188492 0.003064
0.812025 0.193459 0.016422
0.846936 0.205928 0.030557
0.879044 0.225352 0.019332
0.917796 0.253309 0.017770
0.955637 0.288113 0.045221
0.000000 0.165686 0.085294
0.000000 0.171477 0.089185
0.000000 0.176409 0.088542
0.000000 0.185815 0.080331
0.000000 0.202328 0.072549
0.010754 0.206403 0.059283
0.141360 0.206005 0.047304
0.204350 0.196170 0.035141
0.243627 0.185539 0.039706
0.270956 0.170680 0.026317
0.287255 0.156863 0.028431
0.301869 0.155545 0.042433
0.328186 0.161887 0.046446
0.353799 0.154902 0.036673
0.382721 0.157353 0.042218
0.412316 0.158548 0.037132
0.476685 0.163450 0.025337
0.512745 0.170159 0.026532
0.541238 0.172335 0.022886
0.574142 0.174387 0.017279
0.607077 0.178768 0.014951
0.642525 0.180270 0.009436
0.676808 0.184007 0.013634
0.709069 0.190196 0.009314
0.740135 0.198254 0.010478
0.772120 0.203431 0.002574
0.805545 0.219393 0.017249
0.835172 0.232843 0.005392
0.865380 0.245833 0.001532
0.897488 0.266238 0.024510
0.931127 0.285723 0.018811
0.965686 0.310784 0.042157
0.000000 0.163603 0.087377
0.000000 0.172392 0.086255
0.000000 0.180323 0.087485
0.000000 0.185313 0.090093
0.000000 0.200031 0.067525
0.000000 0.207671 0.059187
0.072258 0.212952 0.062875
0.157100 0.206870 0.037496
0.214890 0.201869 0.042065
0.247017 0.187925 0.024943
0.274977 0.176026 0.026294
0.288603 0.169753 0.035072
0.307567 0.160738 0.040150
0.328106 0.159681 0.032142
0.348146 0.160302 0.035034
0.376566 0.160049 0.042157
0.433387 0.164189 0.023380
0.467410 0.165801 0.024625
0.493179 0.170956 0.027654
0.524157 0.173238 0.027987
0.556629 0.173518 0.019263
0.586543 0.180392 0.019753
0.620106 0.182288 0.009869
0.651440 0.186703 0.009069
0.684930 0.191912 0.009072
0.719317 0.196607 0.009934
0.756840 0.209731 0.004653
0.790732 0.217142 0.000000
0.820466 0.229450 0.002102
0.851524 0.246270 0.001195
0.888235 0.260294 0.018413
0.927696 0.286275 0.037377
0.000000 0.179412 0.100980
0.000000 0.184521 0.095627
0.000000 0.194930 0.099510
0.000000 0.202688 0.101953
0.000000 0.211366 0.094516
0.000000 0.221706 0.085049
0.009957 0.235539 0.069822
0.131365 0.235761 0.049410
0.205821 0.230453 0.040319
0.246691 0.224410 0.030660
0.280990 0.205852 0.029167
0.309965 0.191039 0.025345
0.326195 0.180423 0.031250
0.342264 0.178316 0.033977
0.356710 0.177941 0.035524
0.380553 0.174594 0.040771
0.429657 0.182070 0.030515
0.461918 0.183333 0.029994
0.486397 0.183456 0.025008
0.515227 0.187163 0.014982
0.545343 0.190005 0.020328
0.579764 0.190931 0.007981
0.611374 0.192793 0.005270
0.648468 0.200551 0.007353
0.673284 0.210195 0.003684
0.712975 0.213741 0.002191
0.750858 0.223775 0.010976
0.781281 0.231955 0.005362
0.815679 0.246814 0.002221
0.851961 0.256710 0.002972
0.885578 0.272350 0.010700
0.916422 0.295588 0.008088
0.000000 0.210294 0.109681
0.000000 0.223081 0.119975
0.000000 0.232146 0.118919
0.000000 0.238603 0.115805
0.000000 0.251149 0.108992
0.000000 0.263446 0.101103
0.000000 0.278194 0.078684
0.101792 0.284092 0.057843
0.211428 0.286213 0.049969
0.269118 0.281396 0.030258
0.316582 0.271745 0.026769
0.348529 0.250272 0.021461
0.376884 0.230729 0.017494
0.390311 0.217762 0.011144
0.403071 0.212109 0.020810
0.417873 0.208230 0.033023
0.464809 0.208230 0.025839
0.490418 0.212377 0.025046
0.515081 0.216242 0.015188
0.545466 0.216835 0.015441
0.570657 0.219907 0.010497
0.602045 0.223284 0.000927
0.633345 0.228933 0.000000
0.665809 0.235049 0.000674
0.700073 0.243160 0.007276
0.739468 0.249150 0.000000
0.778255 0.257020 0.000000
0.809023 0.268581 0.000000
0.841422 0.281495 0.004423
0.875245 0.295672 0.005392
0.906085 0.314089 0.018256
0.944853 0.343505 0.035294
0.000000 0.300000 0.149020
0.000000 0.309145 0.154289
0.000000 0.316085 0.154320
0.000000 0.322901 0.148208
0.000000 0.338848 0.141422
0.000000 0.356112 0.125720
0.000000 0.374203 0.112163
0.094470 0.383226 0.090778
0.230760 0.394485 0.059191
0.327665 0.391912 0.045665
0.392739 0.378952 0.020895
0.433119 0.355162 0.000000
0.465993 0.327022 0.001838
0.481618 0.301731 0.000000
0.493781 0.283119 0.003309
0.503156 0.268673 0.005714
0.530453 0.258012 0.015349
0.557047 0.257200 0.014216
0.576271 0.258333 0.016820
0.598529 0.261826 0.012623
0.624020 0.265839 0.003294
0.653002 0.267892 0.001532
0.680178 0.274648 0.000000
0.707108 0.278922 0.000000
0.738603 0.286765 0.000000
0.776562 0.293352 0.000000
0.806602 0.305362 0.000000
0.835723 0.314216 0.000000
0.866881 0.327344 0.001792
0.898100 0.343352 0.018413
0.932307 0.362623 0.042295
0.958333 0.381863 0.066667
0.000000 0.299632 0.150613
0.000000 0.303431 0.152868
0.000000 0.313580 0.149755
0.000000 0.323721 0.154017
0.000000 0.333303 0.146032
0.000000 0.347059 0.140571
0.000000 0.362937 0.121186
0.008712 0.376697 0.097652
0.140839 0.381403 0.063695
0.247181 0.391709 0.057885
0.343995 0.383571 0.038442
0.397469 0.367639 0.013113
0.423897 0.348652 0.000000
0.448303 0.323809 0.000000
0.472059 0.299303 0.000000
0.485237 0.277282 0.000000
0.507621 0.259658 0.016567
0.526593 0.256625 0.013197
0.540564 0.256794 0.014392
0.562393 0.261152 0.021017
0.581675 0.262680 0.026103
0.612385 0.263343 0.007583
0.636435 0.263193 0.000000
0.661275 0.264890 0.000000
0.691138 0.271955 0.000000
0.722641 0.281495 0.000000
0.762385 0.288852 0.000000
0.796461 0.300368 0.000000
0.824755 0.312500 0.000000
0.854412 0.323598 0.000000
0.885294 0.338385 0.000050
0.920098 0.358456 0.006985
0.000000 0.308578 0.155147
0.000000 0.322304 0.158540
0.000000 0.331648 0.159528
0.000000 0.339583 0.164828
0.000000 0.349449 0.157935
0.000000 0.362255 0.147158
0.000000 0.375490 0.127129
0.000000 0.396684 0.111144
0.055331 0.406924 0.086520
0.186872 0.417295 0.075827
0.303631 0.416468 0.056909
0.379925 0.409635 0.022541
0.427451 0.397181 0.001287
0.461926 0.375728 0.000000
0.486014 0.346829 0.000000
0.506074 0.322342 0.000000
0.527888 0.289936 0.000000
0.537056 0.283333 0.007414
0.547549 0.279121 0.011275
0.566391 0.276562 0.014828
0.587768 0.272917 0.015931
0.612500 0.277206 0.010876
0.632973 0.280507 0.005997
0.661397 0.282108 0.008272
0.683961 0.289560 0.000000
0.718551 0.294439 0.000000
0.751961 0.305882 0.000000
0.777420 0.313756 0.000000
0.813680 0.327367 0.000000
0.842371 0.340441 0.000000
0.875054 0.352083 0.000107
0.911029 0.373039 0.012010
0.000000 0.353922 0.173284
0.000000 0.365564 0.176593
0.000000 0.373284 0.178569
0.000000 0.383065 0.173185
0.000000 0.394271 0.168076
0.000000 0.405840 0.163687
0.000000 0.422649 0.154266
0.000000 0.440319 0.134226
0.023346 0.456924 0.116820
0.158387 0.468804 0.093126
0.273208 0.477650 0.064660
0.376225 0.477734 0.021278
0.451210 0.470021 0.008548
0.491510 0.454546 0.000000
0.526838 0.429887 0.000000
0.553535 0.400965 0.000000
0.587247 0.343754 0.000000
0.594187 0.332475 0.000000
0.599108 0.326214 0.000000
0.611443 0.317846 0.000689
0.626000 0.315912 0.001367
0.651754 0.316506 0.002528
0.668585 0.320983 0.003389
0.691391 0.321507 0.000000
0.715686 0.326681 0.000000
0.746936 0.334704 0.000000
0.776842 0.344489 0.000000
0.806112 0.352558 0.000000
0.837083 0.362500 0.000000
0.863725 0.376103 0.000000
0.891536 0.391667 0.000563
0.928064 0.410662 0.023529
0.000000 0.455147 0.206005
0.000000 0.466732 0.210156
0.000000 0.468520 0.209911
0.000000 0.478481 0.212060
0.000000 0.480270 0.217770
0.000000 0.493424 0.210252
0.000000 0.506150 0.200582
0.000000 0.518417 0.189162
0.000000 0.534099 0.175705
0.107039 0.547059 0.161589
0.223001 0.559153 0.132560
0.328826 0.565357 0.111926
0.417693 0.572641 0.081066
0.493114 0.568091 0.062557
0.558127 0.555553 0.019393
0.599502 0.536765 0.000000
0.644244 0.478186 0.000000
0.661589 0.450559 0.000000
0.673430 0.419497 0.000000
0.679488 0.400812 0.000000
0.684417 0.389055 0.000000
0.696201 0.380147 0.000000
0.703650 0.380909 0.000000
0.713848 0.378248 0.000000
0.739216 0.377083 0.000000
0.761742 0.381840 0.000000
0.785865 0.388354 0.000000
0.811657 0.394516 0.000000
0.834386 0.406350 0.000000
0.857866 0.417525 0.000000
0.888791 0.426038 0.000000
0.913725 0.445221 0.001838
0.000000 0.461765 0.211765
0.000000 0.471201 0.211466
0.000000 0.478814 0.214920
0.000000 0.488848 0.222181
0.000000 0.489216 0.216544
0.000000 0.505124 0.216376
0.000000 0.515518 0.212025
0.000000 0.528439 0.204174
0.000000 0.538725 0.193382
0.052145 0.553546 0.181127
0.180744 0.568627 0.155637
0.288258 0.577474 0.137255
0.369792 0.581679 0.108119
0.449257 0.588189 0.097013
0.529121 0.584773 0.067448
0.584957 0.571324 0.014422
0.645849 0.525628 0.000000
0.670083 0.497748 0.000000
0.685049 0.469899 0.000000
0.696538 0.442249 0.000000
0.699900 0.425758 0.000000
0.703876 0.410938 0.000000
0.713366 0.402589 0.000000
0.726042 0.399020 0.000000
0.747664 0.399027 0.000000
0.767080 0.401547 0.000000
0.787600 0.410516 0.000000
0.809528 0.410846 0.000000
0.833984 0.413519 0.000000
0.857322 0.425245 0.000000
0.882230 0.435225 0.000000
0.911029 0.456127 0.000000
0.000000 0.506863 0.229902
0.000000 0.518455 0.235539
0.000000 0.527474 0.243850
0.000000 0.528064 0.242264
0.000000 0.532430 0.236749
0.000000 0.541410 0.237737
0.000000 0.550858 0.239614
0.000000 0.560558 0.237519
0.029871 0.574295 0.222886
0.131729 0.588113 0.210666
0.216153 0.606878 0.194945
0.299192 0.618693 0.179216
0.380683 0.625092 0.160830
0.452838 0.628083 0.140847
0.533004 0.632552 0.128347
0.598518 0.625111 0.104312
0.673652 0.594730 0.013791
0.696523 0.570259 0.000000
0.717892 0.541211 0.000000
0.735386 0.514905 0.000000
0.742207 0.487990 0.000000
0.746576 0.469983 0.000000
0.763354 0.455844 0.000000
0.769210 0.446293 0.000000
0.776612 0.448039 0.000000
0.796500 0.448476 0.000000
0.812121 0.447059 0.000000
0.832521 0.455882 0.000000
0.858536 0.454508 0.000000
0.876861 0.465464 0.000000
0.901080 0.475613 0.000000
0.927941 0.491176 0.000000
0.000000 0.597549 0.284804
0.000000 0.607200 0.294455
0.000000 0.606893 0.289706
0.010662 0.608195 0.289675
0.029779 0.611581 0.298775
0.058226 0.619930 0.300965
0.078309 0.624540 0.300858
0.166529 0.638971 0.292402
0.231863 0.647059 0.301961
0.285723 0.659482 0.292770
0.342034 0.673744 0.277206
0.404626 0.684942 0.271431
0.465012 0.690012 0.260172
0.525490 0.695098 0.251716
0.592065 0.700398 0.232598
0.647794 0.702160 0.217509
0.732261 0.678508 0.164583
0.761857 0.658915 0.113848
0.781112 0.637347 0.022564
0.795833 0.610784 0.000000
0.809053 0.584329 0.000000
0.816238 0.557384 0.000000
0.823560 0.540564 0.000000
0.831985 0.524265 0.000000
0.843827 0.514553 0.000000
0.857077 0.518168 0.000000
0.873238 0.516176 0.000000
0.883824 0.517892 0.000000
0.905668 0.525000 0.000000
0.924571 0.533762 0.000000
0.946002 0.545757 0.000460
0.970588 0.566667 0.009804
0.000000 0.602574 0.294118
0.000000 0.610336 0.299269
0.000000 0.610417 0.297955
0.000000 0.615564 0.297174
0.000000 0.621584 0.295343
0.000000 0.623319 0.289775
0.060034 0.626976 0.292279
0.143972 0.635662 0.292869
0.222212 0.643382 0.294884
0.259804 0.654301 0.287722
0.299127 0.667593 0.278186
0.360976 0.678309 0.270167
0.415227 0.686918 0.260218
0.472059 0.691969 0.248342
0.535861 0.694807 0.229971
0.604006 0.698775 0.223916
0.701819 0.686416 0.176754
0.738358 0.671201 0.141169
0.760842 0.653914 0.064185
0.774127 0.630423 0.012485
0.787351 0.605691 0.000000
0.802068 0.578347 0.000000
0.811899 0.552708 0.000000
0.817065 0.532813 0.000000
0.825735 0.518260 0.000000
0.836520 0.508578 0.000000
0.848476 0.508981 0.000000
0.858624 0.512178 0.000000
0.875360 0.506373 0.000000
0.891996 0.510248 0.000000
0.912665 0.519363 0.000000
0.937132 0.542525 0.000000
0.000000 0.608824 0.300490
0.000000 0.616582 0.299295
0.000000 0.618137 0.301808
0.000000 0.622917 0.305515
0.000000 0.623468 0.301869
0.000000 0.629465 0.305254
0.035202 0.636504 0.302420
0.138327 0.642034 0.293015
0.216667 0.648836 0.298468
0.255760 0.659536 0.300199
0.291590 0.674724 0.293490
0.349755 0.682529 0.280339
0.404933 0.693168 0.273315
0.458969 0.697419 0.269608
0.516759 0.706173 0.256081
0.578102 0.707606 0.243742
0.689346 0.706863 0.215119
0.727987 0.702405 0.181143
0.757353 0.684199 0.142195
0.772794 0.666146 0.088450
0.784612 0.649318 0.015051
0.806510 0.620205 0.000000
0.824954 0.595979 0.000000
0.837439 0.571262 0.000000
0.835080 0.554098 0.000000
0.846814 0.545098 0.000000
0.850299 0.531847 0.000000
0.866575 0.529320 0.000000
0.879312 0.530507 0.000000
0.894700 0.531863 0.000000
0.911351 0.539629 0.000000
0.933088 0.551225 0.000000
0.000000 0.645833 0.313603
0.000000 0.651329 0.324089
0.002068 0.653362 0.328309
0.019612 0.657598 0.328638
0.033915 0.658088 0.327512
0.096818 0.659754 0.329385
0.179251 0.665234 0.330683
0.210543 0.674142 0.326463
0.250735 0.685907 0.331863
0.308881 0.690204 0.327083
0.354090 0.701448 0.328975
0.398051 0.711876 0.318149
0.438802 0.725659 0.317509
0.489135 0.734884 0.314828
0.547411 0.734176 0.302934
0.599223 0.742034 0.295477
0.704465 0.746078 0.280829
0.744746 0.741674 0.253914
0.776386 0.733456 0.219072
0.804948 0.716789 0.191422
0.816188 0.703198 0.146090
0.829733 0.683456 0.077298
0.839886 0.658701 0.015855
0.857629 0.634835 0.000000
0.870837 0.614101 0.000000
0.882843 0.594608 0.000000
0.888086 0.579312 0.000000
0.901486 0.570711 0.000000
0.900754 0.571975 0.000000
0.917946 0.573598 0.000000
0.934681 0.581495 0.000207
0.960662 0.588603 0.016544
0.191176 0.707843 0.371569
0.218903 0.710784 0.378309
0.238909 0.708027 0.383946
0.253094 0.719056 0.385539
0.275368 0.717892 0.383456
0.304534 0.720956 0.384007
0.334191 0.725061 0.384804
0.366850 0.731710 0.384406
0.400735 0.741912 0.392647
0.438756 0.748775 0.389767
0.474387 0.760294 0.391605
0.497917 0.769884 0.389583
0.531127 0.781373 0.385784
0.568474 0.794271 0.384069
0.617218 0.792708 0.374387
0.667188 0.800306 0.371232
0.754105 0.810907 0.358425
0.795404 0.811336 0.349816
0.829871 0.802696 0.337561
0.851225 0.790686 0.307966
0.867770 0.781342 0.281495
0.885478 0.766238 0.236091
0.899295 0.749081 0.184589
0.903676 0.725490 0.119363
0.922855 0.705055 0.025797
0.931189 0.684681 0.000000
0.937040 0.671630 0.000000
0.951838 0.663480 0.004412
0.952972 0.656342 0.007537
0.975858 0.654105 0.026593
0.988511 0.661091 0.082384
0.999020 0.678431 0.126471
0.239338 0.735539 0.385662
0.261140 0.733238 0.391954
0.279236 0.731480 0.404504
0.289258 0.731330 0.396940
0.304305 0.733226 0.397901
0.321469 0.735195 0.397806
0.350084 0.742770 0.402451
0.374870 0.748162 0.405262
0.403554 0.752635 0.398928
0.436152 0.758827 0.399146
0.463779 0.766544 0.400222
0.491226 0.778286 0.396373
0.525245 0.786229 0.397151
0.561435 0.796239 0.391770
0.591536 0.804404 0.385646
0.640633 0.804833 0.378500
0.732054 0.815686 0.364882
0.773292 0.814346 0.357728
0.809888 0.814442 0.348284
0.834161 0.809252 0.332138
0.854756 0.799583 0.305538
0.877819 0.782621 0.269072
0.885413 0.767276 0.218620
0.898346 0.746814 0.170956
0.905392 0.725490 0.082816
0.919278 0.705553 0.008364
0.931016 0.676582 0.000000
0.944164 0.662423 0.000000
0.947181 0.660172 0.000000
0.963955 0.649387 0.000000
0.973652 0.647564 0.000054
0.986029 0.656618 0.013848
0.221814 0.732353 0.388971
0.233831 0.742547 0.390219
0.261765 0.733487 0.397151
0.271078 0.734804 0.400735
0.283915 0.741850 0.397641
0.302229 0.739959 0.396308
0.344960 0.742647 0.401930
0.355438 0.753018 0.399517
0.384436 0.758517 0.399877
0.425774 0.762546 0.405155
0.452665 0.769378 0.409069
0.475245 0.783824 0.406127
0.512040 0.794884 0.400766
0.544554 0.802206 0.396232
0.582108 0.814139 0.388664
0.626371 0.814361 0.379044
0.713335 0.827229 0.384980
0.763006 0.826471 0.380070
0.802872 0.826034 0.372725
0.833548 0.827911 0.361060
0.858839 0.820106 0.335800
0.877696 0.805147 0.311045
0.887868 0.794363 0.270542
0.897488 0.778983 0.234988
0.910915 0.760011 0.174027
0.929825 0.738863 0.114062
0.938833 0.716651 0.009421
0.953768 0.696446 0.000000
0.957077 0.686328 0.000000
0.970879 0.675735 0.000000
0.975276 0.678309 0.000000
0.996814 0.686029 0.000735
0.285784 0.762623 0.412132
0.303431 0.768118 0.419259
0.318987 0.764629 0.426348
0.319853 0.764461 0.426593
0.341835 0.766559 0.425322
0.362010 0.768478 0.420929
0.388006 0.771071 0.429167
0.402562 0.782843 0.431629
0.431250 0.790533 0.430668
0.466176 0.791077 0.431568
0.496147 0.799563 0.435892
0.516333 0.810382 0.436309
0.546814 0.821814 0.437270
0.581621 0.829649 0.431740
0.612010 0.841667 0.431472
0.650532 0.850448 0.430840
0.737381 0.854657 0.424717
0.776225 0.860516 0.418260
0.810666 0.862875 0.414595
0.849433 0.861734 0.404810
0.876578 0.858245 0.395607
0.896530 0.853431 0.370864
0.911642 0.846151 0.344608
0.925092 0.833701 0.323192
0.928163 0.822660 0.274609
0.948775 0.806733 0.232116
0.957843 0.781373 0.164557
0.979488 0.765977 0.096860
0.987075 0.754159 0.044753
0.996484 0.739867 0.032468
0.996795 0.733540 0.026838
1.000000 0.740074 0.045098
0.423529 0.815196 0.480392
0.426854 0.818520 0.476088
0.429504 0.823009 0.486336
0.436964 0.819930 0.478569
0.455331 0.818750 0.482292
0.463572 0.822963 0.478018
0.479442 0.833180 0.482506
0.506342 0.833824 0.488465
0.519608 0.845956 0.493873
0.550460 0.851210 0.494776
0.582843 0.857751 0.498192
0.598162 0.864308 0.501670
0.625306 0.877206 0.500858
0.652405 0.883701 0.500934
0.684252 0.891422 0.501287
0.715181 0.896829 0.503156
0.781740 0.906020 0.496967
0.819087 0.909620 0.497825
0.852865 0.910172 0.495343
0.884252 0.913051 0.492279
0.913113 0.911765 0.488649
0.931618 0.911121 0.462684
0.950337 0.906388 0.445466
