FILES/DISPLAY_P3-1e9781a9.cube
#Generated with IWLTBAP LUT Generator 2.1
#Website: https://luts.iwltbap.com
TITLE "DISPLAY P3"
LUT_3D_SIZE 9
0.007843 0.027451 0.031373
0.045588 0.042157 0.034314
0.159804 0.046078 0.041176
0.303431 0.048529 0.036275
0.449020 0.039216 0.031373
0.588725 0.035784 0.024020
0.711765 0.052941 0.022549
0.838235 0.119118 0.034314
0.968627 0.239216 0.082353
0.000980 0.069608 0.046569
0.051225 0.077328 0.043382
0.143750 0.086397 0.036642
0.300919 0.090809 0.038971
0.438480 0.097059 0.031618
0.583027 0.092525 0.027328
0.708578 0.116667 0.017402
0.844547 0.157843 0.005637
0.972549 0.255882 0.055392
0.000000 0.165686 0.085294
0.000000 0.202328 0.072549
0.243627 0.185539 0.039706
0.328186 0.161887 0.046446
0.443627 0.167647 0.028922
0.574142 0.174387 0.017279
0.709069 0.190196 0.009314
0.835172 0.232843 0.005392
0.965686 0.310784 0.042157
0.000000 0.300000 0.149020
0.000000 0.338848 0.141422
0.230760 0.394485 0.059191
0.465993 0.327022 0.001838
0.512990 0.264461 0.015196
0.598529 0.261826 0.012623
0.707108 0.278922 0.000000
0.835723 0.314216 0.000000
0.958333 0.381863 0.066667
0.000000 0.458824 0.211765
0.000000 0.487745 0.217892
0.062255 0.549510 0.163235
0.491912 0.574020 0.061275
0.655882 0.485294 0.000000
0.689706 0.395343 0.000000
0.748039 0.383333 0.000000
0.850980 0.413725 0.000000
0.952941 0.468627 0.039216
0.000000 0.597549 0.284804
0.029779 0.611581 0.298775
0.231863 0.647059 0.301961
0.465012 0.690012 0.260172
0.691422 0.692647 0.193137
0.795833 0.610784 0.000000
0.831985 0.524265 0.000000
0.883824 0.517892 0.000000
0.970588 0.566667 0.009804
0.191176 0.707843 0.371569
0.275368 0.717892 0.383456
0.400735 0.741912 0.392647
0.531127 0.781373 0.385784
0.713235 0.808333 0.364706
0.851225 0.790686 0.307966
0.903676 0.725490 0.119363
0.951838 0.663480 0.004412
0.999020 0.678431 0.126471
0.423529 0.815196 0.480392
0.455331 0.818750 0.482292
0.519608 0.845956 0.493873
0.625306 0.877206 0.500858
0.746078 0.900245 0.496324
0.884252 0.913051 0.492279
0.964093 0.898775 0.423162
1.000000 0.855270 0.286213
1.000000 0.831373 0.201961
0.568627 0.937255 0.615686
0.597549 0.937255 0.627451
0.668627 0.948039 0.645098
0.756373 0.958333 0.656863
0.837255 0.974510 0.676471
0.919118 0.977941 0.695588
0.976471 0.983333 0.700980
1.000000 0.976471 0.611275
1.000000 0.968627 0.474510
0.011765 0.035294 0.050980
0.027941 0.045588 0.050858
0.127696 0.058824 0.048039
0.258517 0.073162 0.046875
0.392647 0.069363 0.038971
0.530699 0.060846 0.034498
0.657966 0.054167 0.024632
0.794669 0.097794 0.020588
0.929412 0.188235 0.039216
0.000551 0.061397 0.069547
0.022434 0.077597 0.070297
0.124372 0.092632 0.070619
0.260646 0.092371 0.053868
0.394026 0.095741 0.040564
0.526708 0.100329 0.028332
0.652956 0.109896 0.017126
0.795925 0.137607 0.012845
0.930821 0.226103 0.050551
0.000000 0.132108 0.102328
0.000000 0.154764 0.103202
0.198560 0.167463 0.082690
0.283747 0.148912 0.076777
0.400858 0.156740 0.058701
0.521599 0.165257 0.034804
0.655944 0.172304 0.012194
0.794332 0.206480 0.006112
0.933333 0.271936 0.017402
0.000000 0.245772 0.150613
0.000000 0.268336 0.157820
0.153263 0.334375 0.104688
0.398629 0.296232 0.063971
0.457138 0.241176 0.066973
0.551892 0.239537 0.057016
0.659130 0.254366 0.009375
0.799403 0.282598 0.003753
0.926409 0.344118 0.043566
0.000000 0.396569 0.209314
0.000000 0.428554 0.215227
0.076593 0.484191 0.197672
0.431893 0.527880 0.120343
0.603676 0.445833 0.005147
0.643964 0.360509 0.016268
0.708946 0.355453 0.031924
0.801808 0.377451 0.000000
0.924020 0.433333 0.000000
0.000000 0.543321 0.274203
0.000000 0.566460 0.285371
0.191544 0.602313 0.283670
0.403968 0.652259 0.252076
0.649050 0.661612 0.185815
0.760708 0.579864 0.008892
0.797672 0.494608 0.000000
0.853194 0.483984 0.003056
0.939154 0.526409 0.013480
0.064093 0.676348 0.361642
0.221645 0.688572 0.373958
0.355882 0.710172 0.378738
0.484850 0.752773 0.370481
0.664400 0.776961 0.354534
0.813281 0.768122 0.294669
0.877757 0.696140 0.104289
0.924494 0.626930 0.006495
0.985049 0.640441 0.083824
0.358150 0.795588 0.455699
0.405813 0.802443 0.464775
0.490564 0.823315 0.469807
0.587324 0.855017 0.480775
0.715656 0.879259 0.476134
0.854427 0.893643 0.461213
0.947166 0.876685 0.410126
0.987125 0.828056 0.254251
1.000000 0.804841 0.175306
0.530882 0.918137 0.592647
0.557782 0.926409 0.601838
0.622917 0.936642 0.621324
0.720833 0.946752 0.631189
0.804167 0.959804 0.644608
0.891299 0.969547 0.657966
0.965196 0.970956 0.657966
0.999571 0.965135 0.560968
1.000000 0.945588 0.421569
0.000000 0.058824 0.100000
0.011520 0.061642 0.099265
0.111520 0.070588 0.099510
0.271446 0.057598 0.090319
0.400000 0.066176 0.073529
0.509926 0.074142 0.056127
0.626716 0.088480 0.023775
0.775613 0.118382 0.011887
0.921569 0.188235 0.031373
0.000000 0.084804 0.111397
0.009942 0.089522 0.115778
0.128431 0.106587 0.120159
0.278906 0.097794 0.103002
0.398223 0.101593 0.087561
0.516621 0.102237 0.069623
0.631464 0.119363 0.025123
0.775521 0.149372 0.006495
0.915074 0.214828 0.037010
0.000000 0.132353 0.132108
0.000000 0.143229 0.131311
0.149326 0.165870 0.141605
0.288297 0.165441 0.132996
0.402206 0.162623 0.109191
0.518015 0.167647 0.084559
0.638419 0.176103 0.050797
0.772059 0.208977 0.000797
0.918382 0.266667 0.036029
0.000000 0.209191 0.166544
0.000000 0.224571 0.170772
0.184038 0.266115 0.182292
0.368091 0.292203 0.150260
0.434743 0.249449 0.131924
0.532904 0.244807 0.117647
0.651532 0.254902 0.077665
0.782874 0.276379 0.013251
0.912868 0.337868 0.009559
0.000000 0.337745 0.217157
0.000000 0.354841 0.224816
0.177696 0.402941 0.238235
0.351225 0.488725 0.199510
0.571814 0.439706 0.133333
0.615074 0.359743 0.118199
0.683824 0.352574 0.109191
0.790686 0.372365 0.058946
0.909314 0.419608 0.004902
0.000000 0.492034 0.284681
0.000000 0.516529 0.293290
0.211581 0.551379 0.302298
0.383487 0.612653 0.304243
0.609498 0.640441 0.254657
0.729871 0.570757 0.136014
0.772886 0.488664 0.101746
0.823805 0.476425 0.094194
0.924877 0.512010 0.078676
0.046324 0.636275 0.360294
0.166360 0.655300 0.368903
0.337929 0.676716 0.380086
0.482874 0.712592 0.391268
0.631250 0.755882 0.374632
0.795404 0.758088 0.333425
0.860049 0.687377 0.187132
0.904473 0.616513 0.099847
0.958333 0.621569 0.138235
0.310539 0.772426 0.449265
0.365334 0.779412 0.458425
0.454442 0.800123 0.476225
0.570941 0.826746 0.487040
0.677819 0.866912 0.479963
0.832828 0.880990 0.475260
0.933915 0.869363 0.428707
0.978830 0.812362 0.283885
1.000000 0.790319 0.211275
0.474510 0.909804 0.592157
0.521446 0.911397 0.598039
0.592402 0.924020 0.612745
0.678064 0.939216 0.624387
0.789216 0.950980 0.638725
0.884436 0.966544 0.656985
0.959804 0.973529 0.657843
1.000000 0.963848 0.566422
1.000000 0.945098 0.428431
0.000000 0.079902 0.156373
0.000000 0.087439 0.155699
0.116054 0.105392 0.174387
0.290196 0.104779 0.171446
0.431127 0.058333 0.145098
0.542647 0.052635 0.115012
0.645221 0.073652 0.091422
0.767586 0.120895 0.056005
0.914706 0.198529 0.037745
0.000000 0.099203 0.158333
0.000000 0.109268 0.166705
0.132751 0.130576 0.182154
0.299571 0.133464 0.180898
0.430239 0.098775 0.152788
0.543896 0.096454 0.122181
0.644393 0.116176 0.100980
0.776616 0.149464 0.052099
0.913480 0.227512 0.031066
0.000000 0.146814 0.181740
0.000000 0.153156 0.184023
0.144424 0.170435 0.188143
0.310555 0.200061 0.207659
0.442402 0.172426 0.169118
0.542938 0.174908 0.148438
0.650613 0.181832 0.120956
0.776471 0.205561 0.073009
0.913603 0.267402 0.023897
0.000000 0.206250 0.198713
0.000000 0.215694 0.203431
0.153523 0.232460 0.210187
0.323407 0.277681 0.230637
0.443658 0.274724 0.204871
0.548208 0.265257 0.179580
0.658915 0.267540 0.141100
0.783961 0.284681 0.104956
0.912132 0.332843 0.032353
0.000000 0.294853 0.230392
0.000000 0.308211 0.242218
0.167525 0.340441 0.251164
0.353339 0.402727 0.279473
0.544363 0.447794 0.243750
0.597059 0.376256 0.210417
0.676225 0.367341 0.182475
0.785172 0.373437 0.136366
0.914951 0.411765 0.093627
0.000000 0.437255 0.300000
0.000000 0.455515 0.299249
0.196584 0.486857 0.313572
0.392210 0.542172 0.340525
0.561734 0.616667 0.330944
0.713748 0.575697 0.256304
0.756878 0.492494 0.203600
0.817096 0.481158 0.187952
0.914216 0.514154 0.160294
0.000000 0.591789 0.362132
0.047748 0.608839 0.376379
0.287806 0.631863 0.389798
0.460432 0.667969 0.404105
0.603738 0.724877 0.417525
0.772350 0.752880 0.388925
0.845772 0.688480 0.291483
0.884574 0.613159 0.210600
0.947917 0.620466 0.217034
0.176593 0.744792 0.454167
0.277382 0.750820 0.461405
0.410371 0.765962 0.476011
0.543949 0.794853 0.497786
0.660662 0.839645 0.505362
0.804473 0.874173 0.498690
0.923989 0.874893 0.472978
0.977405 0.812194 0.341023
1.000000 0.781373 0.263113
0.385294 0.894118 0.590686
0.437132 0.899510 0.597059
0.524265 0.908578 0.605637
0.629902 0.927022 0.625980
0.755637 0.941422 0.648284
0.861152 0.965625 0.676532
0.949632 0.970711 0.684804
0.999694 0.966115 0.606005
1.000000 0.945098 0.461275
0.000000 0.105882 0.217647
0.000000 0.117402 0.223775
0.129902 0.137745 0.243137
0.297794 0.160049 0.271324
0.471569 0.150000 0.255882
0.601471 0.099510 0.219363
0.682353 0.052451 0.176471
0.788235 0.116667 0.141912
0.921569 0.196078 0.105882
0.000000 0.128676 0.225735
0.000000 0.134528 0.228217
0.141115 0.152512 0.248958
0.309344 0.186121 0.277420
0.482108 0.178554 0.269853
0.603554 0.131005 0.222396
0.681985 0.104596 0.174877
0.789032 0.146262 0.148192
0.913971 0.224510 0.117892
0.000000 0.166667 0.238235
0.005147 0.172120 0.238603
0.149877 0.186029 0.248407
0.310723 0.228493 0.281801
0.487745 0.244608 0.282598
0.595772 0.201900 0.237806
0.686397 0.183333 0.193873
0.791299 0.208333 0.159804
0.921569 0.262255 0.122059
0.000000 0.218382 0.250980
0.000000 0.229841 0.263603
0.163297 0.246814 0.267525
0.306618 0.277145 0.279473
0.494975 0.336765 0.310539
0.596538 0.289890 0.258640
0.691360 0.283885 0.225613
0.793658 0.289614 0.178002
0.918873 0.334804 0.135784
0.000000 0.295098 0.283333
0.000000 0.300735 0.283456
0.150245 0.319853 0.291912
0.301593 0.355637 0.300613
0.487745 0.414706 0.326961
0.604779 0.415564 0.302819
0.691422 0.390931 0.257353
0.801838 0.382843 0.214706
0.921569 0.418627 0.174510
0.000000 0.397549 0.313971
0.000000 0.408487 0.318964
0.130147 0.430147 0.327328
0.309712 0.468321 0.345711
0.522304 0.540196 0.377819
0.691238 0.589154 0.364063
0.736765 0.510233 0.305760
0.806097 0.493505 0.259865
0.920098 0.520588 0.218382
0.000000 0.540686 0.369118
0.000000 0.555270 0.377880
0.061520 0.573162 0.386152
0.360784 0.607292 0.405515
0.574510 0.668137 0.439706
0.728309 0.739828 0.444608
0.835539 0.700858 0.379412
0.870098 0.620833 0.302941
0.944608 0.626961 0.290686
0.000000 0.698284 0.447794
0.000000 0.714001 0.456893
0.199816 0.728554 0.467463
0.455699 0.752849 0.494179
0.633578 0.794485 0.524632
0.765870 0.861091 0.542341
0.915196 0.880699 0.535846
0.963909 0.828064 0.407108
1.000000 0.787010 0.345833
0.000000 0.870588 0.576471
0.090441 0.874265 0.589706
0.350980 0.884804 0.597549
0.537745 0.899265 0.625245
0.702941 0.928431 0.664706
0.840686 0.957598 0.704902
0.929902 0.971569 0.726961
0.994853 0.970098 0.678186
1.000000 0.945098 0.513725
0.000000 0.145098 0.297059
0.000000 0.150061 0.302635
0.141422 0.163971 0.312868
0.310355 0.201287 0.351961
0.485784 0.237010 0.382353
0.658272 0.232047 0.356250
0.757475 0.219363 0.312990
0.813603 0.133027 0.241176
0.929412 0.215686 0.227451
0.000000 0.156863 0.303125
0.000000 0.164032 0.302834
0.150123 0.173989 0.319087
0.305430 0.214292 0.350973
0.486887 0.260784 0.384498
0.661627 0.257498 0.367188
0.753263 0.248269 0.312914
0.815173 0.161972 0.252252
0.932782 0.229412 0.225000
0.000000 0.192892 0.307843
0.015349 0.196553 0.310340
0.161979 0.202911 0.317402
0.304335 0.242570 0.345358
0.497794 0.316483 0.392953
0.656495 0.326517 0.375015
0.750368 0.295374 0.325919
0.816559 0.229933 0.257108
0.932475 0.280025 0.234926
0.000000 0.244179 0.315196
0.025276 0.246706 0.324893
0.161566 0.260999 0.332644
0.297151 0.286864 0.339300
0.489032 0.366636 0.385447
0.655423 0.408601 0.392762
0.740901 0.361857 0.343015
0.820925 0.312209 0.277589
0.940380 0.343199 0.249632
0.000000 0.308088 0.340931
0.003217 0.312500 0.342004
0.154044 0.331189 0.346936
0.294700 0.354810 0.360141
0.462500 0.403186 0.374877
0.657016 0.492371 0.413205
0.731311 0.431801 0.358640
0.817433 0.407690 0.294884
0.938725 0.426471 0.259314
0.000000 0.396078 0.362071
0.000000 0.401785 0.365847
0.102972 0.413986 0.369776
0.271729 0.438787 0.377336
0.445466 0.483119 0.395067
0.638595 0.553117 0.424004
0.738603 0.543903 0.393444
0.822396 0.508142 0.335126
0.933824 0.528309 0.300306
0.000000 0.493015 0.392647
0.000000 0.505775 0.402022
0.000000 0.521906 0.405974
0.215656 0.545864 0.407261
0.446078 0.588051 0.430392
0.676838 0.669455 0.480469
0.824632 0.715993 0.465135
0.858395 0.631970 0.393137
0.942647 0.643750 0.357353
0.000000 0.647733 0.459988
0.000000 0.659406 0.467793
0.000000 0.674556 0.472564
0.154450 0.697074 0.480339
0.502053 0.736244 0.510386
0.726846 0.805078 0.568773
0.876578 0.875781 0.598300
0.959222 0.838725 0.501777
1.000000 0.792279 0.425368
0.000000 0.841667 0.579412
0.000000 0.848223 0.589706
0.000000 0.860784 0.588971
0.170956 0.870282 0.611397
0.571814 0.900490 0.654657
0.784375 0.937806 0.720221
0.911520 0.970098 0.773039
0.983150 0.975980 0.764216
1.000000 0.952941 0.601471
0.000000 0.189216 0.395098
0.012868 0.194485 0.392402
0.165441 0.203922 0.401225
0.324632 0.239338 0.430515
0.504412 0.316176 0.467647
0.673162 0.367525 0.486152
0.805392 0.381373 0.459559
0.878922 0.383211 0.409436
0.944118 0.296078 0.348039
0.000000 0.200490 0.396814
0.038817 0.199586 0.397319
0.173652 0.215349 0.406801
0.319072 0.248100 0.425597
0.507353 0.328125 0.469853
0.674786 0.390533 0.490686
0.808793 0.396262 0.459467
0.877650 0.399188 0.414308
0.941176 0.308333 0.354902
0.000000 0.228431 0.397059
0.026991 0.233609 0.395374
0.174571 0.244547 0.405637
0.314461 0.275551 0.420925
0.507475 0.355637 0.464338
0.679013 0.442249 0.495741
0.802635 0.443627 0.468199
0.868413 0.427512 0.414859
0.941667 0.339706 0.349755
0.000000 0.274510 0.405637
0.020098 0.277895 0.408441
0.164614 0.288480 0.410570
0.301057 0.306373 0.412209
0.482721 0.379412 0.446017
0.682169 0.494914 0.493689
0.799663 0.500827 0.482506
0.864231 0.465533 0.425843
0.944853 0.389951 0.359559
0.000000 0.339216 0.419118
0.000000 0.343260 0.421446
0.123897 0.351348 0.422426
0.284252 0.367279 0.430392
0.444608 0.401716 0.433578
0.659069 0.521998 0.489216
0.796936 0.563235 0.499510
0.863909 0.502512 0.434681
0.957843 0.455882 0.378431
0.000000 0.412377 0.426716
0.000000 0.419593 0.434298
0.029779 0.425521 0.438113
0.240548 0.441452 0.442402
0.416728 0.477328 0.444547
0.604059 0.529381 0.463848
0.797365 0.628891 0.516422
0.854350 0.551210 0.437515
0.965441 0.548652 0.395098
0.000000 0.499020 0.456127
0.000000 0.507077 0.452390
0.000000 0.514767 0.456373
0.195956 0.535172 0.462592
0.406127 0.559804 0.466054
0.592647 0.601225 0.489032
0.772794 0.674020 0.526654
0.862868 0.656066 0.473100
0.975735 0.659069 0.429657
0.000000 0.619975 0.497304
0.000000 0.631403 0.504718
0.000000 0.636979 0.498070
0.000000 0.655545 0.511029
0.338725 0.683824 0.521936
0.584635 0.723974 0.542999
0.816636 0.815441 0.624663
0.953447 0.856710 0.625444
0.997426 0.801225 0.507966
0.000000 0.809804 0.616667
0.000000 0.816912 0.617892
0.000000 0.827451 0.626961
0.000000 0.847181 0.635172
0.088235 0.869608 0.655882
0.611397 0.906373 0.708333
0.869608 0.952696 0.790686
0.964951 0.980392 0.857475
1.000000 0.969608 0.730392
0.122059 0.276961 0.516667
0.170711 0.276471 0.523529
0.261520 0.285049 0.522304
0.396875 0.321569 0.539216
0.556618 0.395833 0.558578
0.720527 0.497243 0.592341
0.830392 0.519975 0.590809
0.931495 0.534804 0.566176
0.996569 0.552941 0.531863
0.122059 0.281250 0.517586
0.169416 0.286849 0.522480
0.256464 0.293474 0.517616
0.390694 0.327880 0.528225
0.556955 0.401409 0.554105
0.720351 0.500291 0.589308
0.835340 0.534988 0.597932
0.930522 0.544286 0.567279
1.000000 0.561765 0.536397
0.097794 0.309069 0.525613
0.157230 0.308395 0.520695
0.253431 0.316115 0.522273
0.380545 0.346967 0.525260
0.549877 0.419179 0.549877
0.717142 0.522319 0.587209
0.836979 0.565656 0.608058
0.930622 0.572656 0.577344
1.000000 0.582475 0.544853
0.051532 0.345895 0.526961
0.121147 0.350230 0.529036
0.230254 0.353462 0.523866
0.358287 0.374579 0.527551
0.514951 0.430025 0.537714
0.701317 0.531564 0.576333
0.839047 0.606311 0.616222
0.935608 0.604121 0.591016
0.997855 0.604105 0.555086
0.000000 0.403922 0.533824
0.002543 0.411060 0.536979
0.169240 0.413297 0.532659
0.314859 0.422549 0.532322
0.466789 0.450000 0.529534
0.662561 0.535600 0.564369
0.834743 0.646569 0.623897
0.931985 0.651225 0.608241
0.996324 0.635049 0.557598
0.000000 0.470282 0.544914
0.000000 0.476563 0.544953
0.002206 0.480515 0.542341
0.245044 0.488779 0.548522
0.417831 0.507690 0.543750
0.591337 0.539162 0.543145
0.810126 0.657767 0.616529
0.930913 0.713480 0.644278
0.994669 0.664216 0.566054
0.000000 0.553799 0.558333
0.000000 0.563006 0.564675
0.000000 0.565901 0.554075
0.154887 0.571783 0.563358
0.371691 0.585662 0.560233
0.549387 0.609390 0.564170
0.727696 0.648683 0.577635
0.927374 0.781510 0.680193
1.000000 0.709314 0.579779
0.000000 0.659007 0.588725
0.000000 0.668222 0.597786
0.000000 0.676455 0.596569
0.059750 0.687561 0.601080
0.360202 0.693076 0.598223
0.542080 0.712600 0.605002
0.710401 0.748300 0.622074
0.917387 0.833647 0.706847
1.000000 0.829657 0.642953
0.000000 0.824020 0.709314
0.000000 0.832353 0.713971
0.000000 0.839706 0.736397
0.000000 0.849081 0.737561
0.009069 0.866667 0.750490
0.413787 0.887745 0.770037
0.672059 0.915441 0.804412
0.938358 0.972059 0.903983
1.000000 0.987745 0.916667
0.462745 0.509804 0.760784
0.473039 0.502451 0.749020
0.510784 0.511765 0.739216
0.576961 0.515196 0.731863
0.676471 0.547059 0.727451
0.794118 0.596569 0.747549
0.896078 0.664706 0.770588
0.977941 0.681373 0.764706
1.000000 0.705882 0.745098
0.440196 0.519118 0.759314
0.452267 0.506373 0.743566
0.503554 0.507843 0.734559
0.572855 0.518137 0.727451
0.678676 0.550000 0.729657
0.789216 0.604412 0.746569
0.890564 0.668015 0.778799
0.981924 0.685662 0.782169
1.000000 0.712745 0.751961
0.423529 0.529412 0.744118
0.442647 0.526471 0.743995
0.485294 0.521324 0.732843
0.563358 0.531495 0.727083
0.672549 0.556373 0.730392
0.788725 0.614706 0.752941
0.894363 0.682598 0.789706
0.973897 0.709559 0.783578
1.000000 0.737255 0.766667
0.384804 0.549510 0.748529
0.408333 0.548958 0.748468
0.456495 0.550245 0.743750
0.536703 0.552022 0.732843
0.639216 0.573039 0.731618
0.768137 0.626042 0.750674
0.887377 0.700735 0.788113
0.965196 0.742708 0.804105
1.000000 0.761765 0.783824
0.349020 0.588235 0.762745
0.356373 0.592157 0.764461
0.392157 0.586765 0.753922
0.481373 0.588235 0.747549
0.595098 0.595098 0.742157
0.740441 0.633824 0.755392
0.874510 0.711765 0.791667
0.962010 0.782353 0.832598
1.000000 0.807843 0.815686
0.322549 0.645098 0.770588
0.327819 0.647917 0.777390
0.315564 0.644853 0.770833
0.384498 0.647243 0.769056
0.527696 0.644853 0.766422
0.674387 0.656311 0.766176
0.840564 0.722181 0.798529
0.956985 0.827941 0.860662
1.000000 0.843627 0.848529
0.269608 0.710784 0.793137
0.278676 0.714828 0.795466
0.280882 0.713480 0.801961
0.278431 0.716667 0.796078
0.416176 0.724020 0.807843
0.590564 0.725735 0.810417
0.777941 0.742402 0.815931
0.948529 0.859926 0.886152
0.999020 0.897059 0.902941
0.180392 0.807843 0.825000
0.200797 0.814277 0.831434
0.205270 0.817157 0.834804
0.184681 0.826164 0.839277
0.221078 0.834069 0.847304
0.468811 0.836887 0.855270
0.677206 0.848407 0.874387
0.894730 0.880147 0.908272
0.984804 0.955882 0.961275
0.000000 0.913725 0.854902
0.000000 0.920588 0.848039
0.000000 0.924510 0.853922
0.000000 0.931863 0.857353
0.000000 0.939216 0.862745
0.362745 0.951471 0.879902
0.701961 0.969608 0.914706
0.917157 0.968627 0.946078
0.984314 0.988235 0.968627
