FILES/DISPLAY_P3_32-3b8e76e9.cube
TITLE "DISPLAY P3 32"
LUT_3D_SIZE 5
DOMAIN_MIN 0.000000 0.000000 0.000000
DOMAIN_MAX 0.903226 0.903226 0.903226
0.007843 0.027451 0.031373
0.136654 0.044465 0.040323
0.392900 0.039216 0.036504
0.640465 0.046189 0.026747
0.868786 0.140702 0.012397
0.000000 0.122802 0.064801
0.157503 0.143547 0.034985
0.354212 0.134998 0.038916
0.602751 0.153093 0.021145
0.847825 0.213721 0.023028
0.000000 0.329056 0.163338
0.009232 0.419351 0.116744
0.514864 0.372376 0.000000
0.622101 0.294109 0.007831
0.820971 0.342077 0.000000
0.000000 0.606808 0.298435
0.157830 0.641581 0.293949
0.551615 0.703523 0.243001
0.798760 0.615910 0.003289
0.876680 0.522825 0.000000
0.462492 0.847517 0.516588
0.542822 0.864629 0.516378
0.700402 0.904940 0.515291
0.918667 0.919686 0.487544
0.999972 0.855618 0.270711
0.000664 0.052751 0.090038
0.091434 0.064420 0.092749
0.345539 0.065300 0.070792
0.560324 0.078043 0.035513
0.807443 0.122078 0.019676
0.000000 0.110730 0.110187
0.107796 0.136402 0.123369
0.337699 0.143802 0.098222
0.554347 0.151428 0.059521
0.798126 0.195395 0.002221
0.000000 0.267911 0.179312
0.134930 0.329791 0.199049
0.476148 0.363928 0.119738
0.592127 0.292699 0.099378
0.797558 0.327352 0.008245
0.000000 0.555244 0.301377
0.187114 0.594033 0.318838
0.517252 0.676697 0.298825
0.777858 0.608439 0.126476
0.859504 0.516068 0.071788
0.396251 0.814741 0.491150
0.490533 0.830657 0.504938
0.664508 0.881085 0.514669
0.895884 0.906649 0.496075
0.996473 0.844983 0.289027
0.000000 0.093738 0.192718
0.097698 0.119321 0.214023
0.400899 0.128146 0.221667
0.605138 0.044017 0.155263
0.807086 0.131335 0.096395
0.000000 0.143742 0.204858
0.113743 0.164000 0.214053
0.404329 0.204773 0.241303
0.606707 0.158148 0.171687
0.804053 0.197379 0.106216
0.000000 0.249252 0.239428
0.117305 0.274452 0.251142
0.416158 0.355086 0.283167
0.613230 0.338059 0.228671
0.807727 0.336625 0.149806
0.000000 0.465420 0.325931
0.088253 0.501472 0.340945
0.486720 0.594252 0.383755
0.759433 0.623587 0.327446
0.841615 0.535528 0.239822
0.049756 0.763845 0.483143
0.337569 0.779612 0.496927
0.620957 0.833236 0.543366
0.858777 0.903409 0.559586
0.992476 0.850577 0.397353
0.000000 0.159954 0.336551
0.123364 0.174492 0.345009
0.419751 0.248840 0.408730
0.724673 0.287551 0.399769
0.848798 0.201167 0.294863
0.000000 0.189790 0.330015
0.129063 0.204592 0.340520
0.411704 0.284653 0.396175
0.716118 0.353387 0.410939
0.834576 0.245836 0.298695
0.000000 0.279678 0.353864
0.124312 0.296755 0.362559
0.375428 0.347101 0.380139
0.707884 0.482945 0.432957
0.840336 0.367754 0.317471
0.000000 0.431151 0.390382
0.003950 0.447355 0.397555
0.346788 0.487911 0.412814
0.694715 0.599576 0.463403
0.846167 0.558180 0.377163
0.000000 0.679813 0.498177
0.000000 0.696294 0.505048
0.293546 0.732140 0.523238
0.770954 0.839987 0.614247
0.980747 0.867975 0.553413
0.195114 0.312160 0.559171
0.290140 0.317774 0.558485
0.516103 0.390040 0.576954
0.788896 0.542762 0.634163
0.956609 0.566150 0.592031
0.110008 0.306265 0.531616
0.242575 0.320152 0.540441
0.479881 0.385964 0.555621
0.765549 0.545155 0.615628
0.948852 0.585922 0.598177
0.000000 0.373160 0.534571
0.155608 0.380880 0.538697
0.409133 0.409557 0.539028
0.734832 0.565032 0.595924
0.940274 0.636012 0.610291
0.000000 0.499687 0.565340
0.000000 0.508785 0.564015
0.298594 0.522590 0.563966
0.624580 0.567807 0.561300
0.936914 0.734347 0.660032
0.000000 0.712606 0.636260
0.000000 0.715932 0.640610
0.237677 0.727293 0.642383
0.584480 0.751372 0.644536
0.925718 0.858043 0.743792
