FILES/DISPLAY_P3_32-3b8e76e9.cube
TITLE "DISPLAY P3 32"
LUT_3D_SIZE 32
0.007843 0.027451 0.031373
0.019252 0.031254 0.027332
0.020596 0.031602 0.027933
0.035958 0.035626 0.034867
0.048577 0.042631 0.033855
0.072604 0.045398 0.032519
0.099858 0.043303 0.041359
0.136654 0.044465 0.040323
0.167015 0.049083 0.041397
0.198988 0.056120 0.041216
0.239793 0.048016 0.037951
0.280424 0.042521 0.035642
0.317995 0.049478 0.038030
0.354673 0.047486 0.040141
0.392900 0.039216 0.036504
0.432195 0.037065 0.032322
0.467995 0.040291 0.030550
0.502720 0.038275 0.031862
0.538726 0.035073 0.036852
0.575537 0.035310 0.029902
0.602878 0.037998 0.021174
0.640465 0.046189 0.026747
0.672660 0.048206 0.030669
0.703574 0.051581 0.024699
0.736528 0.070304 0.015908
0.768161 0.078432 0.006460
0.803929 0.093248 0.011132
0.834551 0.116129 0.031483
0.868786 0.140702 0.012397
0.904388 0.167892 0.022659
0.933064 0.195936 0.024715
0.968627 0.239216 0.082353
0.008326 0.027458 0.023909
0.012576 0.031606 0.027695
0.026319 0.035331 0.031382
0.031488 0.039217 0.035279
0.039456 0.040208 0.038297
0.052373 0.046777 0.038002
0.073345 0.052032 0.035993
0.096229 0.059219 0.040093
0.122688 0.058752 0.035110
0.154105 0.058700 0.039980
0.189284 0.058017 0.042116
0.226644 0.059717 0.040811
0.262521 0.061848 0.035042
0.302965 0.059686 0.034104
0.340523 0.055429 0.037824
0.376345 0.051284 0.036143
0.413133 0.049183 0.041086
0.446037 0.048443 0.041427
0.481616 0.046436 0.029926
0.518069 0.048138 0.032841
0.548850 0.045084 0.029765
0.584746 0.049112 0.026248
0.617199 0.049509 0.026482
0.646833 0.049129 0.028884
0.682041 0.047273 0.023467
0.718732 0.061884 0.012234
0.754748 0.074780 0.009021
0.790570 0.093702 0.019952
0.822733 0.113166 0.008295
0.861272 0.133717 0.022551
0.897495 0.157562 0.037098
0.933571 0.192869 0.046110
0.011006 0.032614 0.028162
0.018450 0.039624 0.034669
0.018179 0.040526 0.034627
0.018921 0.043139 0.028733
0.033694 0.045127 0.031769
0.051345 0.053625 0.032557
0.070441 0.053781 0.036084
0.088941 0.061856 0.041235
0.111442 0.061049 0.038180
0.141837 0.066785 0.039500
0.175368 0.069074 0.038582
0.215350 0.069283 0.038128
0.256036 0.067915 0.041169
0.294174 0.063379 0.039218
0.330892 0.063095 0.033766
0.366753 0.061271 0.032058
0.402782 0.061583 0.038744
0.440788 0.059397 0.041904
0.474576 0.058299 0.036001
0.509988 0.053961 0.033342
0.544974 0.052635 0.034981
0.577562 0.060067 0.033803
0.608658 0.065812 0.031875
0.639996 0.065028 0.024260
0.678143 0.061650 0.022641
0.715303 0.073490 0.021795
0.754588 0.094241 0.023126
0.789263 0.097580 0.023031
0.823355 0.115813 0.022970
0.856412 0.144909 0.022658
0.891283 0.166987 0.020811
0.931776 0.198924 0.027364
0.000095 0.052451 0.032844
0.006465 0.053225 0.031578
0.008961 0.059182 0.034827
0.026837 0.054295 0.027839
0.034472 0.059248 0.039650
0.049096 0.060694 0.034221
0.065689 0.064666 0.037169
0.091987 0.070848 0.041534
0.122469 0.071634 0.033826
0.153046 0.073810 0.040179
0.188975 0.078484 0.044619
0.231610 0.079542 0.038323
0.270927 0.077423 0.036889
0.310515 0.075749 0.042858
0.349356 0.075828 0.044259
0.387221 0.075832 0.039729
0.424991 0.078473 0.041627
0.461019 0.075658 0.042836
0.495889 0.075896 0.039160
0.534901 0.074265 0.035525
0.568874 0.076441 0.030579
0.604617 0.083089 0.030724
0.642325 0.081927 0.028876
0.676391 0.083765 0.022382
0.712161 0.091662 0.015853
0.750755 0.100370 0.008897
0.790607 0.115674 0.014112
0.824439 0.132821 0.015558
0.853493 0.155895 0.016924
0.888205 0.176080 0.023423
0.920588 0.203163 0.025714
0.963472 0.244924 0.061037
0.000854 0.069734 0.046790
0.000026 0.077340 0.039567
0.001633 0.081716 0.036738
0.022207 0.083669 0.038532
0.050150 0.079491 0.041744
0.070896 0.080485 0.033733
0.089465 0.079730 0.036826
0.115482 0.085776 0.034949
0.149125 0.086374 0.037181
0.183237 0.087304 0.037059
0.226723 0.090987 0.037494
0.270559 0.090705 0.041279
0.308636 0.091729 0.037085
0.343332 0.092433 0.037107
0.377135 0.092406 0.039408
0.413808 0.095547 0.035004
0.453371 0.095102 0.035896
0.493059 0.092689 0.039221
0.529331 0.090945 0.031278
0.563108 0.091882 0.026989
0.597078 0.095825 0.027036
0.629666 0.101721 0.018720
0.662952 0.105851 0.016261
0.694412 0.112365 0.016910
0.722855 0.118589 0.012684
0.760646 0.125124 0.011412
0.802683 0.137831 0.011765
0.834175 0.153787 0.006898
0.863622 0.173034 0.029771
0.893186 0.197886 0.028767
0.928075 0.218395 0.030652
0.967457 0.252293 0.053779
0.000000 0.072999 0.049075
0.000000 0.084599 0.050882
0.000193 0.087691 0.042722
0.004560 0.092820 0.039831
0.023064 0.095255 0.040052
0.054476 0.092910 0.038776
0.087221 0.087940 0.037907
0.107989 0.088239 0.037557
0.132323 0.088962 0.035914
0.156954 0.089584 0.029855
0.190547 0.095267 0.032910
0.227936 0.094939 0.035695
0.264413 0.095177 0.036291
0.297166 0.100297 0.034918
0.330117 0.101735 0.038509
0.366917 0.100818 0.038269
0.402841 0.102393 0.035199
0.439607 0.103873 0.036983
0.476238 0.104098 0.038085
0.509308 0.101738 0.033001
0.544007 0.100108 0.031101
0.579598 0.102991 0.029200
0.615157 0.107570 0.027640
0.647971 0.104379 0.017430
0.681499 0.109545 0.023939
0.717835 0.119094 0.028173
0.755842 0.132873 0.011942
0.788243 0.142684 0.009707
0.823508 0.157912 0.014756
0.855573 0.173358 0.020802
0.892220 0.197596 0.022870
0.931586 0.228598 0.045738
0.000000 0.090330 0.054277
0.000000 0.099918 0.054120
0.000000 0.104330 0.044982
0.000301 0.111848 0.044206
0.007670 0.115341 0.039026
0.046092 0.114688 0.039663
0.091178 0.109637 0.039827
0.119103 0.105563 0.034742
0.145546 0.102835 0.035633
0.168303 0.103334 0.032279
0.194753 0.107928 0.036285
0.225124 0.110137 0.037534
0.258805 0.111904 0.039781
0.290952 0.113690 0.037036
0.325814 0.114387 0.040253
0.362384 0.114019 0.039177
0.398750 0.116992 0.035900
0.435067 0.119036 0.035640
0.469963 0.120552 0.033959
0.504561 0.120610 0.027997
0.538512 0.121201 0.028555
0.573281 0.124961 0.027592
0.608445 0.129395 0.023476
0.643000 0.129853 0.017027
0.676206 0.136443 0.019981
0.713367 0.142165 0.010742
0.756786 0.153052 0.009823
0.789775 0.159431 0.011371
0.822625 0.176860 0.009317
0.856027 0.192408 0.023721
0.894791 0.216161 0.025801
0.929942 0.242355 0.057574
0.000000 0.122802 0.064801
0.000000 0.127296 0.067883
0.000000 0.134408 0.064164
0.000000 0.140698 0.059276
0.003429 0.149545 0.050593
0.039767 0.153351 0.050281
0.116565 0.152109 0.046579
0.157503 0.143547 0.034985
0.187523 0.137286 0.041973
0.213055 0.129700 0.033386
0.236796 0.128218 0.032609
0.260016 0.131864 0.040669
0.287623 0.133563 0.043469
0.320651 0.133950 0.041650
0.354212 0.134998 0.038916
0.389457 0.137287 0.031929
0.426606 0.139104 0.031806
0.462541 0.142596 0.031185
0.496438 0.145419 0.027975
0.530238 0.146644 0.024425
0.566431 0.148956 0.022498
0.602751 0.153093 0.021145
0.638420 0.156388 0.018317
0.672629 0.159028 0.017420
0.704712 0.167040 0.012476
0.740273 0.177674 0.007066
0.779381 0.192928 0.006242
0.813165 0.201464 0.012942
0.847825 0.213721 0.023028
0.881137 0.233317 0.020727
0.919593 0.259788 0.018086
0.957906 0.293232 0.044529
0.000000 0.165148 0.085832
0.000000 0.171897 0.088424
0.000000 0.177952 0.087920
0.000000 0.187239 0.081728
0.001030 0.202380 0.069705
0.026616 0.206902 0.057978
0.136810 0.206082 0.048308
0.202104 0.196859 0.036780
0.243583 0.185980 0.036611
0.270384 0.171263 0.026519
0.288718 0.160971 0.031961
0.307110 0.160056 0.042055
0.332273 0.159479 0.041214
0.358336 0.156965 0.037542
0.387027 0.158485 0.039490
0.417953 0.162294 0.034663
0.450171 0.164722 0.027645
0.484998 0.166599 0.025494
0.517182 0.170744 0.024923
0.548698 0.173273 0.021619
0.582414 0.176234 0.017476
0.617104 0.179370 0.013378
0.652276 0.182616 0.012499
0.685933 0.187816 0.010131
0.718732 0.194964 0.009920
0.752183 0.200692 0.005565
0.787414 0.214443 0.012462
0.819739 0.227257 0.005291
0.850878 0.240365 0.001904
0.883572 0.259828 0.017408
0.918947 0.278578 0.018701
0.955882 0.304459 0.040923
0.000000 0.168193 0.091326
0.000000 0.176192 0.089040
0.000000 0.184938 0.091141
0.000000 0.191612 0.091777
0.000000 0.204409 0.074243
0.008737 0.212998 0.066404
0.072646 0.218687 0.060259
0.163770 0.214108 0.041091
0.221203 0.207161 0.037699
0.255574 0.194502 0.026755
0.282556 0.181862 0.028780
0.301252 0.172569 0.034135
0.320423 0.165926 0.035673
0.339939 0.165230 0.033724
0.362867 0.164903 0.038147
0.390796 0.164822 0.039371
0.418967 0.167459 0.030956
0.450681 0.170209 0.025853
0.480561 0.173036 0.026591
0.509814 0.176237 0.025247
0.542073 0.177941 0.021218
0.574503 0.181791 0.017379
0.607991 0.184790 0.010799
0.642059 0.189334 0.008561
0.674555 0.195753 0.007748
0.710522 0.200737 0.007652
0.749034 0.211836 0.006682
0.783745 0.220457 0.002193
0.816068 0.233228 0.002080
0.849549 0.248345 0.001738
0.886308 0.263327 0.015707
0.924423 0.288979 0.028874
0.000000 0.189374 0.103787
0.000000 0.197281 0.103555
0.000000 0.207409 0.105813
0.000000 0.215234 0.105721
0.000000 0.225615 0.098030
0.001088 0.237449 0.087398
0.029019 0.249696 0.068703
0.141201 0.250694 0.050166
0.219577 0.246983 0.040102
0.265116 0.238239 0.029910
0.302127 0.221636 0.027006
0.329552 0.205358 0.025057
0.348437 0.194479 0.026735
0.363593 0.190169 0.028359
0.381116 0.187374 0.034162
0.403238 0.186242 0.038834
0.428222 0.188856 0.034052
0.457511 0.191711 0.028673
0.485360 0.193474 0.024590
0.513627 0.195688 0.017728
0.543386 0.198616 0.016438
0.576163 0.200814 0.009399
0.609313 0.203556 0.004190
0.644875 0.209814 0.004778
0.675634 0.218763 0.004923
0.713857 0.224324 0.002134
0.753539 0.232993 0.006475
0.786290 0.242574 0.004123
0.820717 0.256624 0.002999
0.857182 0.268551 0.003700
0.891138 0.285281 0.012835
0.925593 0.311045 0.016864
0.000000 0.242125 0.123640
0.000000 0.253888 0.132129
0.000000 0.262356 0.131211
0.000000 0.269846 0.126644
0.000000 0.284082 0.119124
0.000000 0.298898 0.106729
0.019199 0.313618 0.086493
0.126086 0.320480 0.065852
0.236766 0.323594 0.048721
0.305487 0.317469 0.032520
0.354876 0.302594 0.021188
0.389175 0.279474 0.013169
0.414003 0.258185 0.010100
0.427972 0.243258 0.010297
0.441074 0.233861 0.018544
0.456600 0.229159 0.026703
0.477229 0.227206 0.026075
0.502337 0.227204 0.021616
0.527260 0.229963 0.018047
0.553649 0.232172 0.014954
0.580616 0.234997 0.010248
0.610277 0.238175 0.003335
0.641301 0.243400 0.000331
0.672592 0.249207 0.000323
0.706230 0.256823 0.003732
0.745104 0.263634 0.000909
0.782558 0.272667 0.000000
0.814603 0.283406 0.000000
0.847363 0.296507 0.003152
0.881232 0.311634 0.009592
0.914356 0.330707 0.026245
0.949636 0.357116 0.046426
0.000000 0.299858 0.149637
0.000000 0.307197 0.153701
0.000000 0.315638 0.152418
0.000000 0.324523 0.149755
0.000000 0.338754 0.141692
0.000000 0.355387 0.128918
0.011859 0.371943 0.111356
0.091685 0.382668 0.086099
0.221902 0.390044 0.058215
0.318969 0.388613 0.043803
0.388531 0.374047 0.020393
0.430099 0.351264 0.003675
0.457062 0.325672 0.000690
0.475704 0.301516 0.000850
0.490271 0.281536 0.002694
0.501018 0.268688 0.008885
0.514125 0.261794 0.015243
0.534581 0.257732 0.014724
0.555240 0.257419 0.015017
0.575989 0.260083 0.015875
0.599436 0.263534 0.013454
0.627714 0.265642 0.006535
0.655707 0.269029 0.001125
0.682625 0.272645 0.000000
0.713260 0.279329 0.000000
0.748826 0.287266 0.000000
0.784035 0.297324 0.000000
0.816520 0.307580 0.000000
0.847666 0.320365 0.000992
0.879213 0.334795 0.010628
0.913046 0.352675 0.025469
0.943532 0.372802 0.043564
0.000000 0.303384 0.152514
0.000000 0.311662 0.155202
0.000000 0.321751 0.154156
0.000000 0.331312 0.157822
0.000000 0.341797 0.150031
0.000000 0.355814 0.140163
0.000979 0.371468 0.119736
0.027622 0.386665 0.096526
0.135151 0.394772 0.071239
0.252426 0.400966 0.059828
0.347405 0.393458 0.036793
0.402629 0.379485 0.011202
0.436469 0.359937 0.000331
0.464036 0.334532 0.000000
0.485166 0.308821 0.000000
0.499344 0.288716 0.003856
0.510774 0.276420 0.008821
0.524269 0.269871 0.010251
0.538246 0.266857 0.012115
0.556105 0.267050 0.016356
0.577076 0.267201 0.020625
0.603335 0.268452 0.013117
0.628436 0.270077 0.004387
0.654528 0.271683 0.003223
0.682076 0.277706 0.000783
0.714578 0.285455 0.000000
0.752032 0.294531 0.000000
0.784545 0.304693 0.000000
0.817049 0.317500 0.000000
0.847475 0.329892 0.000000
0.879979 0.343695 0.000072
0.916295 0.364571 0.009092
0.000000 0.329056 0.163338
0.000000 0.342119 0.166739
0.000000 0.351017 0.168158
0.000000 0.360233 0.168013
0.000000 0.371271 0.161496
0.000000 0.384334 0.152165
0.000000 0.400582 0.135936
0.009232 0.419351 0.116744
0.075240 0.432357 0.095929
0.207651 0.441585 0.076895
0.318396 0.442902 0.048010
0.399518 0.436730 0.015795
0.452544 0.422817 0.002799
0.487517 0.400007 0.000000
0.514864 0.372376 0.000000
0.535891 0.345805 0.000000
0.549923 0.323297 0.000000
0.559171 0.309462 0.002230
0.567489 0.302543 0.005295
0.580581 0.297212 0.007568
0.598542 0.293353 0.009030
0.622101 0.294109 0.007831
0.643590 0.297674 0.005483
0.668262 0.299613 0.004609
0.693017 0.304874 0.001024
0.724967 0.311404 0.000000
0.758064 0.321593 0.000000
0.786871 0.330252 0.000000
0.820971 0.342077 0.000000
0.850223 0.355688 0.000000
0.881514 0.369527 0.000303
0.918722 0.390030 0.017212
0.000000 0.404681 0.191904
0.000000 0.414646 0.198333
0.000000 0.422701 0.200133
0.000000 0.431599 0.196865
0.000000 0.440856 0.191215
0.000000 0.452770 0.183014
0.000000 0.470167 0.171163
0.009523 0.487078 0.153970
0.077360 0.504821 0.133851
0.210275 0.516687 0.110648
0.320728 0.524340 0.080924
0.418505 0.523485 0.049184
0.490204 0.515518 0.024939
0.538229 0.498575 0.006965
0.576152 0.473047 0.001138
0.603552 0.442737 0.000000
0.621225 0.411123 0.000000
0.629830 0.386238 0.000000
0.636006 0.371107 0.000000
0.645252 0.359564 0.000218
0.657813 0.352061 0.000581
0.676534 0.349217 0.001111
0.696205 0.348659 0.001620
0.714341 0.350703 0.000451
0.736612 0.355166 0.000000
0.765980 0.359573 0.000000
0.795047 0.368484 0.000000
0.824171 0.380592 0.000000
0.852250 0.389762 0.000000
0.879906 0.402277 0.000333
0.907345 0.417256 0.002473
0.940101 0.438710 0.031119
0.000000 0.456926 0.208792
0.000000 0.466763 0.215619
0.000000 0.471861 0.216560
0.000000 0.480375 0.217470
0.000000 0.485348 0.216655
0.000000 0.497635 0.207027
0.000000 0.512724 0.195929
0.006802 0.527279 0.182784
0.061581 0.544797 0.165519
0.183943 0.557563 0.145899
0.295283 0.567425 0.119757
0.396584 0.571457 0.092650
0.479921 0.570666 0.060377
0.545482 0.559803 0.029910
0.595722 0.540269 0.006627
0.627106 0.513971 0.000000
0.647717 0.481993 0.000000
0.662193 0.450995 0.000000
0.672868 0.424621 0.000000
0.681627 0.404447 0.000000
0.689727 0.391611 0.000000
0.701800 0.383646 0.000000
0.715709 0.380145 0.000000
0.727611 0.380413 0.000000
0.748631 0.381919 0.000000
0.774493 0.384228 0.000000
0.800186 0.391396 0.000000
0.827264 0.402375 0.000000
0.851269 0.412300 0.000000
0.876987 0.423737 0.000333
0.905877 0.435113 0.002192
0.932700 0.456546 0.019924
0.000000 0.458776 0.209164
0.000000 0.469343 0.210932
0.000000 0.474810 0.212977
0.000000 0.484264 0.217561
0.000000 0.487068 0.216648
0.000000 0.501686 0.212521
0.000000 0.513731 0.205026
0.000000 0.526786 0.194686
0.019854 0.540244 0.182019
0.112614 0.554603 0.164439
0.234264 0.566817 0.138957
0.336686 0.573987 0.115201
0.421478 0.578184 0.090308
0.499742 0.575952 0.066479
0.564487 0.564414 0.028658
0.607411 0.544293 0.004082
0.635075 0.517705 0.000000
0.656708 0.488976 0.000000
0.674117 0.459424 0.000000
0.685340 0.432671 0.000000
0.691464 0.414275 0.000000
0.697990 0.400952 0.000000
0.706491 0.394027 0.000000
0.717553 0.390454 0.000000
0.738584 0.389235 0.000000
0.760640 0.391964 0.000000
0.783244 0.399240 0.000000
0.807435 0.403089 0.000000
0.831874 0.409622 0.000000
0.856058 0.421018 0.000000
0.884302 0.430775 0.000000
0.912247 0.451202 0.000830
0.000000 0.487951 0.222296
0.000000 0.498911 0.225646
0.000000 0.507362 0.231855
0.000000 0.511879 0.233303
0.000000 0.515842 0.228341
0.000000 0.527781 0.228661
0.000000 0.538177 0.227172
0.003916 0.549864 0.220595
0.038250 0.563053 0.207356
0.128243 0.578617 0.192525
0.231402 0.594247 0.173028
0.323529 0.603352 0.153496
0.405233 0.608616 0.132431
0.484901 0.611841 0.114222
0.559130 0.608017 0.086464
0.613577 0.594775 0.050479
0.649273 0.575780 0.020230
0.674848 0.551548 0.003616
0.696284 0.523277 0.000000
0.713298 0.494837 0.000000
0.722560 0.469892 0.000000
0.727313 0.450600 0.000000
0.738408 0.436911 0.000000
0.748858 0.428286 0.000000
0.761455 0.427256 0.000000
0.780352 0.428542 0.000000
0.798987 0.431261 0.000000
0.820164 0.436317 0.000000
0.845786 0.437288 0.000000
0.867349 0.447870 0.000000
0.892385 0.458351 0.000000
0.920849 0.476478 0.000000
0.000000 0.562445 0.263552
0.000000 0.572954 0.271659
0.000422 0.576216 0.271914
0.007669 0.577541 0.271656
0.020501 0.582051 0.274987
0.037672 0.590581 0.276596
0.058461 0.598457 0.275991
0.113719 0.610938 0.271201
0.172367 0.622238 0.268677
0.245620 0.636502 0.256452
0.316050 0.651550 0.242257
0.388139 0.661279 0.230761
0.457529 0.666537 0.216716
0.527491 0.671244 0.201856
0.596081 0.673322 0.183864
0.649889 0.667427 0.157656
0.691620 0.653875 0.122828
0.724376 0.634298 0.086232
0.748222 0.610392 0.037292
0.766320 0.583913 0.005353
0.779365 0.556487 0.000000
0.787306 0.531127 0.000000
0.797066 0.512351 0.000000
0.805767 0.497614 0.000000
0.815522 0.489997 0.000000
0.830566 0.490729 0.000000
0.847007 0.489706 0.000000
0.862109 0.493312 0.000000
0.885153 0.497343 0.000000
0.904897 0.506704 0.000000
0.927887 0.518241 0.000273
0.954079 0.537445 0.006009
0.000000 0.600791 0.290813
0.000000 0.609221 0.297479
0.000244 0.609411 0.294995
0.004440 0.613441 0.294711
0.011869 0.618561 0.296198
0.028057 0.622761 0.294000
0.083059 0.628187 0.294816
0.168609 0.638609 0.293763
0.236827 0.647642 0.295361
0.282167 0.660098 0.286124
0.334388 0.673288 0.275508
0.396488 0.683272 0.266920
0.455393 0.689976 0.256074
0.518187 0.694636 0.241724
0.584590 0.698229 0.226721
0.645486 0.697099 0.212651
0.693526 0.688652 0.187253
0.731307 0.674414 0.149973
0.759086 0.655922 0.083828
0.776489 0.632970 0.024066
0.790360 0.607104 0.002858
0.803211 0.579683 0.000000
0.813441 0.554934 0.000000
0.820728 0.534585 0.000000
0.829943 0.519843 0.000000
0.841558 0.512942 0.000000
0.855093 0.511606 0.000000
0.866236 0.513861 0.000000
0.884319 0.513101 0.000000
0.902430 0.518230 0.000000
0.923819 0.528402 0.000158
0.949003 0.551092 0.003479
0.000000 0.606808 0.298435
0.000000 0.614602 0.299328
0.000000 0.615963 0.300711
0.000000 0.620769 0.302528
0.000000 0.623457 0.299828
0.006970 0.628442 0.300081
0.061974 0.634698 0.297952
0.157830 0.641581 0.293949
0.228419 0.649856 0.297018
0.267794 0.662079 0.293962
0.313168 0.675244 0.284845
0.372848 0.684710 0.274231
0.429520 0.692897 0.266635
0.488239 0.698532 0.256420
0.551615 0.703523 0.243001
0.616158 0.704977 0.230688
0.671338 0.702659 0.212828
0.714188 0.695920 0.183827
0.747095 0.681940 0.138509
0.767516 0.662290 0.084494
0.781141 0.642121 0.029268
0.798760 0.615910 0.003289
0.816195 0.589186 0.000000
0.828254 0.564836 0.000000
0.831795 0.546223 0.000000
0.841282 0.535102 0.000000
0.848708 0.525898 0.000000
0.862165 0.523878 0.000000
0.876680 0.522825 0.000000
0.892809 0.524751 0.000000
0.911196 0.532827 0.000000
0.934393 0.548419 0.000000
0.000000 0.635088 0.309796
0.000047 0.641302 0.317011
0.002271 0.643419 0.320700
0.014901 0.647578 0.321745
0.029829 0.648414 0.320366
0.079794 0.651917 0.322395
0.147523 0.658427 0.321369
0.201154 0.667152 0.317975
0.254422 0.676733 0.321422
0.305793 0.684897 0.319102
0.351456 0.696808 0.314963
0.399976 0.707923 0.306287
0.448869 0.719238 0.303525
0.504756 0.724862 0.296513
0.563161 0.728752 0.285324
0.621532 0.733977 0.276673
0.676750 0.735347 0.267018
0.721904 0.732269 0.245868
0.757869 0.723818 0.211864
0.786031 0.708694 0.175163
0.802973 0.692712 0.127023
0.817839 0.672339 0.072015
0.831904 0.647634 0.023911
0.847582 0.622601 0.002904
0.858494 0.601129 0.000000
0.870075 0.583417 0.000000
0.876352 0.567903 0.000000
0.889514 0.559577 0.000000
0.894221 0.559816 0.000000
0.910122 0.561382 0.000000
0.927369 0.569087 0.000142
0.952657 0.577751 0.011741
0.141840 0.691840 0.356610
0.162908 0.695392 0.364487
0.178760 0.694518 0.369670
0.194797 0.703125 0.370677
0.217944 0.702808 0.369134
0.257910 0.705881 0.370060
0.300459 0.711022 0.370569
0.334532 0.719248 0.371148
0.373177 0.729059 0.376091
0.416302 0.736984 0.374128
0.452634 0.748271 0.374057
0.484620 0.759201 0.370090
0.523055 0.771621 0.367404
0.569472 0.778382 0.361901
0.621985 0.781065 0.354021
0.673331 0.788724 0.348626
0.720632 0.793322 0.341771
0.763798 0.793728 0.331089
0.801920 0.788405 0.314567
0.830296 0.776730 0.289152
0.849073 0.764880 0.257672
0.865726 0.750133 0.211706
0.880227 0.731307 0.156742
0.889772 0.708201 0.102104
0.905448 0.686215 0.034815
0.916916 0.665336 0.003704
0.923488 0.650004 0.000000
0.936981 0.640606 0.002851
0.939433 0.635051 0.005368
0.959531 0.633409 0.018818
0.974177 0.640317 0.059840
0.989121 0.655250 0.098103
0.228463 0.729285 0.382480
0.252200 0.728104 0.389227
0.270837 0.726337 0.399507
0.282706 0.728675 0.394392
0.300335 0.730049 0.394646
0.322298 0.733075 0.395299
0.351637 0.739870 0.398870
0.379801 0.745749 0.399865
0.411646 0.751851 0.397385
0.445285 0.759047 0.397391
0.474743 0.768764 0.397168
0.504743 0.779491 0.394749
0.540683 0.789260 0.392822
0.577413 0.798297 0.387126
0.619597 0.802688 0.380283
0.668621 0.806298 0.373916
0.715281 0.811870 0.366982
0.759655 0.814091 0.359321
0.799255 0.812577 0.350089
0.828873 0.807665 0.334105
0.850711 0.798869 0.309537
0.872499 0.784258 0.274039
0.885935 0.767741 0.225652
0.896710 0.747462 0.172630
0.907126 0.725645 0.090120
0.919523 0.704718 0.018759
0.930697 0.679557 0.001044
0.944152 0.664314 0.000868
0.948238 0.659632 0.001634
0.965472 0.651024 0.005727
0.976673 0.650613 0.018237
0.988962 0.661544 0.039279
0.225206 0.732970 0.388331
0.239956 0.740499 0.390813
0.265756 0.733165 0.398666
0.275880 0.734717 0.399777
0.290196 0.740033 0.397550
0.312404 0.739623 0.397474
0.348516 0.744492 0.401760
0.365733 0.753275 0.400418
0.398368 0.758526 0.400803
0.435631 0.763859 0.404969
0.462404 0.773321 0.406351
0.491204 0.786463 0.402758
0.527457 0.796245 0.398248
0.562965 0.805749 0.392312
0.604345 0.812373 0.383952
0.651678 0.815206 0.378955
0.697008 0.821646 0.380066
0.743302 0.824517 0.378159
0.787777 0.823930 0.371245
0.822272 0.824102 0.360313
0.849397 0.819031 0.338998
0.871374 0.805738 0.311638
0.884585 0.792507 0.272811
0.895006 0.776980 0.232375
0.907093 0.757716 0.171326
0.924312 0.736464 0.105753
0.935782 0.712689 0.021470
0.950027 0.692317 0.000980
0.954847 0.682097 0.000000
0.968611 0.671321 0.000000
0.974787 0.672303 0.000010
0.994727 0.680337 0.003273
0.275466 0.757741 0.408396
0.292771 0.763852 0.414803
0.309901 0.759611 0.421689
0.313971 0.759958 0.422271
0.335058 0.762742 0.420354
0.356996 0.764299 0.418219
0.383753 0.768721 0.425098
0.401451 0.779689 0.426281
0.432979 0.785655 0.426116
0.468217 0.788861 0.428544
0.495770 0.798373 0.431525
0.520883 0.810134 0.431420
0.554536 0.820471 0.429304
0.588871 0.830257 0.425407
0.625002 0.840569 0.423627
0.667637 0.846544 0.421922
0.712471 0.849437 0.419765
0.755762 0.852861 0.414904
0.794599 0.856133 0.409628
0.832369 0.856532 0.401659
0.864191 0.853579 0.390145
0.887113 0.847724 0.369198
0.903651 0.840076 0.340952
0.917328 0.828210 0.315081
0.924310 0.815337 0.269807
0.941782 0.799032 0.221845
0.953316 0.774942 0.151396
0.972686 0.756849 0.088760
0.981569 0.744336 0.041764
0.991701 0.730407 0.027896
0.993293 0.724790 0.022662
0.999486 0.731357 0.037943
0.405755 0.808412 0.471584
0.411068 0.812128 0.469073
0.415670 0.815302 0.478161
0.423675 0.812699 0.472160
0.441948 0.812521 0.474388
0.453238 0.817422 0.471454
0.472542 0.825568 0.476690
0.496396 0.829856 0.482167
0.516304 0.840004 0.485950
0.548896 0.845423 0.487646
0.576801 0.852535 0.491148
0.597388 0.861859 0.493029
0.626053 0.872640 0.492403
0.656548 0.880197 0.492120
0.689341 0.887640 0.492977
0.722528 0.892508 0.490841
0.758232 0.896920 0.487651
0.796603 0.901527 0.487597
0.833219 0.903740 0.486029
0.867241 0.905516 0.482514
0.898236 0.905416 0.478187
0.921061 0.904058 0.459161
0.940045 0.900085 0.437789
