FILES/EXPOSED_BW-132e5050.cube
TITLE "/Users/aaronseiha/Desktop/EXPOSED_BW"
LUT_3D_SIZE 8
DOMAIN_MIN 0.000000 0.000000 0.000000
DOMAIN_MAX 0.903226 0.903226 0.903226
0.000000 0.000000 0.000000
0.007294 0.003555 0.007294
0.013596 0.009064 0.016358
0.016358 0.023651 0.034302
0.018921 0.064805 0.075792
0.046525 0.128588 0.135531
0.158343 0.221561 0.219760
0.357931 0.377890 0.363134
0.014191 0.009857 0.017746
0.015579 0.013993 0.023072
0.016159 0.022080 0.032334
0.017151 0.042313 0.053315
0.023270 0.088731 0.098726
0.073259 0.155108 0.159411
0.197116 0.250340 0.245960
0.402228 0.415885 0.398703
0.017548 0.047761 0.058961
0.018341 0.054780 0.066056
0.019913 0.073259 0.083909
0.028000 0.101183 0.110338
0.071839 0.153811 0.158282
0.160037 0.222782 0.220859
0.298894 0.328969 0.317952
0.515862 0.517571 0.497169
0.069062 0.151125 0.155932
0.078614 0.159655 0.163592
0.105760 0.181735 0.183566
0.157519 0.220981 0.219226
0.238209 0.281224 0.274144
0.335760 0.359228 0.345846
0.485710 0.490059 0.469917
0.684184 0.676875 0.663874
0.342962 0.365255 0.351431
0.355764 0.376028 0.361410
0.388571 0.404059 0.387564
0.447242 0.455497 0.436362
0.543557 0.543069 0.522896
0.638743 0.632898 0.616556
0.742321 0.734249 0.726390
0.835340 0.828168 0.827832
0.690166 0.682734 0.670222
0.698283 0.690700 0.678859
0.718013 0.710140 0.700053
0.749310 0.741238 0.734035
0.793088 0.785260 0.781949
0.832425 0.825177 0.824674
0.865568 0.859098 0.860349
0.883543 0.877592 0.879530
0.873915 0.867658 0.869245
0.874998 0.868772 0.870420
0.877440 0.871305 0.873030
0.880720 0.874678 0.876524
0.883711 0.877760 0.879698
0.883574 0.877607 0.879545
0.877821 0.871687 0.873426
0.860288 0.853681 0.854688
0.851392 0.844572 0.845151
0.850278 0.843427 0.843931
0.847364 0.840452 0.840818
0.842039 0.834989 0.835050
0.832258 0.825025 0.824491
0.819043 0.811566 0.810193
0.799359 0.791592 0.788785
0.768643 0.760601 0.755184
0.002167 0.000992 0.002167
0.008484 0.003937 0.008286
0.014786 0.011231 0.019516
0.016556 0.029175 0.040009
0.019715 0.071839 0.082643
0.053483 0.136126 0.142214
0.168551 0.229191 0.226688
0.368231 0.386587 0.371252
0.014588 0.011048 0.019318
0.015778 0.014984 0.024247
0.016358 0.025238 0.036072
0.017548 0.047761 0.058808
0.025437 0.095399 0.105013
0.081239 0.161944 0.165591
0.207126 0.257786 0.252796
0.412192 0.424536 0.406882
0.017945 0.050675 0.061784
0.018341 0.057282 0.068391
0.020310 0.074784 0.085618
0.029374 0.104829 0.113710
0.078004 0.159030 0.162982
0.168261 0.228901 0.226429
0.308049 0.336431 0.324788
0.525017 0.525963 0.505577
0.072496 0.154452 0.158846
0.082185 0.162737 0.166369
0.109071 0.184314 0.185870
0.160281 0.222950 0.221027
0.242466 0.284504 0.277165
0.342046 0.364492 0.350713
0.494072 0.497642 0.477363
0.689693 0.682292 0.669734
0.347662 0.369223 0.355077
0.360250 0.379797 0.364904
0.392752 0.407645 0.390936
0.450736 0.458579 0.439338
0.546349 0.545693 0.525536
0.641794 0.635813 0.619684
0.745449 0.737392 0.729824
0.837125 0.829999 0.829770
0.693507 0.686000 0.673762
0.701503 0.693843 0.682292
0.720806 0.712902 0.703059
0.751507 0.743420 0.736431
0.794507 0.786679 0.783490
0.833310 0.826093 0.825635
0.866133 0.859663 0.860945
0.883650 0.877699 0.879652
0.874357 0.868116 0.869749
0.875410 0.869200 0.870863
0.877791 0.871656 0.873381
0.880949 0.874907 0.876768
0.883772 0.877821 0.879774
0.883497 0.877531 0.879484
0.877623 0.871489 0.873213
0.859846 0.853223 0.854231
0.850935 0.844099 0.844648
0.849805 0.842939 0.843427
0.846860 0.839933 0.840269
0.841459 0.834409 0.834440
0.831662 0.824399 0.823835
0.818402 0.810910 0.809476
0.798703 0.790936 0.788067
0.767956 0.759915 0.754421
0.007889 0.003738 0.007691
0.011429 0.006302 0.012421
0.015579 0.013214 0.021683
0.016556 0.033310 0.044373
0.021485 0.080766 0.091203
0.065919 0.148272 0.153292
0.188495 0.243931 0.240131
0.388846 0.404288 0.387808
0.015778 0.013794 0.022675
0.016159 0.017945 0.027604
0.016556 0.028580 0.039612
0.018143 0.053635 0.065080
0.029770 0.105394 0.114137
0.096315 0.174166 0.176715
0.227497 0.273106 0.266804
0.432700 0.442603 0.424018
0.018341 0.055253 0.066484
0.018723 0.061936 0.073136
0.021088 0.079576 0.090028
0.033509 0.111955 0.120333
0.090028 0.169146 0.172168
0.185168 0.241474 0.237888
0.328222 0.353002 0.340093
0.543801 0.543313 0.523125
0.080659 0.161395 0.165164
0.090669 0.169680 0.172564
0.117067 0.190524 0.191546
0.167788 0.228550 0.226139
0.252491 0.292241 0.284276
0.356680 0.376837 0.362142
0.512367 0.514366 0.493965
0.701335 0.693690 0.682109
0.358709 0.378561 0.363760
0.371221 0.389166 0.373632
0.402914 0.416480 0.399252
0.459541 0.466484 0.446937
0.553521 0.552331 0.532326
0.649073 0.642817 0.627176
0.752880 0.744808 0.737942
0.840986 0.833936 0.833936
0.701244 0.693599 0.682017
0.708995 0.701244 0.690364
0.727657 0.719692 0.710475
0.757000 0.748943 0.742443
0.798169 0.790387 0.787488
0.835554 0.828367 0.828061
0.867552 0.861128 0.862470
0.883864 0.877928 0.879866
0.875364 0.869154 0.870817
0.876371 0.870176 0.871885
0.878584 0.872480 0.874250
0.881468 0.875456 0.877317
0.883925 0.877974 0.879927
0.883299 0.877317 0.879255
0.877058 0.870909 0.872633
0.858717 0.852064 0.853010
0.849836 0.842969 0.843458
0.848676 0.841779 0.842206
0.845670 0.838712 0.838987
0.840146 0.833082 0.833021
0.830137 0.822858 0.822202
0.816754 0.809232 0.807691
0.796979 0.789181 0.786191
0.766140 0.758083 0.752438
0.012619 0.007691 0.014588
0.014588 0.010651 0.018723
0.016159 0.019120 0.029175
0.016953 0.038636 0.049836
0.023072 0.088396 0.098329
0.079454 0.160342 0.164141
0.211139 0.260777 0.255528
0.413993 0.426123 0.408347
0.016159 0.019120 0.029175
0.016556 0.023453 0.034104
0.016754 0.035492 0.046708
0.018341 0.060304 0.071321
0.035096 0.114321 0.122393
0.112749 0.187243 0.188540
0.251316 0.291325 0.283421
0.457725 0.464851 0.445380
0.018723 0.062806 0.073899
0.019318 0.070130 0.081010
0.023270 0.088502 0.098436
0.040406 0.121157 0.128740
0.104921 0.181079 0.183032
0.206943 0.257633 0.252613
0.353719 0.374319 0.359823
0.565927 0.563897 0.544213
0.092164 0.170840 0.173709
0.102831 0.179370 0.181460
0.130663 0.200809 0.200900
0.181460 0.238651 0.235370
0.270237 0.306127 0.296971
0.380209 0.396841 0.380804
0.537346 0.537346 0.517067
0.714687 0.706859 0.696468
0.376944 0.394049 0.378210
0.389166 0.404532 0.388006
0.420371 0.431693 0.413657
0.475334 0.480690 0.460746
0.566415 0.564370 0.544686
0.662287 0.655589 0.640879
0.763912 0.755856 0.750011
0.845762 0.838819 0.839094
0.712764 0.704936 0.694377
0.720241 0.712337 0.702449
0.738003 0.729961 0.721706
0.765866 0.757809 0.752132
0.804318 0.796613 0.794186
0.839475 0.832380 0.832303
0.869917 0.863554 0.864988
0.884062 0.878141 0.880095
0.876738 0.870558 0.872267
0.877638 0.871504 0.873228
0.879637 0.873564 0.875380
0.882185 0.876204 0.878096
0.884062 0.878141 0.880095
0.882856 0.876875 0.878798
0.876020 0.869825 0.871519
0.856641 0.849928 0.850767
0.848249 0.841352 0.841749
0.847028 0.840101 0.840436
0.843870 0.836896 0.837049
0.838087 0.830961 0.830793
0.827649 0.820340 0.819516
0.813886 0.806332 0.804593
0.793896 0.786068 0.782834
0.762905 0.754849 0.748913
0.015778 0.015778 0.024842
0.016159 0.019516 0.029374
0.016556 0.030365 0.041184
0.018143 0.052995 0.064088
0.027604 0.100893 0.110079
0.093736 0.172168 0.174914
0.235767 0.279362 0.272496
0.444175 0.452735 0.433738
0.016556 0.029770 0.040604
0.016556 0.034897 0.045808
0.017746 0.048447 0.059571
0.020111 0.075166 0.085725
0.045457 0.127413 0.134432
0.130205 0.200412 0.200565
0.277073 0.311482 0.301885
0.487190 0.491432 0.471244
0.020706 0.078370 0.088945
0.022278 0.085725 0.095903
0.029374 0.104631 0.113527
0.054780 0.137804 0.143755
0.123842 0.195712 0.196216
0.229267 0.274449 0.268040
0.382010 0.398398 0.382284
0.590356 0.586831 0.567971
0.111681 0.186389 0.187808
0.123354 0.195254 0.195865
0.153231 0.217762 0.216281
0.206088 0.256977 0.252003
0.294972 0.325780 0.315007
0.408591 0.421393 0.403891
0.563867 0.561975 0.542214
0.725521 0.717540 0.708141
0.400702 0.414557 0.397436
0.413428 0.425635 0.407904
0.445609 0.454002 0.434958
0.501350 0.504295 0.483925
0.589014 0.585550 0.566629
0.681163 0.673930 0.660685
0.774105 0.766110 0.761196
0.848341 0.841443 0.841856
0.727337 0.719371 0.710124
0.734249 0.726238 0.717632
0.751003 0.742947 0.735897
0.777066 0.769085 0.764416
0.813626 0.806073 0.804303
0.845899 0.838941 0.839216
0.873213 0.866941 0.868513
0.884108 0.878172 0.880125
0.878065 0.871946 0.873701
0.878904 0.872801 0.874586
0.880705 0.874678 0.876524
0.882933 0.876951 0.878874
0.884108 0.878172 0.880125
0.881941 0.875944 0.877836
0.874052 0.867811 0.869413
0.852995 0.846204 0.846845
0.846494 0.839551 0.839857
0.845121 0.838148 0.838392
0.841611 0.834577 0.834607
0.835218 0.828031 0.827695
0.823835 0.816434 0.815366
0.809155 0.801526 0.799451
0.788556 0.780667 0.776989
0.757229 0.749157 0.742687
0.016358 0.027802 0.038636
0.016754 0.032532 0.043626
0.017350 0.045808 0.056977
0.019715 0.072099 0.082887
0.042130 0.123690 0.130968
0.120836 0.193393 0.194095
0.263157 0.300496 0.291829
0.478965 0.483970 0.463935
0.017548 0.044724 0.055879
0.017945 0.050340 0.061494
0.019120 0.065782 0.076783
0.025238 0.095399 0.104921
0.067842 0.150210 0.155032
0.159274 0.222248 0.220417
0.305715 0.334524 0.323049
0.522667 0.523812 0.503410
0.026612 0.098329 0.107713
0.030167 0.105852 0.114672
0.043626 0.125048 0.132250
0.078126 0.159213 0.163165
0.154650 0.218784 0.217273
0.261326 0.299107 0.290532
0.414130 0.426261 0.408484
0.620981 0.615869 0.598489
0.143053 0.210117 0.209384
0.154650 0.218784 0.217273
0.184161 0.240772 0.237186
0.236789 0.280156 0.273213
0.327443 0.352316 0.339483
0.443061 0.451774 0.432792
0.595239 0.591470 0.572793
0.743633 0.735561 0.727840
0.439307 0.448417 0.429572
0.451987 0.459724 0.440406
0.483345 0.487907 0.467781
0.535607 0.535714 0.515419
0.615320 0.610498 0.592782
0.703090 0.695415 0.684001
0.786358 0.778454 0.774594
0.851301 0.844480 0.845045
0.748959 0.740887 0.733654
0.754986 0.746899 0.740230
0.769360 0.761334 0.755978
0.791760 0.783917 0.780499
0.823728 0.816342 0.815274
0.852934 0.846143 0.846799
0.875822 0.869627 0.871305
0.884047 0.878111 0.880064
0.879561 0.873487 0.875288
0.880247 0.874174 0.876020
0.881727 0.875715 0.877592
0.883482 0.877516 0.879454
0.883925 0.877989 0.879942
0.880659 0.874617 0.876463
0.871397 0.865080 0.866575
0.848508 0.841611 0.842023
0.845670 0.838712 0.838987
0.844236 0.837232 0.837430
0.840452 0.833387 0.833341
0.833371 0.826185 0.825727
0.820432 0.812985 0.811704
0.803983 0.796292 0.793835
0.782010 0.774060 0.769833
0.750179 0.742107 0.734997
0.017350 0.046174 0.057282
0.018143 0.051682 0.062943
0.019120 0.067430 0.078370
0.026413 0.097932 0.107347
0.074281 0.155871 0.160098
0.174060 0.233234 0.230365
0.325017 0.350362 0.337636
0.538705 0.538613 0.518349
0.019120 0.065644 0.076783
0.019516 0.072236 0.082994
0.023270 0.089494 0.099428
0.041184 0.122225 0.129671
0.106325 0.182162 0.183948
0.213611 0.262699 0.257237
0.368231 0.386587 0.371252
0.580194 0.577264 0.557992
0.042496 0.123919 0.131197
0.048798 0.131350 0.138018
0.068803 0.150927 0.155749
0.111498 0.186175 0.187655
0.198108 0.251102 0.246647
0.315358 0.342367 0.330297
0.477165 0.482338 0.462333
0.669047 0.662120 0.647913
0.182757 0.239689 0.236225
0.193698 0.247807 0.243656
0.222599 0.269398 0.263340
0.274617 0.309529 0.300099
0.368902 0.387167 0.371801
0.494224 0.497795 0.477501
0.644923 0.638819 0.622889
0.775158 0.767147 0.762310
0.492805 0.496498 0.476249
0.503319 0.506065 0.485695
0.529305 0.529900 0.509575
0.572335 0.569894 0.550378
0.645762 0.639628 0.623758
0.729610 0.721630 0.712612
0.808026 0.800381 0.798230
0.861784 0.855222 0.856291
0.784390 0.776455 0.772427
0.788464 0.780575 0.776898
0.798367 0.790600 0.787701
0.814267 0.806729 0.805005
0.837415 0.830259 0.830045
0.860487 0.853880 0.854917
0.879332 0.873259 0.875059
0.883650 0.877699 0.879637
0.882750 0.876768 0.878691
0.883070 0.877089 0.879026
0.883680 0.877729 0.879667
0.884108 0.878187 0.880140
0.883055 0.877073 0.879011
0.878614 0.872511 0.874281
0.867689 0.861265 0.862608
0.844755 0.837781 0.837995
0.843046 0.836042 0.836149
0.841672 0.834638 0.834684
0.838041 0.830915 0.830747
0.831144 0.823880 0.823285
0.818021 0.810544 0.809079
0.799832 0.792081 0.789303
0.774411 0.766415 0.761501
0.741146 0.733089 0.725139
0.019516 0.070527 0.081361
0.020310 0.077150 0.087739
0.025238 0.094881 0.104540
0.047059 0.129351 0.136202
0.122469 0.194598 0.195254
0.246494 0.287556 0.279957
0.426612 0.437201 0.418906
0.648966 0.642725 0.627054
0.024445 0.092164 0.101961
0.027008 0.099321 0.108629
0.038056 0.118166 0.125917
0.071717 0.153613 0.158022
0.156893 0.220508 0.218830
0.285161 0.317952 0.307805
0.468772 0.474769 0.454963
0.680385 0.673182 0.659876
0.070802 0.152895 0.157397
0.079454 0.160464 0.164263
0.103883 0.180255 0.182223
0.152514 0.217227 0.215839
0.249378 0.289815 0.282063
0.383658 0.399817 0.383597
0.570550 0.568200 0.548638
0.745159 0.737102 0.729519
0.226566 0.272450 0.266163
0.237156 0.280461 0.273487
0.264698 0.301732 0.292943
0.316274 0.343130 0.330983
0.415671 0.427604 0.409751
0.552605 0.551476 0.531441
0.704479 0.696788 0.685496
0.818601 0.811109 0.809689
0.546624 0.545922 0.525795
0.554177 0.552956 0.532952
0.573190 0.570703 0.551217
0.609369 0.604822 0.586816
0.676905 0.669795 0.656199
0.756741 0.748669 0.742138
0.831144 0.823880 0.823285
0.874998 0.868772 0.870420
0.817594 0.810101 0.808621
0.819745 0.812284 0.810941
0.824933 0.817578 0.816587
0.833890 0.826688 0.826276
0.849012 0.842145 0.842588
0.867536 0.861112 0.862455
0.882414 0.876417 0.878325
0.880888 0.874846 0.876707
0.883436 0.877470 0.879423
0.883268 0.877302 0.879240
0.882780 0.876799 0.878721
0.881651 0.875624 0.877501
0.878889 0.872801 0.874586
0.874006 0.867750 0.869368
0.862882 0.856336 0.857481
0.836606 0.829465 0.829206
0.825971 0.818616 0.817700
0.824720 0.817349 0.816342
0.821485 0.814038 0.812833
0.815412 0.807889 0.806241
0.804074 0.796368 0.793912
0.788388 0.780514 0.776806
0.765072 0.757031 0.751278
0.730251 0.722255 0.713283
