FILES/EXPOSED_BW-132e5050.cube
TITLE "/Users/aaronseiha/Desktop/EXPOSED_BW"
LUT_3D_SIZE 5
DOMAIN_MIN 0.000000 0.000000 0.000000
DOMAIN_MAX 0.903226 0.903226 0.903226
0.000000 0.000000 0.000000
0.012024 0.007095 0.013596
0.016953 0.038239 0.049317
0.066194 0.148608 0.153552
0.357931 0.377890 0.363134
0.016556 0.033310 0.044373
0.017945 0.051011 0.062226
0.027604 0.100694 0.109804
0.158587 0.221729 0.219928
0.479805 0.484718 0.464668
0.169680 0.229938 0.227420
0.203754 0.255222 0.250446
0.308995 0.337179 0.325490
0.493645 0.497261 0.476997
0.762280 0.754238 0.748226
0.759716 0.751629 0.745403
0.775402 0.767407 0.762585
0.814786 0.807248 0.805570
0.863737 0.857221 0.858396
0.883650 0.877699 0.879652
0.851392 0.844572 0.845151
0.848295 0.841398 0.841810
0.838224 0.831113 0.830961
0.814832 0.807309 0.805631
0.768643 0.760601 0.755184
0.006500 0.002960 0.006302
0.013993 0.009857 0.017548
0.017746 0.049668 0.060899
0.085283 0.165164 0.168551
0.382925 0.399207 0.383017
0.016953 0.038636 0.049668
0.018143 0.055406 0.066621
0.033707 0.112123 0.120424
0.180255 0.237766 0.234501
0.503426 0.506188 0.485817
0.181460 0.238651 0.235370
0.214298 0.263157 0.257679
0.317205 0.343908 0.331716
0.509010 0.511299 0.490913
0.771481 0.763455 0.758297
0.766049 0.758007 0.752346
0.781003 0.773068 0.768734
0.818524 0.811032 0.809598
0.865125 0.858625 0.859876
0.883391 0.877424 0.879362
0.850172 0.843320 0.843839
0.846998 0.840070 0.840406
0.836698 0.829557 0.829297
0.813031 0.805478 0.803677
0.766720 0.758679 0.753079
0.014588 0.010651 0.018524
0.016358 0.020111 0.030365
0.018723 0.061341 0.072496
0.113527 0.187762 0.189075
0.426871 0.437461 0.419089
0.017945 0.052674 0.063798
0.019318 0.070665 0.081590
0.047410 0.129519 0.136339
0.217807 0.265766 0.260090
0.544091 0.543572 0.523384
0.208911 0.259098 0.254002
0.242634 0.284627 0.277302
0.343755 0.365957 0.352071
0.548226 0.547417 0.527306
0.785916 0.777996 0.774090
0.780255 0.772290 0.767910
0.794125 0.786313 0.783093
0.828107 0.820783 0.820005
0.869154 0.862760 0.864164
0.882383 0.876402 0.878309
0.847395 0.840482 0.840848
0.843885 0.836912 0.837064
0.832639 0.825406 0.824903
0.807630 0.799969 0.797787
0.760647 0.752590 0.746441
0.016556 0.031739 0.042695
0.017350 0.045991 0.057282
0.026612 0.098329 0.107713
0.161883 0.224201 0.222126
0.490135 0.494102 0.473869
0.022278 0.085512 0.095705
0.029770 0.105394 0.114137
0.088731 0.168093 0.171237
0.273625 0.308766 0.299397
0.602594 0.598413 0.580072
0.267048 0.303563 0.294652
0.299641 0.329580 0.318532
0.398947 0.412985 0.395987
0.604166 0.599878 0.581628
0.802792 0.795056 0.792508
0.805798 0.798123 0.795804
0.816281 0.808774 0.807202
0.842893 0.835889 0.835996
0.875639 0.869444 0.871107
0.880964 0.874937 0.876783
0.845380 0.838422 0.838666
0.841382 0.834333 0.834363
0.827970 0.820645 0.819867
0.797635 0.789868 0.786908
0.748119 0.740047 0.732738
0.019516 0.070527 0.081361
0.023453 0.089052 0.099031
0.072618 0.154391 0.158785
0.285908 0.318563 0.308370
0.648966 0.642725 0.627054
0.050340 0.133165 0.139452
0.071839 0.153811 0.158282
0.160708 0.223301 0.221332
0.394080 0.408789 0.392035
0.726696 0.718730 0.709438
0.348196 0.369665 0.355505
0.375418 0.392767 0.376974
0.469062 0.475013 0.455207
0.679133 0.671946 0.658534
0.848737 0.841856 0.842283
0.852094 0.845273 0.845884
0.855634 0.848905 0.849699
0.865385 0.858900 0.860151
0.881148 0.875120 0.876982
0.874907 0.868696 0.870329
0.825971 0.818616 0.817700
0.822522 0.815106 0.813962
0.811063 0.803464 0.801526
0.783398 0.775479 0.771344
0.730251 0.722255 0.713283
