FILES/EXPOSED_BW-132e5050.cube
TITLE "/Users/aaronseiha/Desktop/EXPOSED_BW"
LUT_3D_SIZE 32
0.000000 0.000000 0.000000
0.001373 0.000397 0.001190
0.002960 0.001373 0.002762
0.005325 0.002365 0.005325
0.007294 0.003555 0.007294
0.008865 0.004532 0.009262
0.010651 0.005722 0.011231
0.012024 0.007095 0.013596
0.013596 0.009064 0.016358
0.014786 0.011231 0.019516
0.015579 0.014389 0.023453
0.015976 0.018723 0.028382
0.016358 0.023651 0.034302
0.016556 0.030365 0.041184
0.016953 0.038239 0.049317
0.017548 0.047761 0.058808
0.018921 0.064805 0.075792
0.020905 0.078126 0.088731
0.024643 0.093431 0.103120
0.032731 0.110246 0.118669
0.046525 0.128588 0.135531
0.066194 0.148608 0.153552
0.091417 0.170260 0.173144
0.122301 0.194507 0.195102
0.158343 0.221561 0.219760
0.199725 0.252262 0.247776
0.246571 0.287663 0.280064
0.298985 0.329046 0.318044
0.357931 0.377890 0.363134
0.424369 0.435233 0.416999
0.498817 0.501976 0.481651
0.578531 0.575708 0.556405
0.004532 0.002167 0.004334
0.005921 0.002564 0.005722
0.006897 0.003357 0.006897
0.008484 0.003937 0.008286
0.009659 0.004929 0.009857
0.011048 0.005921 0.011826
0.012421 0.007294 0.013596
0.013413 0.008667 0.015976
0.014588 0.010651 0.018723
0.015381 0.013413 0.022080
0.015976 0.016754 0.026215
0.016358 0.021088 0.031540
0.016556 0.026612 0.037461
0.016754 0.033509 0.044541
0.017350 0.041566 0.052827
0.017746 0.051179 0.062516
0.019318 0.068803 0.079698
0.021683 0.082414 0.092699
0.026413 0.097734 0.107057
0.035492 0.114580 0.122713
0.050507 0.133089 0.139452
0.070924 0.152972 0.157519
0.097017 0.174731 0.177264
0.128344 0.198993 0.199237
0.164691 0.226261 0.224033
0.206470 0.257267 0.252308
0.253620 0.293111 0.285054
0.306096 0.334844 0.323339
0.365377 0.384207 0.368994
0.432059 0.442023 0.423453
0.506630 0.509117 0.488731
0.585809 0.582544 0.563500
0.008484 0.003937 0.008286
0.009064 0.004532 0.009064
0.009857 0.005127 0.010056
0.010849 0.005921 0.011429
0.011826 0.006699 0.013016
0.012421 0.007889 0.014588
0.013596 0.009064 0.016358
0.014588 0.010651 0.018723
0.015183 0.013016 0.021683
0.015976 0.015976 0.025238
0.016159 0.019516 0.029770
0.016358 0.024247 0.034897
0.016556 0.030167 0.041001
0.016953 0.037263 0.048280
0.017350 0.045624 0.056809
0.018143 0.055406 0.066758
0.019913 0.073259 0.084031
0.022873 0.087068 0.097124
0.028580 0.102541 0.111589
0.039033 0.119585 0.127260
0.055406 0.138155 0.144106
0.076783 0.158022 0.162066
0.103395 0.179919 0.181949
0.135164 0.204288 0.204044
0.172045 0.231739 0.228977
0.214206 0.263050 0.257603
0.261616 0.299336 0.290715
0.314275 0.341527 0.329488
0.373800 0.391363 0.375708
0.440833 0.449775 0.430884
0.515618 0.517327 0.496925
0.593530 0.589822 0.571084
0.011627 0.006500 0.012619
0.012222 0.007095 0.013413
0.012619 0.007691 0.014588
0.013596 0.008667 0.015778
0.013993 0.009659 0.017350
0.014389 0.010849 0.018921
0.015183 0.012024 0.020706
0.015579 0.013993 0.023072
0.016159 0.016556 0.026017
0.016358 0.019715 0.029572
0.016358 0.023651 0.034302
0.016358 0.028977 0.039811
0.016754 0.035096 0.046174
0.017151 0.042695 0.053803
0.017746 0.051347 0.062516
0.018723 0.061631 0.072755
0.020905 0.079698 0.090242
0.025040 0.093950 0.103593
0.032334 0.109529 0.118074
0.044724 0.126787 0.133837
0.062516 0.145418 0.150668
0.085389 0.165347 0.168734
0.113008 0.187289 0.188647
0.145342 0.211872 0.210956
0.182757 0.239689 0.236225
0.225284 0.271412 0.265202
0.272831 0.308141 0.298833
0.325963 0.351156 0.338369
0.385809 0.401679 0.385336
0.453239 0.460822 0.441489
0.528191 0.528893 0.508537
0.604730 0.600443 0.582208
0.014191 0.009857 0.017746
0.014588 0.010651 0.018524
0.014786 0.011231 0.019516
0.015183 0.012421 0.021088
0.015579 0.013993 0.023072
0.015778 0.015778 0.024842
0.015976 0.017350 0.026810
0.016358 0.019318 0.029374
0.016159 0.022080 0.032334
0.016159 0.025437 0.036271
0.016358 0.029969 0.041001
0.016754 0.035492 0.046708
0.017151 0.042313 0.053315
0.017746 0.050172 0.061341
0.018524 0.059266 0.070527
0.019516 0.069993 0.080888
0.023270 0.088731 0.098726
0.028779 0.103120 0.112123
0.038636 0.119081 0.126787
0.053635 0.136339 0.142428
0.073259 0.155108 0.159411
0.097322 0.175021 0.177493
0.125994 0.197253 0.197650
0.159152 0.222171 0.220325
0.197116 0.250340 0.245960
0.240208 0.282750 0.275578
0.288182 0.320333 0.310018
0.341787 0.364248 0.350484
0.402228 0.415885 0.398703
0.470207 0.476036 0.456214
0.544869 0.544305 0.524132
0.619471 0.614450 0.596963
0.015778 0.014984 0.024247
0.015976 0.015976 0.025238
0.015976 0.016754 0.026215
0.015976 0.018143 0.027802
0.016159 0.019913 0.030167
0.016358 0.022278 0.032731
0.016358 0.024643 0.035294
0.016556 0.027207 0.037858
0.016556 0.030167 0.041001
0.016556 0.033906 0.044907
0.016953 0.038834 0.049836
0.017548 0.044724 0.055879
0.018143 0.051682 0.062943
0.018341 0.060304 0.071321
0.019516 0.069993 0.080888
0.021088 0.081010 0.091539
0.027604 0.100404 0.109621
0.035691 0.115099 0.123201
0.048798 0.131197 0.137728
0.066194 0.148608 0.153552
0.087739 0.167315 0.170550
0.113268 0.187549 0.188861
0.142916 0.210025 0.209293
0.177050 0.235492 0.232410
0.215793 0.264317 0.258701
0.259205 0.297414 0.289021
0.307683 0.336110 0.324514
0.361975 0.381292 0.366323
0.423270 0.434287 0.416098
0.491554 0.495369 0.475120
0.565270 0.563272 0.543572
0.637324 0.631510 0.615106
0.016358 0.022675 0.033127
0.016556 0.023453 0.034104
0.016358 0.024643 0.035294
0.016556 0.026017 0.036866
0.016358 0.028199 0.039231
0.016556 0.030945 0.042130
0.016754 0.034501 0.045457
0.016953 0.037858 0.048981
0.017151 0.041367 0.052506
0.017548 0.045457 0.056657
0.017945 0.050675 0.061784
0.018524 0.056977 0.068254
0.018921 0.064515 0.075547
0.019715 0.073396 0.084138
0.021683 0.083574 0.093843
0.025238 0.095094 0.104631
0.035691 0.115007 0.123033
0.047761 0.129900 0.136629
0.063523 0.146166 0.151324
0.083452 0.163653 0.167193
0.106874 0.182589 0.184314
0.133379 0.202945 0.202838
0.164202 0.225925 0.223682
0.199145 0.251850 0.247349
0.238682 0.281590 0.274525
0.282719 0.315953 0.306004
0.331823 0.356008 0.342840
0.386954 0.402655 0.386236
0.448905 0.456962 0.437781
0.517815 0.519341 0.498939
0.589502 0.586023 0.567117
0.658198 0.651621 0.636606
0.016556 0.033310 0.044373
0.016556 0.034501 0.045457
0.016754 0.035492 0.046708
0.016953 0.037263 0.048447
0.016953 0.039811 0.050843
0.017151 0.042878 0.053971
0.017746 0.046525 0.057893
0.017945 0.051011 0.062226
0.018143 0.055711 0.067033
0.018524 0.060746 0.071839
0.018921 0.066331 0.077272
0.019913 0.072877 0.083680
0.021088 0.080766 0.091203
0.023651 0.090028 0.099916
0.027604 0.100694 0.109804
0.033906 0.112566 0.120745
0.050172 0.132631 0.139101
0.065354 0.147799 0.152834
0.084031 0.164141 0.167666
0.105943 0.181842 0.183673
0.130739 0.200946 0.201007
0.158587 0.221729 0.219928
0.190311 0.245258 0.241367
0.226184 0.272145 0.265873
0.266407 0.303075 0.294179
0.311009 0.338811 0.327001
0.360891 0.380377 0.365454
0.417182 0.428931 0.411032
0.479805 0.484718 0.464668
0.548348 0.547539 0.527428
0.616709 0.611795 0.594171
0.681529 0.674281 0.661067
0.017548 0.047761 0.058961
0.017548 0.048798 0.060166
0.017945 0.050340 0.061494
0.018143 0.052186 0.063371
0.018341 0.054780 0.066056
0.018524 0.058045 0.069459
0.018921 0.062364 0.073518
0.019120 0.067430 0.078370
0.019913 0.073259 0.083909
0.020905 0.079347 0.089921
0.022477 0.085847 0.096010
0.024445 0.093004 0.102739
0.028000 0.101183 0.110338
0.032731 0.110704 0.119081
0.040406 0.121492 0.128893
0.051011 0.133455 0.139818
0.071839 0.153811 0.158282
0.089815 0.168963 0.172000
0.110613 0.185489 0.186969
0.134127 0.203418 0.203326
0.160037 0.222782 0.220859
0.188968 0.244282 0.240452
0.221424 0.268528 0.262547
0.258152 0.296620 0.288273
0.298894 0.328969 0.317952
0.344305 0.366415 0.352499
0.395468 0.409995 0.393164
0.452552 0.460212 0.440909
0.515862 0.517571 0.497169
0.582177 0.579126 0.559945
0.646540 0.640360 0.624552
0.706508 0.698772 0.687648
0.018921 0.066621 0.077638
0.019120 0.067842 0.078737
0.019516 0.069200 0.080171
0.019318 0.071443 0.082185
0.020111 0.074022 0.084825
0.020706 0.077760 0.088289
0.021683 0.082414 0.092699
0.022873 0.087739 0.097826
0.024842 0.094255 0.103883
0.028000 0.101381 0.110613
0.031937 0.109163 0.117739
0.037064 0.117144 0.125048
0.044007 0.125841 0.132937
0.052674 0.135393 0.141588
0.063661 0.146166 0.151400
0.077028 0.158221 0.162310
0.101869 0.178653 0.180804
0.121569 0.193942 0.194659
0.143832 0.210773 0.209934
0.168261 0.228901 0.226429
0.195209 0.248920 0.244663
0.224720 0.271000 0.264851
0.258000 0.296498 0.288151
0.295094 0.325887 0.315114
0.336645 0.360006 0.346563
0.383246 0.399451 0.383246
0.435386 0.444953 0.426261
0.493233 0.496880 0.476631
0.555901 0.554543 0.534600
0.618326 0.613352 0.595819
0.677867 0.670741 0.657206
0.732494 0.724498 0.715740
0.023651 0.090135 0.100008
0.024048 0.091539 0.101289
0.024445 0.093004 0.102739
0.025437 0.095186 0.104829
0.026612 0.098238 0.107622
0.028199 0.101961 0.111147
0.030762 0.106874 0.115618
0.034104 0.112657 0.120912
0.038834 0.119341 0.127108
0.045090 0.127184 0.134127
0.052827 0.135683 0.141863
0.061936 0.144732 0.150072
0.072236 0.154131 0.158587
0.084031 0.164141 0.167666
0.097322 0.175021 0.177493
0.112749 0.187137 0.188449
0.139742 0.207691 0.207126
0.160586 0.223209 0.221256
0.183566 0.240330 0.236789
0.208774 0.259037 0.253925
0.236179 0.279667 0.272770
0.266163 0.302861 0.293996
0.299763 0.329717 0.318639
0.337743 0.360891 0.347372
0.380209 0.396841 0.380804
0.428031 0.438422 0.420050
0.480949 0.485756 0.465690
0.539101 0.538964 0.518730
0.598383 0.594415 0.575875
0.655894 0.649409 0.634226
0.709880 0.702083 0.691279
0.758633 0.750576 0.744228
0.038239 0.118502 0.126238
0.039231 0.119844 0.127489
0.040604 0.121569 0.129046
0.042313 0.123766 0.131044
0.045090 0.126787 0.133837
0.048447 0.130816 0.137514
0.052995 0.135760 0.141939
0.058656 0.141588 0.147250
0.066194 0.148608 0.153552
0.075044 0.156634 0.160769
0.085618 0.165469 0.168917
0.097627 0.175250 0.177722
0.110964 0.185763 0.187182
0.125048 0.196612 0.197055
0.140169 0.208026 0.207416
0.156893 0.220508 0.218830
0.185443 0.241642 0.238041
0.206806 0.257527 0.252537
0.230243 0.275196 0.268666
0.255711 0.294713 0.286519
0.282948 0.316167 0.306188
0.313222 0.340642 0.328664
0.347662 0.369223 0.355077
0.386419 0.402182 0.385809
0.429953 0.440146 0.421683
0.478569 0.483604 0.463584
0.532021 0.532448 0.512108
0.587137 0.583810 0.564813
0.641443 0.635493 0.619333
0.693507 0.686000 0.673762
0.741344 0.733303 0.725353
0.783886 0.775967 0.771878
0.069062 0.151125 0.155932
0.070527 0.152575 0.157137
0.072496 0.154192 0.158587
0.075044 0.156634 0.160769
0.078614 0.159655 0.163592
0.083574 0.163714 0.167315
0.089601 0.168734 0.171771
0.097017 0.174731 0.177264
0.105760 0.181735 0.183566
0.116472 0.190005 0.191089
0.128664 0.199283 0.199527
0.142367 0.209613 0.208911
0.157519 0.220981 0.219226
0.173831 0.232975 0.230152
0.190784 0.245609 0.241672
0.208774 0.259037 0.253925
0.238209 0.281224 0.274144
0.259800 0.297932 0.289464
0.283253 0.316365 0.306371
0.308461 0.336736 0.325109
0.335760 0.359228 0.345846
0.366735 0.385336 0.370077
0.401862 0.415534 0.398352
0.441505 0.450416 0.431464
0.485710 0.490059 0.469917
0.534508 0.534722 0.514412
0.585184 0.581964 0.562890
0.635462 0.629725 0.613169
0.684184 0.676875 0.663874
0.729946 0.721950 0.712947
0.771359 0.763333 0.758160
0.807385 0.799756 0.797528
0.114061 0.188190 0.189441
0.115953 0.189593 0.190677
0.118074 0.191287 0.192264
0.121324 0.193698 0.194400
0.125521 0.196918 0.197360
0.130892 0.201053 0.201099
0.137804 0.206134 0.205707
0.145830 0.212284 0.211322
0.155749 0.219623 0.217975
0.166964 0.228000 0.225620
0.180148 0.237675 0.234424
0.194812 0.248615 0.244358
0.211139 0.260777 0.255528
0.228809 0.274067 0.267643
0.247623 0.288472 0.280797
0.266911 0.303441 0.294530
0.297154 0.327550 0.316655
0.318929 0.345296 0.332967
0.342412 0.364843 0.351019
0.367681 0.386145 0.370825
0.395361 0.409903 0.393057
0.426871 0.437461 0.419089
0.462776 0.469368 0.449714
0.502724 0.505547 0.485176
0.546624 0.545922 0.525795
0.592065 0.588449 0.569650
0.637644 0.631830 0.615427
0.682383 0.675135 0.661967
0.724865 0.716915 0.707439
0.764111 0.756054 0.750225
0.798871 0.791089 0.788251
0.828473 0.821164 0.820401
0.169680 0.229938 0.227420
0.171817 0.231571 0.228809
0.174060 0.233234 0.230365
0.177432 0.235691 0.232609
0.182055 0.239094 0.235767
0.187869 0.243458 0.239643
0.195102 0.248814 0.244587
0.203754 0.255222 0.250446
0.213886 0.262837 0.257374
0.225757 0.271794 0.265553
0.239200 0.281987 0.274861
0.254444 0.293706 0.285618
0.271183 0.306783 0.297597
0.289433 0.321355 0.310964
0.308995 0.337179 0.325490
0.329747 0.354253 0.341238
0.361975 0.381292 0.366323
0.384512 0.400504 0.384253
0.408331 0.421149 0.403662
0.433600 0.443366 0.424750
0.461769 0.468482 0.448859
0.493645 0.497261 0.476997
0.529427 0.530022 0.509682
0.567834 0.565698 0.546059
0.607599 0.603159 0.585061
0.647913 0.641703 0.625956
0.687846 0.680461 0.667750
0.726223 0.718257 0.708919
0.762280 0.754238 0.748226
0.794827 0.786999 0.783841
0.823117 0.815702 0.814603
0.846571 0.839628 0.839933
0.234180 0.278111 0.271351
0.236179 0.279667 0.272770
0.238560 0.281529 0.274449
0.242161 0.284230 0.276936
0.246693 0.287724 0.280125
0.252613 0.292348 0.284337
0.260044 0.298085 0.289631
0.268803 0.304982 0.295903
0.279118 0.313130 0.303410
0.291005 0.322621 0.312108
0.304524 0.333547 0.322179
0.319844 0.346105 0.333700
0.336950 0.360250 0.346777
0.355627 0.375921 0.361303
0.375982 0.393210 0.377417
0.397665 0.411917 0.394965
0.431922 0.441886 0.423316
0.455604 0.462974 0.443534
0.479683 0.484596 0.464561
0.505516 0.508095 0.487724
0.533822 0.534081 0.513756
0.564492 0.562570 0.542824
0.596933 0.593057 0.574456
0.630808 0.625269 0.608454
0.665431 0.658625 0.644144
0.700145 0.692531 0.680873
0.733898 0.725872 0.717235
0.765911 0.757870 0.752209
0.795346 0.787533 0.784405
0.821439 0.814023 0.812802
0.843565 0.836545 0.836683
0.861326 0.854749 0.855817
0.342962 0.365255 0.351431
0.345144 0.367071 0.353109
0.347524 0.369100 0.354986
0.351049 0.372030 0.357717
0.355764 0.376028 0.361410
0.361852 0.381186 0.366201
0.369146 0.387396 0.372015
0.378180 0.395117 0.379217
0.388571 0.404059 0.387564
0.400702 0.414557 0.397436
0.414527 0.426612 0.408820
0.429953 0.440146 0.421683
0.447242 0.455497 0.436362
0.466255 0.472511 0.452766
0.486763 0.491051 0.470878
0.508904 0.511177 0.490791
0.543557 0.543069 0.522896
0.567224 0.565118 0.545449
0.590738 0.587167 0.568322
0.614511 0.609705 0.591959
0.638743 0.632898 0.616556
0.663798 0.657069 0.642466
0.689693 0.682292 0.669734
0.716030 0.708171 0.697902
0.742321 0.734249 0.726390
0.768032 0.759991 0.754528
0.792569 0.784726 0.781369
0.815229 0.807691 0.806043
0.835340 0.828168 0.827832
0.852644 0.845853 0.846479
0.866529 0.860075 0.861387
0.876570 0.870405 0.872099
0.424369 0.435233 0.416999
0.426352 0.436973 0.418677
0.428824 0.439200 0.420768
0.432471 0.442374 0.423804
0.437064 0.446448 0.427665
0.443214 0.451911 0.432898
0.450553 0.458457 0.439231
0.459541 0.466484 0.446937
0.469886 0.475746 0.455924
0.481910 0.486610 0.466545
0.495583 0.499046 0.478737
0.510994 0.513100 0.492714
0.527794 0.528511 0.508156
0.545953 0.545327 0.525170
0.565118 0.563180 0.543435
0.585306 0.582086 0.562997
0.616480 0.611582 0.593942
0.637430 0.631617 0.615198
0.658579 0.652003 0.637018
0.679606 0.672419 0.659037
0.700526 0.692897 0.681254
0.721630 0.713710 0.703960
0.742885 0.734844 0.727047
0.763973 0.755932 0.750072
0.784848 0.776928 0.772931
0.804883 0.797208 0.794812
0.823621 0.816220 0.815152
0.840574 0.833509 0.833478
0.855329 0.848600 0.849363
0.867460 0.861036 0.862364
0.876448 0.870298 0.871977
0.882048 0.876051 0.877943
0.514641 0.516426 0.496025
0.516686 0.518334 0.497917
0.519081 0.520516 0.500114
0.522530 0.523674 0.503273
0.527092 0.527886 0.507530
0.532998 0.533318 0.513008
0.540185 0.539971 0.519753
0.548486 0.547662 0.527565
0.558160 0.556634 0.536721
0.569268 0.567010 0.547417
0.581292 0.578302 0.559091
0.594766 0.590997 0.572305
0.609125 0.604578 0.586572
0.624491 0.619242 0.602029
0.640818 0.634867 0.618662
0.657679 0.651118 0.636088
0.683818 0.676524 0.663493
0.701411 0.693751 0.682200
0.719097 0.711192 0.701228
0.736568 0.728527 0.720150
0.753796 0.745724 0.738933
0.770733 0.762722 0.757473
0.787411 0.779507 0.775738
0.803738 0.796033 0.793561
0.819455 0.811994 0.810636
0.834302 0.827115 0.826719
0.847913 0.841001 0.841382
0.859922 0.853300 0.854307
0.869902 0.863539 0.864973
0.877409 0.871260 0.872999
0.882185 0.876204 0.878096
0.884092 0.878157 0.880110
0.606989 0.602579 0.584451
0.608774 0.604257 0.586221
0.610773 0.606165 0.588235
0.613703 0.608942 0.591165
0.617411 0.612482 0.594873
0.622339 0.617182 0.599863
0.628229 0.622797 0.605814
0.635126 0.629419 0.612848
0.642985 0.636957 0.620890
0.651911 0.645563 0.630106
0.661875 0.655192 0.640436
0.672694 0.665690 0.651759
0.684276 0.676982 0.663981
0.696590 0.689021 0.677043
0.709438 0.701656 0.690822
0.722835 0.714916 0.705257
0.743328 0.735286 0.727520
0.757153 0.749081 0.742596
0.770977 0.762966 0.757748
0.784497 0.776577 0.772564
0.797803 0.790021 0.787091
0.810636 0.803037 0.801053
0.823072 0.815671 0.814557
0.834989 0.827802 0.827451
0.846220 0.839277 0.839582
0.856596 0.849882 0.850736
0.865766 0.859297 0.860563
0.873381 0.867140 0.868711
0.879133 0.873045 0.874846
0.882780 0.876799 0.878721
0.884108 0.878187 0.880140
0.882902 0.876936 0.878859
0.690166 0.682734 0.670222
0.691463 0.684031 0.671595
0.693126 0.685634 0.673381
0.695323 0.687770 0.675685
0.698283 0.690700 0.678859
0.702113 0.694469 0.682963
0.706600 0.698848 0.687739
0.712001 0.704189 0.693584
0.718013 0.710140 0.700053
0.724865 0.716915 0.707439
0.732433 0.724422 0.715648
0.740551 0.732494 0.724468
0.749310 0.741238 0.734035
0.758511 0.750439 0.744076
0.768093 0.760067 0.754589
0.777966 0.769985 0.765393
0.793088 0.785260 0.781949
0.803174 0.795453 0.792935
0.813184 0.805615 0.803815
0.822950 0.815549 0.814435
0.832425 0.825177 0.824674
0.841474 0.834440 0.834470
0.850111 0.843259 0.843763
0.858183 0.851514 0.852445
0.865568 0.859098 0.860349
0.872007 0.865721 0.867247
0.877317 0.871183 0.872892
0.881224 0.875212 0.877073
0.883543 0.877592 0.879530
0.884077 0.878126 0.880079
0.882521 0.876539 0.878462
0.878645 0.872541 0.874311
0.759716 0.751629 0.745403
0.760693 0.752636 0.746487
0.761837 0.753780 0.747723
0.763470 0.755413 0.749508
0.765682 0.757626 0.751934
0.768368 0.760311 0.754879
0.771603 0.763592 0.758419
0.775402 0.767407 0.762585
0.779797 0.771832 0.767391
0.784619 0.776684 0.772686
0.789929 0.782071 0.778500
0.795651 0.787839 0.784756
0.801740 0.794018 0.791394
0.808179 0.800534 0.798398
0.814786 0.807248 0.805570
0.821561 0.814145 0.812924
0.831815 0.824582 0.824018
0.838651 0.831540 0.831403
0.845335 0.838361 0.838605
0.851789 0.844968 0.845563
0.857954 0.851286 0.852186
0.863737 0.857221 0.858396
0.869047 0.862669 0.864088
0.873762 0.867521 0.869108
0.877775 0.871626 0.873381
0.880949 0.874907 0.876753
0.883116 0.877134 0.879072
0.884077 0.878141 0.880110
0.883650 0.877699 0.879652
0.881590 0.875563 0.877440
0.877592 0.871458 0.873182
0.871397 0.865080 0.866575
0.813413 0.805844 0.804059
0.814084 0.806546 0.804822
0.814786 0.807248 0.805570
0.815869 0.808347 0.806729
0.817304 0.809796 0.808301
0.819089 0.811627 0.810239
0.821241 0.813809 0.812573
0.823728 0.816342 0.815274
0.826581 0.819242 0.818357
0.829786 0.822492 0.821836
0.833204 0.826001 0.825528
0.836927 0.829770 0.829526
0.840803 0.833753 0.833738
0.844892 0.837919 0.838148
0.849073 0.842191 0.842634
0.853269 0.846494 0.847166
0.859602 0.852964 0.853941
0.863676 0.857160 0.858335
0.867597 0.861173 0.862531
0.871290 0.864973 0.866468
0.874647 0.868421 0.870054
0.877592 0.871458 0.873198
0.880110 0.874067 0.875883
0.882094 0.876097 0.877989
0.883467 0.877516 0.879454
0.884092 0.878157 0.880110
0.883833 0.877882 0.879835
0.882460 0.876463 0.878370
0.879774 0.873686 0.875502
0.875502 0.869307 0.870954
0.869429 0.863050 0.864469
0.861173 0.854597 0.855650
0.851087 0.844251 0.844800
0.851423 0.844602 0.845182
0.851896 0.845090 0.845701
0.852537 0.845731 0.846357
0.853361 0.846586 0.847272
0.854444 0.847684 0.848417
0.855711 0.848966 0.849760
0.857160 0.850477 0.851331
0.858808 0.852155 0.853101
0.860655 0.854047 0.855085
0.862608 0.856046 0.857176
0.864698 0.858198 0.859434
0.866880 0.860441 0.861753
0.869078 0.862699 0.864118
0.871336 0.865003 0.866514
0.873503 0.867262 0.868833
0.876616 0.870451 0.872145
0.878508 0.872404 0.874174
0.880201 0.874144 0.875975
0.881666 0.875654 0.877531
0.882841 0.876860 0.878782
0.883665 0.877714 0.879652
0.884077 0.878141 0.880095
0.884031 0.878080 0.880034
0.883375 0.877424 0.879347
0.882048 0.876036 0.877928
0.879835 0.873777 0.875578
0.876554 0.870390 0.872084
0.871992 0.865675 0.867216
0.865888 0.859419 0.860685
0.857969 0.851301 0.852216
0.847959 0.841062 0.841459
0.873915 0.867658 0.869245
0.874098 0.867857 0.869474
0.874296 0.868070 0.869688
0.874601 0.868376 0.870008
0.874998 0.868772 0.870420
0.875486 0.869291 0.870954
0.876051 0.869886 0.871550
0.876722 0.870542 0.872251
0.877440 0.871305 0.873030
0.878218 0.872099 0.873854
0.879042 0.872953 0.874739
0.879881 0.873823 0.875639
0.880720 0.874678 0.876524
0.881514 0.875502 0.877379
0.882277 0.876265 0.878172
0.882933 0.876951 0.878874
0.883711 0.877760 0.879698
0.884016 0.878065 0.880018
0.884108 0.878187 0.880140
0.883986 0.878050 0.880003
0.883574 0.877607 0.879545
0.882811 0.876829 0.878752
0.881651 0.875639 0.877501
0.880018 0.873945 0.875776
0.877821 0.871687 0.873426
0.874922 0.868696 0.870344
0.871183 0.864851 0.866346
0.866377 0.859937 0.861234
0.860288 0.853681 0.854688
0.852659 0.845853 0.846479
0.843198 0.836179 0.836301
0.831662 0.824399 0.823835
0.883452 0.877501 0.879438
0.883497 0.877531 0.879484
0.883528 0.877577 0.879515
0.883589 0.877638 0.879591
0.883665 0.877714 0.879667
0.883757 0.877806 0.879759
0.883848 0.877913 0.879866
0.883955 0.878004 0.879957
0.884016 0.878096 0.880049
0.884092 0.878157 0.880110
0.884108 0.878187 0.880140
0.884108 0.878157 0.880110
0.884016 0.878065 0.880034
0.883848 0.877897 0.879850
0.883574 0.877607 0.879545
0.883162 0.877195 0.879118
0.882277 0.876265 0.878172
0.881437 0.875410 0.877272
0.880385 0.874327 0.876173
0.879072 0.872969 0.874769
0.877440 0.871305 0.873030
0.875471 0.869261 0.870939
0.873106 0.866819 0.868391
0.870222 0.863890 0.865339
0.866789 0.860349 0.861662
0.862669 0.856123 0.857237
0.857710 0.851026 0.851911
0.851713 0.844892 0.845472
0.844404 0.837415 0.837613
0.835538 0.828367 0.828046
0.824857 0.817487 0.816480
0.812085 0.804501 0.802625
0.882094 0.876081 0.877989
0.882033 0.876020 0.877913
0.881941 0.875944 0.877836
0.881849 0.875853 0.877729
0.881697 0.875700 0.877577
0.881514 0.875502 0.877379
0.881285 0.875257 0.877119
0.880995 0.874952 0.876799
0.880613 0.874571 0.876417
0.880186 0.874128 0.875944
0.879652 0.873579 0.875395
0.879026 0.872923 0.874708
0.878279 0.872160 0.873930
0.877409 0.871260 0.872984
0.876387 0.870222 0.871900
0.875212 0.868986 0.870634
0.873075 0.866804 0.868360
0.871382 0.865064 0.866560
0.869444 0.863066 0.864500
0.867231 0.860807 0.862135
0.864683 0.858183 0.859403
0.861769 0.855207 0.856275
0.858442 0.851774 0.852705
0.854612 0.847868 0.848600
0.850202 0.843351 0.843854
0.845075 0.838102 0.838346
0.839139 0.832029 0.831922
0.832181 0.824964 0.824414
0.823987 0.816602 0.815564
0.814267 0.806729 0.805020
0.802716 0.795010 0.792447
0.789075 0.781201 0.777554
0.871199 0.864866 0.866361
0.871077 0.864729 0.866224
0.870909 0.864576 0.866056
0.870695 0.864363 0.865827
0.870390 0.864042 0.865507
0.870024 0.863661 0.865110
0.869535 0.863157 0.864591
0.868955 0.862562 0.863966
0.868269 0.861860 0.863233
0.867460 0.861036 0.862364
0.866514 0.860059 0.861372
0.865446 0.858946 0.860197
0.864195 0.857694 0.858885
0.862806 0.856245 0.857374
0.861234 0.854627 0.855695
0.859464 0.852827 0.853803
0.856382 0.849699 0.850523
0.854047 0.847288 0.848005
0.851423 0.844602 0.845167
0.848508 0.841611 0.842023
0.845243 0.838285 0.838529
0.841611 0.834577 0.834607
