FILES/only_a-40ccbfc0.cube
LUT_3D_SIZE 9
0.1000 0.0000 0.0000
0.2250 0.0000 0.0000
0.3500 0.0000 0.0000
0.4750 0.0000 0.0000
0.6000 0.0000 0.0000
0.7250 0.0000 0.0000
0.8500 0.0000 0.0000
0.9750 0.0000 0.0000
1.0000 0.0000 0.0000
0.1000 0.1250 0.0000
0.2250 0.1250 0.0000
0.3500 0.1250 0.0000
0.4750 0.1250 0.0000
0.6000 0.1250 0.0000
0.7250 0.1250 0.0000
0.8500 0.1250 0.0000
0.9750 0.1250 0.0000
1.0000 0.1250 0.0000
0.1000 0.2500 0.0000
0.2250 0.2500 0.0000
0.3500 0.2500 0.0000
0.4750 0.2500 0.0000
0.6000 0.2500 0.0000
0.7250 0.2500 0.0000
0.8500 0.2500 0.0000
0.9750 0.2500 0.0000
1.0000 0.2500 0.0000
0.1000 0.3750 0.0000
0.2250 0.3750 0.0000
0.3500 0.3750 0.0000
0.4750 0.3750 0.0000
0.6000 0.3750 0.0000
0.7250 0.3750 0.0000
0.8500 0.3750 0.0000
0.9750 0.3750 0.0000
1.0000 0.3750 0.0000
0.1000 0.5000 0.0000
0.2250 0.5000 0.0000
0.3500 0.5000 0.0000
0.4750 0.5000 0.0000
0.6000 0.5000 0.0000
0.7250 0.5000 0.0000
0.8500 0.5000 0.0000
0.9750 0.5000 0.0000
1.0000 0.5000 0.0000
0.1000 0.6250 0.0000
0.2250 0.6250 0.0000
0.3500 0.6250 0.0000
0.4750 0.6250 0.0000
0.6000 0.6250 0.0000
0.7250 0.6250 0.0000
0.8500 0.6250 0.0000
0.9750 0.6250 0.0000
1.0000 0.6250 0.0000
0.1000 0.7500 0.0000
0.2250 0.7500 0.0000
0.3500 0.7500 0.0000
0.4750 0.7500 0.0000
0.6000 0.7500 0.0000
0.7250 0.7500 0.0000
0.8500 0.7500 0.0000
0.9750 0.7500 0.0000
1.0000 0.7500 0.0000
0.1000 0.8750 0.0000
0.2250 0.8750 0.0000
0.3500 0.8750 0.0000
0.4750 0.8750 0.0000
0.6000 0.8750 0.0000
0.7250 0.8750 0.0000
0.8500 0.8750 0.0000
0.9750 0.8750 0.0000
1.0000 0.8750 0.0000
0.1000 1.0000 0.0000
0.2250 1.0000 0.0000
0.3500 1.0000 0.0000
0.4750 1.0000 0.0000
0.6000 1.0000 0.0000
0.7250 1.0000 0.0000
0.8500 1.0000 0.0000
0.9750 1.0000 0.0000
1.0000 1.0000 0.0000
0.1000 0.0000 0.1250
0.2250 0.0000 0.1250
0.3500 0.0000 0.1250
0.4750 0.0000 0.1250
0.6000 0.0000 0.1250
0.7250 0.0000 0.1250
0.8500 0.0000 0.1250
0.9750 0.0000 0.1250
1.0000 0.0000 0.1250
0.1000 0.1250 0.1250
0.2250 0.1250 0.1250
0.3500 0.1250 0.1250
0.4750 0.1250 0.1250
0.6000 0.1250 0.1250
0.7250 0.1250 0.1250
0.8500 0.1250 0.1250
0.9750 0.1250 0.1250
1.0000 0.1250 0.1250
0.1000 0.2500 0.1250
0.2250 0.2500 0.1250
0.3500 0.2500 0.1250
0.4750 0.2500 0.1250
0.6000 0.2500 0.1250
0.7250 0.2500 0.1250
0.8500 0.2500 0.1250
0.9750 0.2500 0.1250
1.0000 0.2500 0.1250
0.1000 0.3750 0.1250
0.2250 0.3750 0.1250
0.3500 0.3750 0.1250
0.4750 0.3750 0.1250
0.6000 0.3750 0.1250
0.7250 0.3750 0.1250
0.8500 0.3750 0.1250
0.9750 0.3750 0.1250
1.0000 0.3750 0.1250
0.1000 0.5000 0.1250
0.2250 0.5000 0.1250
0.3500 0.5000 0.1250
0.4750 0.5000 0.1250
0.6000 0.5000 0.1250
0.7250 0.5000 0.1250
0.8500 0.5000 0.1250
0.9750 0.5000 0.1250
1.0000 0.5000 0.1250
0.1000 0.6250 0.1250
0.2250 0.6250 0.1250
0.3500 0.6250 0.1250
0.4750 0.6250 0.1250
0.6000 0.6250 0.1250
0.7250 0.6250 0.1250
0.8500 0.6250 0.1250
0.9750 0.6250 0.1250
1.0000 0.6250 0.1250
0.1000 0.7500 0.1250
0.2250 0.7500 0.1250
0.3500 0.7500 0.1250
0.4750 0.7500 0.1250
0.6000 0.7500 0.1250
0.7250 0.7500 0.1250
0.8500 0.7500 0.1250
0.9750 0.7500 0.1250
1.0000 0.7500 0.1250
0.1000 0.8750 0.1250
0.2250 0.8750 0.1250
0.3500 0.8750 0.1250
0.4750 0.8750 0.1250
0.6000 0.8750 0.1250
0.7250 0.8750 0.1250
0.8500 0.8750 0.1250
0.9750 0.8750 0.1250
1.0000 0.8750 0.1250
0.1000 1.0000 0.1250
0.2250 1.0000 0.1250
0.3500 1.0000 0.1250
0.4750 1.0000 0.1250
0.6000 1.0000 0.1250
0.7250 1.0000 0.1250
0.8500 1.0000 0.1250
0.9750 1.0000 0.1250
1.0000 1.0000 0.1250
0.1000 0.0000 0.2500
0.2250 0.0000 0.2500
0.3500 0.0000 0.2500
0.4750 0.0000 0.2500
0.6000 0.0000 0.2500
0.7250 0.0000 0.2500
0.8500 0.0000 0.2500
0.9750 0.0000 0.2500
1.0000 0.0000 0.2500
0.1000 0.1250 0.2500
0.2250 0.1250 0.2500
0.3500 0.1250 0.2500
0.4750 0.1250 0.2500
0.6000 0.1250 0.2500
0.7250 0.1250 0.2500
0.8500 0.1250 0.2500
0.9750 0.1250 0.2500
1.0000 0.1250 0.2500
0.1000 0.2500 0.2500
0.2250 0.2500 0.2500
0.3500 0.2500 0.2500
0.4750 0.2500 0.2500
0.6000 0.2500 0.2500
0.7250 0.2500 0.2500
0.8500 0.2500 0.2500
0.9750 0.2500 0.2500
1.0000 0.2500 0.2500
0.1000 0.3750 0.2500
0.2250 0.3750 0.2500
0.3500 0.3750 0.2500
0.4750 0.3750 0.2500
0.6000 0.3750 0.2500
0.7250 0.3750 0.2500
0.8500 0.3750 0.2500
0.9750 0.3750 0.2500
1.0000 0.3750 0.2500
0.1000 0.5000 0.2500
0.2250 0.5000 0.2500
0.3500 0.5000 0.2500
0.4750 0.5000 0.2500
0.6000 0.5000 0.2500
0.7250 0.5000 0.2500
0.8500 0.5000 0.2500
0.9750 0.5000 0.2500
1.0000 0.5000 0.2500
0.1000 0.6250 0.2500
0.2250 0.6250 0.2500
0.3500 0.6250 0.2500
0.4750 0.6250 0.2500
0.6000 0.6250 0.2500
0.7250 0.6250 0.2500
0.8500 0.6250 0.2500
0.9750 0.6250 0.2500
1.0000 0.6250 0.2500
0.1000 0.7500 0.2500
0.2250 0.7500 0.2500
0.3500 0.7500 0.2500
0.4750 0.7500 0.2500
0.6000 0.7500 0.2500
0.7250 0.7500 0.2500
0.8500 0.7500 0.2500
0.9750 0.7500 0.2500
1.0000 0.7500 0.2500
0.1000 0.8750 0.2500
0.2250 0.8750 0.2500
0.3500 0.8750 0.2500
0.4750 0.8750 0.2500
0.6000 0.8750 0.2500
0.7250 0.8750 0.2500
0.8500 0.8750 0.2500
0.9750 0.8750 0.2500
1.0000 0.8750 0.2500
0.1000 1.0000 0.2500
0.2250 1.0000 0.2500
0.3500 1.0000 0.2500
0.4750 1.0000 0.2500
0.6000 1.0000 0.2500
0.7250 1.0000 0.2500
0.8500 1.0000 0.2500
0.9750 1.0000 0.2500
1.0000 1.0000 0.2500
0.1000 0.0000 0.3750
0.2250 0.0000 0.3750
0.3500 0.0000 0.3750
0.4750 0.0000 0.3750
0.6000 0.0000 0.3750
0.7250 0.0000 0.3750
0.8500 0.0000 0.3750
0.9750 0.0000 0.3750
1.0000 0.0000 0.3750
0.1000 0.1250 0.3750
0.2250 0.1250 0.3750
0.3500 0.1250 0.3750
0.4750 0.1250 0.3750
0.6000 0.1250 0.3750
0.7250 0.1250 0.3750
0.8500 0.1250 0.3750
0.9750 0.1250 0.3750
1.0000 0.1250 0.3750
0.1000 0.2500 0.3750
0.2250 0.2500 0.3750
0.3500 0.2500 0.3750
0.4750 0.2500 0.3750
0.6000 0.2500 0.3750
0.7250 0.2500 0.3750
0.8500 0.2500 0.3750
0.9750 0.2500 0.3750
1.0000 0.2500 0.3750
0.1000 0.3750 0.3750
0.2250 0.3750 0.3750
0.3500 0.3750 0.3750
0.4750 0.3750 0.3750
0.6000 0.3750 0.3750
0.7250 0.3750 0.3750
0.8500 0.3750 0.3750
0.9750 0.3750 0.3750
1.0000 0.3750 0.3750
0.1000 0.5000 0.3750
0.2250 0.5000 0.3750
0.3500 0.5000 0.3750
0.4750 0.5000 0.3750
0.6000 0.5000 0.3750
0.7250 0.5000 0.3750
0.8500 0.5000 0.3750
0.9750 0.5000 0.3750
1.0000 0.5000 0.3750
0.1000 0.6250 0.3750
0.2250 0.6250 0.3750
0.3500 0.6250 0.3750
0.4750 0.6250 0.3750
0.6000 0.6250 0.3750
0.7250 0.6250 0.3750
0.8500 0.6250 0.3750
0.9750 0.6250 0.3750
1.0000 0.6250 0.3750
0.1000 0.7500 0.3750
0.2250 0.7500 0.3750
0.3500 0.7500 0.3750
0.4750 0.7500 0.3750
0.6000 0.7500 0.3750
0.7250 0.7500 0.3750
0.8500 0.7500 0.3750
0.9750 0.7500 0.3750
1.0000 0.7500 0.3750
0.1000 0.8750 0.3750
0.2250 0.8750 0.3750
0.3500 0.8750 0.3750
0.4750 0.8750 0.3750
0.6000 0.8750 0.3750
0.7250 0.8750 0.3750
0.8500 0.8750 0.3750
0.9750 0.8750 0.3750
1.0000 0.8750 0.3750
0.1000 1.0000 0.3750
0.2250 1.0000 0.3750
0.3500 1.0000 0.3750
0.4750 1.0000 0.3750
0.6000 1.0000 0.3750
0.7250 1.0000 0.3750
0.8500 1.0000 0.3750
0.9750 1.0000 0.3750
1.0000 1.0000 0.3750
0.1000 0.0000 0.5000
0.2250 0.0000 0.5000
0.3500 0.0000 0.5000
0.4750 0.0000 0.5000
0.6000 0.0000 0.5000
0.7250 0.0000 0.5000
0.8500 0.0000 0.5000
0.9750 0.0000 0.5000
1.0000 0.0000 0.5000
0.1000 0.1250 0.5000
0.2250 0.1250 0.5000
0.3500 0.1250 0.5000
0.4750 0.1250 0.5000
0.6000 0.1250 0.5000
0.7250 0.1250 0.5000
0.8500 0.1250 0.5000
0.9750 0.1250 0.5000
1.0000 0.1250 0.5000
0.1000 0.2500 0.5000
0.2250 0.2500 0.5000
0.3500 0.2500 0.5000
0.4750 0.2500 0.5000
0.6000 0.2500 0.5000
0.7250 0.2500 0.5000
0.8500 0.2500 0.5000
0.9750 0.2500 0.5000
1.0000 0.2500 0.5000
0.1000 0.3750 0.5000
0.2250 0.3750 0.5000
0.3500 0.3750 0.5000
0.4750 0.3750 0.5000
0.6000 0.3750 0.5000
0.7250 0.3750 0.5000
0.8500 0.3750 0.5000
0.9750 0.3750 0.5000
1.0000 0.3750 0.5000
0.1000 0.5000 0.5000
0.2250 0.5000 0.5000
0.3500 0.5000 0.5000
0.4750 0.5000 0.5000
0.6000 0.5000 0.5000
0.7250 0.5000 0.5000
0.8500 0.5000 0.5000
0.9750 0.5000 0.5000
1.0000 0.5000 0.5000
0.1000 0.6250 0.5000
0.2250 0.6250 0.5000
0.3500 0.6250 0.5000
0.4750 0.6250 0.5000
0.6000 0.6250 0.5000
0.7250 0.6250 0.5000
0.8500 0.6250 0.5000
0.9750 0.6250 0.5000
1.0000 0.6250 0.5000
0.1000 0.7500 0.5000
0.2250 0.7500 0.5000
0.3500 0.7500 0.5000
0.4750 0.7500 0.5000
0.6000 0.7500 0.5000
0.7250 0.7500 0.5000
0.8500 0.7500 0.5000
0.9750 0.7500 0.5000
1.0000 0.7500 0.5000
0.1000 0.8750 0.5000
0.2250 0.8750 0.5000
0.3500 0.8750 0.5000
0.4750 0.8750 0.5000
0.6000 0.8750 0.5000
0.7250 0.8750 0.5000
0.8500 0.8750 0.5000
0.9750 0.8750 0.5000
1.0000 0.8750 0.5000
0.1000 1.0000 0.5000
0.2250 1.0000 0.5000
0.3500 1.0000 0.5000
0.4750 1.0000 0.5000
0.6000 1.0000 0.5000
0.7250 1.0000 0.5000
0.8500 1.0000 0.5000
0.9750 1.0000 0.5000
1.0000 1.0000 0.5000
0.1000 0.0000 0.6250
0.2250 0.0000 0.6250
0.3500 0.0000 0.6250
0.4750 0.0000 0.6250
0.6000 0.0000 0.6250
0.7250 0.0000 0.6250
0.8500 0.0000 0.6250
0.9750 0.0000 0.6250
1.0000 0.0000 0.6250
0.1000 0.1250 0.6250
0.2250 0.1250 0.6250
0.3500 0.1250 0.6250
0.4750 0.1250 0.6250
0.6000 0.1250 0.6250
0.7250 0.1250 0.6250
0.8500 0.1250 0.6250
0.9750 0.1250 0.6250
1.0000 0.1250 0.6250
0.1000 0.2500 0.6250
0.2250 0.2500 0.6250
0.3500 0.2500 0.6250
0.4750 0.2500 0.6250
0.6000 0.2500 0.6250
0.7250 0.2500 0.6250
0.8500 0.2500 0.6250
0.9750 0.2500 0.6250
1.0000 0.2500 0.6250
0.1000 0.3750 0.6250
0.2250 0.3750 0.6250
0.3500 0.3750 0.6250
0.4750 0.3750 0.6250
0.6000 0.3750 0.6250
0.7250 0.3750 0.6250
0.8500 0.3750 0.6250
0.9750 0.3750 0.6250
1.0000 0.3750 0.6250
0.1000 0.5000 0.6250
0.2250 0.5000 0.6250
0.3500 0.5000 0.6250
0.4750 0.5000 0.6250
0.6000 0.5000 0.6250
0.7250 0.5000 0.6250
0.8500 0.5000 0.6250
0.9750 0.5000 0.6250
1.0000 0.5000 0.6250
0.1000 0.6250 0.6250
0.2250 0.6250 0.6250
0.3500 0.6250 0.6250
0.4750 0.6250 0.6250
0.6000 0.6250 0.6250
0.7250 0.6250 0.6250
0.8500 0.6250 0.6250
0.9750 0.6250 0.6250
1.0000 0.6250 0.6250
0.1000 0.7500 0.6250
0.2250 0.7500 0.6250
0.3500 0.7500 0.6250
0.4750 0.7500 0.6250
0.6000 0.7500 0.6250
0.7250 0.7500 0.6250
0.8500 0.7500 0.6250
0.9750 0.7500 0.6250
1.0000 0.7500 0.6250
0.1000 0.8750 0.6250
0.2250 0.8750 0.6250
0.3500 0.8750 0.6250
0.4750 0.8750 0.6250
0.6000 0.8750 0.6250
0.7250 0.8750 0.6250
0.8500 0.8750 0.6250
0.9750 0.8750 0.6250
1.0000 0.8750 0.6250
0.1000 1.0000 0.6250
0.2250 1.0000 0.6250
0.3500 1.0000 0.6250
0.4750 1.0000 0.6250
0.6000 1.0000 0.6250
0.7250 1.0000 0.6250
0.8500 1.0000 0.6250
0.9750 1.0000 0.6250
1.0000 1.0000 0.6250
0.1000 0.0000 0.7500
0.2250 0.0000 0.7500
0.3500 0.0000 0.7500
0.4750 0.0000 0.7500
0.6000 0.0000 0.7500
0.7250 0.0000 0.7500
0.8500 0.0000 0.7500
0.9750 0.0000 0.7500
1.0000 0.0000 0.7500
0.1000 0.1250 0.7500
0.2250 0.1250 0.7500
0.3500 0.1250 0.7500
0.4750 0.1250 0.7500
0.6000 0.1250 0.7500
0.7250 0.1250 0.7500
0.8500 0.1250 0.7500
0.9750 0.1250 0.7500
1.0000 0.1250 0.7500
0.1000 0.2500 0.7500
0.2250 0.2500 0.7500
0.3500 0.2500 0.7500
0.4750 0.2500 0.7500
0.6000 0.2500 0.7500
0.7250 0.2500 0.7500
0.8500 0.2500 0.7500
0.9750 0.2500 0.7500
1.0000 0.2500 0.7500
0.1000 0.3750 0.7500
0.2250 0.3750 0.7500
0.3500 0.3750 0.7500
0.4750 0.3750 0.7500
0.6000 0.3750 0.7500
0.7250 0.3750 0.7500
0.8500 0.3750 0.7500
0.9750 0.3750 0.7500
1.0000 0.3750 0.7500
0.1000 0.5000 0.7500
0.2250 0.5000 0.7500
0.3500 0.5000 0.7500
0.4750 0.5000 0.7500
0.6000 0.5000 0.7500
0.7250 0.5000 0.7500
0.8500 0.5000 0.7500
0.9750 0.5000 0.7500
1.0000 0.5000 0.7500
0.1000 0.6250 0.7500
0.2250 0.6250 0.7500
0.3500 0.6250 0.7500
0.4750 0.6250 0.7500
0.6000 0.6250 0.7500
0.7250 0.6250 0.7500
0.8500 0.6250 0.7500
0.9750 0.6250 0.7500
1.0000 0.6250 0.7500
0.1000 0.7500 0.7500
0.2250 0.7500 0.7500
0.3500 0.7500 0.7500
0.4750 0.7500 0.7500
0.6000 0.7500 0.7500
0.7250 0.7500 0.7500
0.8500 0.7500 0.7500
0.9750 0.7500 0.7500
1.0000 0.7500 0.7500
0.1000 0.8750 0.7500
0.2250 0.8750 0.7500
0.3500 0.8750 0.7500
0.4750 0.8750 0.7500
0.6000 0.8750 0.7500
0.7250 0.8750 0.7500
0.8500 0.8750 0.7500
0.9750 0.8750 0.7500
1.0000 0.8750 0.7500
0.1000 1.0000 0.7500
0.2250 1.0000 0.7500
0.3500 1.0000 0.7500
0.4750 1.0000 0.7500
0.6000 1.0000 0.7500
0.7250 1.0000 0.7500
0.8500 1.0000 0.7500
0.9750 1.0000 0.7500
1.0000 1.0000 0.7500
0.1000 0.0000 0.8750
0.2250 0.0000 0.8750
0.3500 0.0000 0.8750
0.4750 0.0000 0.8750
0.6000 0.0000 0.8750
0.7250 0.0000 0.8750
0.8500 0.0000 0.8750
0.9750 0.0000 0.8750
1.0000 0.0000 0.8750
0.1000 0.1250 0.8750
0.2250 0.1250 0.8750
0.3500 0.1250 0.8750
0.4750 0.1250 0.8750
0.6000 0.1250 0.8750
0.7250 0.1250 0.8750
0.8500 0.1250 0.8750
0.9750 0.1250 0.8750
1.0000 0.1250 0.8750
0.1000 0.2500 0.8750
0.2250 0.2500 0.8750
0.3500 0.2500 0.8750
0.4750 0.2500 0.8750
0.6000 0.2500 0.8750
0.7250 0.2500 0.8750
0.8500 0.2500 0.8750
0.9750 0.2500 0.8750
1.0000 0.2500 0.8750
0.1000 0.3750 0.8750
0.2250 0.3750 0.8750
0.3500 0.3750 0.8750
0.4750 0.3750 0.8750
0.6000 0.3750 0.8750
0.7250 0.3750 0.8750
0.8500 0.3750 0.8750
0.9750 0.3750 0.8750
1.0000 0.3750 0.8750
0.1000 0.5000 0.8750
0.2250 0.5000 0.8750
0.3500 0.5000 0.8750
0.4750 0.5000 0.8750
0.6000 0.5000 0.8750
0.7250 0.5000 0.8750
0.8500 0.5000 0.8750
0.9750 0.5000 0.8750
1.0000 0.5000 0.8750
0.1000 0.6250 0.8750
0.2250 0.6250 0.8750
0.3500 0.6250 0.8750
0.4750 0.6250 0.8750
0.6000 0.6250 0.8750
0.7250 0.6250 0.8750
0.8500 0.6250 0.8750
0.9750 0.6250 0.8750
1.0000 0.6250 0.8750
0.1000 0.7500 0.8750
0.2250 0.7500 0.8750
0.3500 0.7500 0.8750
0.4750 0.7500 0.8750
0.6000 0.7500 0.8750
0.7250 0.7500 0.8750
0.8500 0.7500 0.8750
0.9750 0.7500 0.8750
1.0000 0.7500 0.8750
0.1000 0.8750 0.8750
0.2250 0.8750 0.8750
0.3500 0.8750 0.8750
0.4750 0.8750 0.8750
0.6000 0.8750 0.8750
0.7250 0.8750 0.8750
0.8500 0.8750 0.8750
0.9750 0.8750 0.8750
1.0000 0.8750 0.8750
0.1000 1.0000 0.8750
0.2250 1.0000 0.8750
0.3500 1.0000 0.8750
0.4750 1.0000 0.8750
0.6000 1.0000 0.8750
0.7250 1.0000 0.8750
0.8500 1.0000 0.8750
0.9750 1.0000 0.8750
1.0000 1.0000 0.8750
0.1000 0.0000 1.0000
0.2250 0.0000 1.0000
0.3500 0.0000 1.0000
0.4750 0.0000 1.0000
0.6000 0.0000 1.0000
0.7250 0.0000 1.0000
0.8500 0.0000 1.0000
0.9750 0.0000 1.0000
1.0000 0.0000 1.0000
0.1000 0.1250 1.0000
0.2250 0.1250 1.0000
0.3500 0.1250 1.0000
0.4750 0.1250 1.0000
0.6000 0.1250 1.0000
0.7250 0.1250 1.0000
0.8500 0.1250 1.0000
0.9750 0.1250 1.0000
1.0000 0.1250 1.0000
0.1000 0.2500 1.0000
0.2250 0.2500 1.0000
0.3500 0.2500 1.0000
0.4750 0.2500 1.0000
0.6000 0.2500 1.0000
0.7250 0.2500 1.0000
0.8500 0.2500 1.0000
0.9750 0.2500 1.0000
1.0000 0.2500 1.0000
0.1000 0.3750 1.0000
0.2250 0.3750 1.0000
0.3500 0.3750 1.0000
0.4750 0.3750 1.0000
0.6000 0.3750 1.0000
0.7250 0.3750 1.0000
0.8500 0.3750 1.0000
0.9750 0.3750 1.0000
1.0000 0.3750 1.0000
0.1000 0.5000 1.0000
0.2250 0.5000 1.0000
0.3500 0.5000 1.0000
0.4750 0.5000 1.0000
0.6000 0.5000 1.0000
0.7250 0.5000 1.0000
0.8500 0.5000 1.0000
0.9750 0.5000 1.0000
1.0000 0.5000 1.0000
0.1000 0.6250 1.0000
0.2250 0.6250 1.0000
0.3500 0.6250 1.0000
0.4750 0.6250 1.0000
0.6000 0.6250 1.0000
0.7250 0.6250 1.0000
0.8500 0.6250 1.0000
0.9750 0.6250 1.0000
1.0000 0.6250 1.0000
0.1000 0.7500 1.0000
0.2250 0.7500 1.0000
0.3500 0.7500 1.0000
0.4750 0.7500 1.0000
0.6000 0.7500 1.0000
0.7250 0.7500 1.0000
0.8500 0.7500 1.0000
0.9750 0.7500 1.0000
1.0000 0.7500 1.0000
0.1000 0.8750 1.0000
0.2250 0.8750 1.0000
0.3500 0.8750 1.0000
0.4750 0.8750 1.0000
0.6000 0.8750 1.0000
0.7250 0.8750 1.0000
0.8500 0.8750 1.0000
0.9750 0.8750 1.0000
1.0000 0.8750 1.0000
0.1000 1.0000 1.0000
0.2250 1.0000 1.0000
0.3500 1.0000 1.0000
0.4750 1.0000 1.0000
0.6000 1.0000 1.0000
0.7250 1.0000 1.0000
0.8500 1.0000 1.0000
0.9750 1.0000 1.0000
1.0000 1.0000 1.0000
