FILES/only_b-a9a2630d.cube
LUT_3D_SIZE 9
0.2000 0.0000 0.0000
0.3250 0.0000 0.0000
0.4500 0.0000 0.0000
0.5750 0.0000 0.0000
0.7000 0.0000 0.0000
0.8250 0.0000 0.0000
0.9500 0.0000 0.0000
1.0000 0.0000 0.0000
1.0000 0.0000 0.0000
0.2000 0.1250 0.0000
0.3250 0.1250 0.0000
0.4500 0.1250 0.0000
0.5750 0.1250 0.0000
0.7000 0.1250 0.0000
0.8250 0.1250 0.0000
0.9500 0.1250 0.0000
1.0000 0.1250 0.0000
1.0000 0.1250 0.0000
0.2000 0.2500 0.0000
0.3250 0.2500 0.0000
0.4500 0.2500 0.0000
0.5750 0.2500 0.0000
0.7000 0.2500 0.0000
0.8250 0.2500 0.0000
0.9500 0.2500 0.0000
1.0000 0.2500 0.0000
1.0000 0.2500 0.0000
0.2000 0.3750 0.0000
0.3250 0.3750 0.0000
0.4500 0.3750 0.0000
0.5750 0.3750 0.0000
0.7000 0.3750 0.0000
0.8250 0.3750 0.0000
0.9500 0.3750 0.0000
1.0000 0.3750 0.0000
1.0000 0.3750 0.0000
0.2000 0.5000 0.0000
0.3250 0.5000 0.0000
0.4500 0.5000 0.0000
0.5750 0.5000 0.0000
0.7000 0.5000 0.0000
0.8250 0.5000 0.0000
0.9500 0.5000 0.0000
1.0000 0.5000 0.0000
1.0000 0.5000 0.0000
0.2000 0.6250 0.0000
0.3250 0.6250 0.0000
0.4500 0.6250 0.0000
0.5750 0.6250 0.0000
0.7000 0.6250 0.0000
0.8250 0.6250 0.0000
0.9500 0.6250 0.0000
1.0000 0.6250 0.0000
1.0000 0.6250 0.0000
0.2000 0.7500 0.0000
0.3250 0.7500 0.0000
0.4500 0.7500 0.0000
0.5750 0.7500 0.0000
0.7000 0.7500 0.0000
0.8250 0.7500 0.0000
0.9500 0.7500 0.0000
1.0000 0.7500 0.0000
1.0000 0.7500 0.0000
0.2000 0.8750 0.0000
0.3250 0.8750 0.0000
0.4500 0.8750 0.0000
0.5750 0.8750 0.0000
0.7000 0.8750 0.0000
0.8250 0.8750 0.0000
0.9500 0.8750 0.0000
1.0000 0.8750 0.0000
1.0000 0.8750 0.0000
0.2000 1.0000 0.0000
0.3250 1.0000 0.0000
0.4500 1.0000 0.0000
0.5750 1.0000 0.0000
0.7000 1.0000 0.0000
0.8250 1.0000 0.0000
0.9500 1.0000 0.0000
1.0000 1.0000 0.0000
1.0000 1.0000 0.0000
0.2000 0.0000 0.1250
0.3250 0.0000 0.1250
0.4500 0.0000 0.1250
0.5750 0.0000 0.1250
0.7000 0.0000 0.1250
0.8250 0.0000 0.1250
0.9500 0.0000 0.1250
1.0000 0.0000 0.1250
1.0000 0.0000 0.1250
0.2000 0.1250 0.1250
0.3250 0.1250 0.1250
0.4500 0.1250 0.1250
0.5750 0.1250 0.1250
0.7000 0.1250 0.1250
0.8250 0.1250 0.1250
0.9500 0.1250 0.1250
1.0000 0.1250 0.1250
1.0000 0.1250 0.1250
0.2000 0.2500 0.1250
0.3250 0.2500 0.1250
0.4500 0.2500 0.1250
0.5750 0.2500 0.1250
0.7000 0.2500 0.1250
0.8250 0.2500 0.1250
0.9500 0.2500 0.1250
1.0000 0.2500 0.1250
1.0000 0.2500 0.1250
0.2000 0.3750 0.1250
0.3250 0.3750 0.1250
0.4500 0.3750 0.1250
0.5750 0.3750 0.1250
0.7000 0.3750 0.1250
0.8250 0.3750 0.1250
0.9500 0.3750 0.1250
1.0000 0.3750 0.1250
1.0000 0.3750 0.1250
0.2000 0.5000 0.1250
0.3250 0.5000 0.1250
0.4500 0.5000 0.1250
0.5750 0.5000 0.1250
0.7000 0.5000 0.1250
0.8250 0.5000 0.1250
0.9500 0.5000 0.1250
1.0000 0.5000 0.1250
1.0000 0.5000 0.1250
0.2000 0.6250 0.1250
0.3250 0.6250 0.1250
0.4500 0.6250 0.1250
0.5750 0.6250 0.1250
0.7000 0.6250 0.1250
0.8250 0.6250 0.1250
0.9500 0.6250 0.1250
1.0000 0.6250 0.1250
1.0000 0.6250 0.1250
0.2000 0.7500 0.1250
0.3250 0.7500 0.1250
0.4500 0.7500 0.1250
0.5750 0.7500 0.1250
0.7000 0.7500 0.1250
0.8250 0.7500 0.1250
0.9500 0.7500 0.1250
1.0000 0.7500 0.1250
1.0000 0.7500 0.1250
0.2000 0.8750 0.1250
0.3250 0.8750 0.1250
0.4500 0.8750 0.1250
0.5750 0.8750 0.1250
0.7000 0.8750 0.1250
0.8250 0.8750 0.1250
0.9500 0.8750 0.1250
1.0000 0.8750 0.1250
1.0000 0.8750 0.1250
0.2000 1.0000 0.1250
0.3250 1.0000 0.1250
0.4500 1.0000 0.1250
0.5750 1.0000 0.1250
0.7000 1.0000 0.1250
0.8250 1.0000 0.1250
0.9500 1.0000 0.1250
1.0000 1.0000 0.1250
1.0000 1.0000 0.1250
0.2000 0.0000 0.2500
0.3250 0.0000 0.2500
0.4500 0.0000 0.2500
0.5750 0.0000 0.2500
0.7000 0.0000 0.2500
0.8250 0.0000 0.2500
0.9500 0.0000 0.2500
1.0000 0.0000 0.2500
1.0000 0.0000 0.2500
0.2000 0.1250 0.2500
0.3250 0.1250 0.2500
0.4500 0.1250 0.2500
0.5750 0.1250 0.2500
0.7000 0.1250 0.2500
0.8250 0.1250 0.2500
0.9500 0.1250 0.2500
1.0000 0.1250 0.2500
1.0000 0.1250 0.2500
0.2000 0.2500 0.2500
0.3250 0.2500 0.2500
0.4500 0.2500 0.2500
0.5750 0.2500 0.2500
0.7000 0.2500 0.2500
0.8250 0.2500 0.2500
0.9500 0.2500 0.2500
1.0000 0.2500 0.2500
1.0000 0.2500 0.2500
0.2000 0.3750 0.2500
0.3250 0.3750 0.2500
0.4500 0.3750 0.2500
0.5750 0.3750 0.2500
0.7000 0.3750 0.2500
0.8250 0.3750 0.2500
0.9500 0.3750 0.2500
1.0000 0.3750 0.2500
1.0000 0.3750 0.2500
0.2000 0.5000 0.2500
0.3250 0.5000 0.2500
0.4500 0.5000 0.2500
0.5750 0.5000 0.2500
0.7000 0.5000 0.2500
0.8250 0.5000 0.2500
0.9500 0.5000 0.2500
1.0000 0.5000 0.2500
1.0000 0.5000 0.2500
0.2000 0.6250 0.2500
0.3250 0.6250 0.2500
0.4500 0.6250 0.2500
0.5750 0.6250 0.2500
0.7000 0.6250 0.2500
0.8250 0.6250 0.2500
0.9500 0.6250 0.2500
1.0000 0.6250 0.2500
1.0000 0.6250 0.2500
0.2000 0.7500 0.2500
0.3250 0.7500 0.2500
0.4500 0.7500 0.2500
0.5750 0.7500 0.2500
0.7000 0.7500 0.2500
0.8250 0.7500 0.2500
0.9500 0.7500 0.2500
1.0000 0.7500 0.2500
1.0000 0.7500 0.2500
0.2000 0.8750 0.2500
0.3250 0.8750 0.2500
0.4500 0.8750 0.2500
0.5750 0.8750 0.2500
0.7000 0.8750 0.2500
0.8250 0.8750 0.2500
0.9500 0.8750 0.2500
1.0000 0.8750 0.2500
1.0000 0.8750 0.2500
0.2000 1.0000 0.2500
0.3250 1.0000 0.2500
0.4500 1.0000 0.2500
0.5750 1.0000 0.2500
0.7000 1.0000 0.2500
0.8250 1.0000 0.2500
0.9500 1.0000 0.2500
1.0000 1.0000 0.2500
1.0000 1.0000 0.2500
0.2000 0.0000 0.3750
0.3250 0.0000 0.3750
0.4500 0.0000 0.3750
0.5750 0.0000 0.3750
0.7000 0.0000 0.3750
0.8250 0.0000 0.3750
0.9500 0.0000 0.3750
1.0000 0.0000 0.3750
1.0000 0.0000 0.3750
0.2000 0.1250 0.3750
0.3250 0.1250 0.3750
0.4500 0.1250 0.3750
0.5750 0.1250 0.3750
0.7000 0.1250 0.3750
0.8250 0.1250 0.3750
0.9500 0.1250 0.3750
1.0000 0.1250 0.3750
1.0000 0.1250 0.3750
0.2000 0.2500 0.3750
0.3250 0.2500 0.3750
0.4500 0.2500 0.3750
0.5750 0.2500 0.3750
0.7000 0.2500 0.3750
0.8250 0.2500 0.3750
0.9500 0.2500 0.3750
1.0000 0.2500 0.3750
1.0000 0.2500 0.3750
0.2000 0.3750 0.3750
0.3250 0.3750 0.3750
0.4500 0.3750 0.3750
0.5750 0.3750 0.3750
0.7000 0.3750 0.3750
0.8250 0.3750 0.3750
0.9500 0.3750 0.3750
1.0000 0.3750 0.3750
1.0000 0.3750 0.3750
0.2000 0.5000 0.3750
0.3250 0.5000 0.3750
0.4500 0.5000 0.3750
0.5750 0.5000 0.3750
0.7000 0.5000 0.3750
0.8250 0.5000 0.3750
0.9500 0.5000 0.3750
1.0000 0.5000 0.3750
1.0000 0.5000 0.3750
0.2000 0.6250 0.3750
0.3250 0.6250 0.3750
0.4500 0.6250 0.3750
0.5750 0.6250 0.3750
0.7000 0.6250 0.3750
0.8250 0.6250 0.3750
0.9500 0.6250 0.3750
1.0000 0.6250 0.3750
1.0000 0.6250 0.3750
0.2000 0.7500 0.3750
0.3250 0.7500 0.3750
0.4500 0.7500 0.3750
0.5750 0.7500 0.3750
0.7000 0.7500 0.3750
0.8250 0.7500 0.3750
0.9500 0.7500 0.3750
1.0000 0.7500 0.3750
1.0000 0.7500 0.3750
0.2000 0.8750 0.3750
0.3250 0.8750 0.3750
0.4500 0.8750 0.3750
0.5750 0.8750 0.3750
0.7000 0.8750 0.3750
0.8250 0.8750 0.3750
0.9500 0.8750 0.3750
1.0000 0.8750 0.3750
1.0000 0.8750 0.3750
0.2000 1.0000 0.3750
0.3250 1.0000 0.3750
0.4500 1.0000 0.3750
0.5750 1.0000 0.3750
0.7000 1.0000 0.3750
0.8250 1.0000 0.3750
0.9500 1.0000 0.3750
1.0000 1.0000 0.3750
1.0000 1.0000 0.3750
0.2000 0.0000 0.5000
0.3250 0.0000 0.5000
0.4500 0.0000 0.5000
0.5750 0.0000 0.5000
0.7000 0.0000 0.5000
0.8250 0.0000 0.5000
0.9500 0.0000 0.5000
1.0000 0.0000 0.5000
1.0000 0.0000 0.5000
0.2000 0.1250 0.5000
0.3250 0.1250 0.5000
0.4500 0.1250 0.5000
0.5750 0.1250 0.5000
0.7000 0.1250 0.5000
0.8250 0.1250 0.5000
0.9500 0.1250 0.5000
1.0000 0.1250 0.5000
1.0000 0.1250 0.5000
0.2000 0.2500 0.5000
0.3250 0.2500 0.5000
0.4500 0.2500 0.5000
0.5750 0.2500 0.5000
0.7000 0.2500 0.5000
0.8250 0.2500 0.5000
0.9500 0.2500 0.5000
1.0000 0.2500 0.5000
1.0000 0.2500 0.5000
0.2000 0.3750 0.5000
0.3250 0.3750 0.5000
0.4500 0.3750 0.5000
0.5750 0.3750 0.5000
0.7000 0.3750 0.5000
0.8250 0.3750 0.5000
0.9500 0.3750 0.5000
1.0000 0.3750 0.5000
1.0000 0.3750 0.5000
0.2000 0.5000 0.5000
0.3250 0.5000 0.5000
0.4500 0.5000 0.5000
0.5750 0.5000 0.5000
0.7000 0.5000 0.5000
0.8250 0.5000 0.5000
0.9500 0.5000 0.5000
1.0000 0.5000 0.5000
1.0000 0.5000 0.5000
0.2000 0.6250 0.5000
0.3250 0.6250 0.5000
0.4500 0.6250 0.5000
0.5750 0.6250 0.5000
0.7000 0.6250 0.5000
0.8250 0.6250 0.5000
0.9500 0.6250 0.5000
1.0000 0.6250 0.5000
1.0000 0.6250 0.5000
0.2000 0.7500 0.5000
0.3250 0.7500 0.5000
0.4500 0.7500 0.5000
0.5750 0.7500 0.5000
0.7000 0.7500 0.5000
0.8250 0.7500 0.5000
0.9500 0.7500 0.5000
1.0000 0.7500 0.5000
1.0000 0.7500 0.5000
0.2000 0.8750 0.5000
0.3250 0.8750 0.5000
0.4500 0.8750 0.5000
0.5750 0.8750 0.5000
0.7000 0.8750 0.5000
0.8250 0.8750 0.5000
0.9500 0.8750 0.5000
1.0000 0.8750 0.5000
1.0000 0.8750 0.5000
0.2000 1.0000 0.5000
0.3250 1.0000 0.5000
0.4500 1.0000 0.5000
0.5750 1.0000 0.5000
0.7000 1.0000 0.5000
0.8250 1.0000 0.5000
0.9500 1.0000 0.5000
1.0000 1.0000 0.5000
1.0000 1.0000 0.5000
0.2000 0.0000 0.6250
0.3250 0.0000 0.6250
0.4500 0.0000 0.6250
0.5750 0.0000 0.6250
0.7000 0.0000 0.6250
0.8250 0.0000 0.6250
0.9500 0.0000 0.6250
1.0000 0.0000 0.6250
1.0000 0.0000 0.6250
0.2000 0.1250 0.6250
0.3250 0.1250 0.6250
0.4500 0.1250 0.6250
0.5750 0.1250 0.6250
0.7000 0.1250 0.6250
0.8250 0.1250 0.6250
0.9500 0.1250 0.6250
1.0000 0.1250 0.6250
1.0000 0.1250 0.6250
0.2000 0.2500 0.6250
0.3250 0.2500 0.6250
0.4500 0.2500 0.6250
0.5750 0.2500 0.6250
0.7000 0.2500 0.6250
0.8250 0.2500 0.6250
0.9500 0.2500 0.6250
1.0000 0.2500 0.6250
1.0000 0.2500 0.6250
0.2000 0.3750 0.6250
0.3250 0.3750 0.6250
0.4500 0.3750 0.6250
0.5750 0.3750 0.6250
0.7000 0.3750 0.6250
0.8250 0.3750 0.6250
0.9500 0.3750 0.6250
1.0000 0.3750 0.6250
1.0000 0.3750 0.6250
0.2000 0.5000 0.6250
0.3250 0.5000 0.6250
0.4500 0.5000 0.6250
0.5750 0.5000 0.6250
0.7000 0.5000 0.6250
0.8250 0.5000 0.6250
0.9500 0.5000 0.6250
1.0000 0.5000 0.6250
1.0000 0.5000 0.6250
0.2000 0.6250 0.6250
0.3250 0.6250 0.6250
0.4500 0.6250 0.6250
0.5750 0.6250 0.6250
0.7000 0.6250 0.6250
0.8250 0.6250 0.6250
0.9500 0.6250 0.6250
1.0000 0.6250 0.6250
1.0000 0.6250 0.6250
0.2000 0.7500 0.6250
0.3250 0.7500 0.6250
0.4500 0.7500 0.6250
0.5750 0.7500 0.6250
0.7000 0.7500 0.6250
0.8250 0.7500 0.6250
0.9500 0.7500 0.6250
1.0000 0.7500 0.6250
1.0000 0.7500 0.6250
0.2000 0.8750 0.6250
0.3250 0.8750 0.6250
0.4500 0.8750 0.6250
0.5750 0.8750 0.6250
0.7000 0.8750 0.6250
0.8250 0.8750 0.6250
0.9500 0.8750 0.6250
1.0000 0.8750 0.6250
1.0000 0.8750 0.6250
0.2000 1.0000 0.6250
0.3250 1.0000 0.6250
0.4500 1.0000 0.6250
0.5750 1.0000 0.6250
0.7000 1.0000 0.6250
0.8250 1.0000 0.6250
0.9500 1.0000 0.6250
1.0000 1.0000 0.6250
1.0000 1.0000 0.6250
0.2000 0.0000 0.7500
0.3250 0.0000 0.7500
0.4500 0.0000 0.7500
0.5750 0.0000 0.7500
0.7000 0.0000 0.7500
0.8250 0.0000 0.7500
0.9500 0.0000 0.7500
1.0000 0.0000 0.7500
1.0000 0.0000 0.7500
0.2000 0.1250 0.7500
0.3250 0.1250 0.7500
0.4500 0.1250 0.7500
0.5750 0.1250 0.7500
0.7000 0.1250 0.7500
0.8250 0.1250 0.7500
0.9500 0.1250 0.7500
1.0000 0.1250 0.7500
1.0000 0.1250 0.7500
0.2000 0.2500 0.7500
0.3250 0.2500 0.7500
0.4500 0.2500 0.7500
0.5750 0.2500 0.7500
0.7000 0.2500 0.7500
0.8250 0.2500 0.7500
0.9500 0.2500 0.7500
1.0000 0.2500 0.7500
1.0000 0.2500 0.7500
0.2000 0.3750 0.7500
0.3250 0.3750 0.7500
0.4500 0.3750 0.7500
0.5750 0.3750 0.7500
0.7000 0.3750 0.7500
0.8250 0.3750 0.7500
0.9500 0.3750 0.7500
1.0000 0.3750 0.7500
1.0000 0.3750 0.7500
0.2000 0.5000 0.7500
0.3250 0.5000 0.7500
0.4500 0.5000 0.7500
0.5750 0.5000 0.7500
0.7000 0.5000 0.7500
0.8250 0.5000 0.7500
0.9500 0.5000 0.7500
1.0000 0.5000 0.7500
1.0000 0.5000 0.7500
0.2000 0.6250 0.7500
0.3250 0.6250 0.7500
0.4500 0.6250 0.7500
0.5750 0.6250 0.7500
0.7000 0.6250 0.7500
0.8250 0.6250 0.7500
0.9500 0.6250 0.7500
1.0000 0.6250 0.7500
1.0000 0.6250 0.7500
0.2000 0.7500 0.7500
0.3250 0.7500 0.7500
0.4500 0.7500 0.7500
0.5750 0.7500 0.7500
0.7000 0.7500 0.7500
0.8250 0.7500 0.7500
0.9500 0.7500 0.7500
1.0000 0.7500 0.7500
1.0000 0.7500 0.7500
0.2000 0.8750 0.7500
0.3250 0.8750 0.7500
0.4500 0.8750 0.7500
0.5750 0.8750 0.7500
0.7000 0.8750 0.7500
0.8250 0.8750 0.7500
0.9500 0.8750 0.7500
1.0000 0.8750 0.7500
1.0000 0.8750 0.7500
0.2000 1.0000 0.7500
0.3250 1.0000 0.7500
0.4500 1.0000 0.7500
0.5750 1.0000 0.7500
0.7000 1.0000 0.7500
0.8250 1.0000 0.7500
0.9500 1.0000 0.7500
1.0000 1.0000 0.7500
1.0000 1.0000 0.7500
0.2000 0.0000 0.8750
0.3250 0.0000 0.8750
0.4500 0.0000 0.8750
0.5750 0.0000 0.8750
0.7000 0.0000 0.8750
0.8250 0.0000 0.8750
0.9500 0.0000 0.8750
1.0000 0.0000 0.8750
1.0000 0.0000 0.8750
0.2000 0.1250 0.8750
0.3250 0.1250 0.8750
0.4500 0.1250 0.8750
0.5750 0.1250 0.8750
0.7000 0.1250 0.8750
0.8250 0.1250 0.8750
0.9500 0.1250 0.8750
1.0000 0.1250 0.8750
1.0000 0.1250 0.8750
0.2000 0.2500 0.8750
0.3250 0.2500 0.8750
0.4500 0.2500 0.8750
0.5750 0.2500 0.8750
0.7000 0.2500 0.8750
0.8250 0.2500 0.8750
0.9500 0.2500 0.8750
1.0000 0.2500 0.8750
1.0000 0.2500 0.8750
0.2000 0.3750 0.8750
0.3250 0.3750 0.8750
0.4500 0.3750 0.8750
0.5750 0.3750 0.8750
0.7000 0.3750 0.8750
0.8250 0.3750 0.8750
0.9500 0.3750 0.8750
1.0000 0.3750 0.8750
1.0000 0.3750 0.8750
0.2000 0.5000 0.8750
0.3250 0.5000 0.8750
0.4500 0.5000 0.8750
0.5750 0.5000 0.8750
0.7000 0.5000 0.8750
0.8250 0.5000 0.8750
0.9500 0.5000 0.8750
1.0000 0.5000 0.8750
1.0000 0.5000 0.8750
0.2000 0.6250 0.8750
0.3250 0.6250 0.8750
0.4500 0.6250 0.8750
0.5750 0.6250 0.8750
0.7000 0.6250 0.8750
0.8250 0.6250 0.8750
0.9500 0.6250 0.8750
1.0000 0.6250 0.8750
1.0000 0.6250 0.8750
0.2000 0.7500 0.8750
0.3250 0.7500 0.8750
0.4500 0.7500 0.8750
0.5750 0.7500 0.8750
0.7000 0.7500 0.8750
0.8250 0.7500 0.8750
0.9500 0.7500 0.8750
1.0000 0.7500 0.8750
1.0000 0.7500 0.8750
0.2000 0.8750 0.8750
0.3250 0.8750 0.8750
0.4500 0.8750 0.8750
0.5750 0.8750 0.8750
0.7000 0.8750 0.8750
0.8250 0.8750 0.8750
0.9500 0.8750 0.8750
1.0000 0.8750 0.8750
1.0000 0.8750 0.8750
0.2000 1.0000 0.8750
0.3250 1.0000 0.8750
0.4500 1.0000 0.8750
0.5750 1.0000 0.8750
0.7000 1.0000 0.8750
0.8250 1.0000 0.8750
0.9500 1.0000 0.8750
1.0000 1.0000 0.8750
1.0000 1.0000 0.8750
0.2000 0.0000 1.0000
0.3250 0.0000 1.0000
0.4500 0.0000 1.0000
0.5750 0.0000 1.0000
0.7000 0.0000 1.0000
0.8250 0.0000 1.0000
0.9500 0.0000 1.0000
1.0000 0.0000 1.0000
1.0000 0.0000 1.0000
0.2000 0.1250 1.0000
0.3250 0.1250 1.0000
0.4500 0.1250 1.0000
0.5750 0.1250 1.0000
0.7000 0.1250 1.0000
0.8250 0.1250 1.0000
0.9500 0.1250 1.0000
1.0000 0.1250 1.0000
1.0000 0.1250 1.0000
0.2000 0.2500 1.0000
0.3250 0.2500 1.0000
0.4500 0.2500 1.0000
0.5750 0.2500 1.0000
0.7000 0.2500 1.0000
0.8250 0.2500 1.0000
0.9500 0.2500 1.0000
1.0000 0.2500 1.0000
1.0000 0.2500 1.0000
0.2000 0.3750 1.0000
0.3250 0.3750 1.0000
0.4500 0.3750 1.0000
0.5750 0.3750 1.0000
0.7000 0.3750 1.0000
0.8250 0.3750 1.0000
0.9500 0.3750 1.0000
1.0000 0.3750 1.0000
1.0000 0.3750 1.0000
0.2000 0.5000 1.0000
0.3250 0.5000 1.0000
0.4500 0.5000 1.0000
0.5750 0.5000 1.0000
0.7000 0.5000 1.0000
0.8250 0.5000 1.0000
0.9500 0.5000 1.0000
1.0000 0.5000 1.0000
1.0000 0.5000 1.0000
0.2000 0.6250 1.0000
0.3250 0.6250 1.0000
0.4500 0.6250 1.0000
0.5750 0.6250 1.0000
0.7000 0.6250 1.0000
0.8250 0.6250 1.0000
0.9500 0.6250 1.0000
1.0000 0.6250 1.0000
1.0000 0.6250 1.0000
0.2000 0.7500 1.0000
0.3250 0.7500 1.0000
0.4500 0.7500 1.0000
0.5750 0.7500 1.0000
0.7000 0.7500 1.0000
0.8250 0.7500 1.0000
0.9500 0.7500 1.0000
1.0000 0.7500 1.0000
1.0000 0.7500 1.0000
0.2000 0.8750 1.0000
0.3250 0.8750 1.0000
0.4500 0.8750 1.0000
0.5750 0.8750 1.0000
0.7000 0.8750 1.0000
0.8250 0.8750 1.0000
0.9500 0.8750 1.0000
1.0000 0.8750 1.0000
1.0000 0.8750 1.0000
0.2000 1.0000 1.0000
0.3250 1.0000 1.0000
0.4500 1.0000 1.0000
0.5750 1.0000 1.0000
0.7000 1.0000 1.0000
0.8250 1.0000 1.0000
0.9500 1.0000 1.0000
1.0000 1.0000 1.0000
1.0000 1.0000 1.0000
