FILES/Studio_2-5d0ec884.cube
TITLE "STUDIOTEST"
LUT_3D_SIZE 5
DOMAIN_MIN 0.000000 0.000000 0.000000
DOMAIN_MAX 0.903226 0.903226 0.903226
0.029572 0.036866 0.049149
0.027405 0.036072 0.048280
0.026215 0.033310 0.045624
0.040604 0.033310 0.043259
0.108721 0.035874 0.043626
0.028580 0.031937 0.047593
0.026413 0.032136 0.046525
0.032136 0.034302 0.043824
0.067033 0.041367 0.045808
0.198001 0.042313 0.051347
0.000000 0.166964 0.027207
0.021088 0.240085 0.015183
0.083909 0.108263 0.041367
0.179370 0.117998 0.065080
0.602502 0.292500 0.177157
0.000000 0.736812 0.000000
0.295338 0.758709 0.000000
0.538018 0.757931 0.027604
0.596170 0.608179 0.000000
0.774975 0.623774 0.301183
0.838422 0.988205 0.720745
0.860136 0.991028 0.735164
0.899565 0.990204 0.746700
0.953780 0.988510 0.740658
1.000000 0.992142 0.690929
0.029572 0.035874 0.045991
0.027604 0.035691 0.045090
0.028382 0.032334 0.044541
0.033707 0.031937 0.043824
0.062074 0.033127 0.042878
0.028000 0.032731 0.044541
0.027008 0.032136 0.044190
0.030762 0.032731 0.044190
0.044907 0.034501 0.044373
0.104265 0.037064 0.045457
0.000000 0.138811 0.044373
0.000000 0.192676 0.039231
0.078004 0.101381 0.049149
0.179324 0.115877 0.078981
0.570504 0.246296 0.165469
0.000000 0.738933 0.081834
0.322606 0.765866 0.165881
0.564370 0.768811 0.211185
0.594232 0.604028 0.045457
0.780377 0.634974 0.363439
0.832685 0.990951 0.742138
0.858045 0.995132 0.760250
0.899062 0.994354 0.771160
0.952422 0.990494 0.761593
1.000000 0.993500 0.706798
0.027802 0.033310 0.045090
0.027405 0.031937 0.048447
0.035874 0.030365 0.062226
0.118410 0.021088 0.073899
0.177890 0.008087 0.058350
0.026810 0.032334 0.045457
0.026017 0.031937 0.051347
0.039033 0.033906 0.069596
0.130968 0.027802 0.074662
0.113710 0.024643 0.050004
0.023072 0.045808 0.059571
0.024445 0.056809 0.071183
0.065354 0.090028 0.102342
0.106233 0.063951 0.073640
0.261433 0.040604 0.069200
0.000000 0.678828 0.355932
0.253285 0.724865 0.410544
0.506874 0.737758 0.408347
0.608148 0.607889 0.248737
0.796216 0.675685 0.534417
0.791394 0.991470 0.779751
0.820356 0.993912 0.790921
0.881117 0.997147 0.811902
0.948150 0.996216 0.818952
1.000000 0.993912 0.747768
0.019120 0.029175 0.083223
0.013596 0.027802 0.109163
0.000000 0.021088 0.232776
0.268208 0.000000 0.381109
0.727489 0.000000 0.446036
0.022477 0.031144 0.064088
0.018524 0.030167 0.086748
0.000000 0.029572 0.216861
0.294972 0.000000 0.398062
0.756527 0.000000 0.465461
0.023270 0.033509 0.054612
0.022477 0.033906 0.059724
0.011231 0.048112 0.140093
0.429450 0.195468 0.479820
0.802060 0.347036 0.529458
0.000000 0.166720 0.185977
0.000000 0.194659 0.211643
0.000000 0.289525 0.294682
0.612757 0.610529 0.592554
0.738643 0.458625 0.419593
0.748211 0.958938 0.869184
0.770901 0.967254 0.876005
0.825620 0.985122 0.885618
0.932891 1.000000 0.907027
1.000000 0.995377 0.842618
0.000000 0.000000 0.633997
0.000000 0.000000 0.659159
0.000000 0.000000 0.726482
0.567788 0.248997 0.823987
0.832670 0.401404 0.863737
0.000000 0.000000 0.589990
0.000000 0.000000 0.654902
0.000000 0.015976 0.714946
0.586679 0.318471 0.827420
0.843610 0.472389 0.870176
0.000000 0.024842 0.540200
0.000000 0.026612 0.592294
0.000000 0.081834 0.693080
0.616526 0.454673 0.834669
0.872572 0.618112 0.891249
0.000000 0.265660 0.657740
0.000000 0.256413 0.665049
0.000000 0.226398 0.686992
0.517464 0.519753 0.824048
0.927474 0.809628 0.939727
0.402823 0.885420 0.887816
0.440314 0.888212 0.890822
0.544869 0.898070 0.901473
0.752300 0.929015 0.934173
1.000000 1.000000 1.000000
