FILES/STUDIOTEST-4262de71.cube
TITLE "STUDIOTEST"
LUT_3D_SIZE 32
0.029572 0.036866 0.049149
0.029572 0.036866 0.049149
0.029572 0.036866 0.049149
0.029572 0.036866 0.049149
0.029374 0.036866 0.048981
0.028580 0.036469 0.048798
0.027802 0.036469 0.048631
0.027405 0.036072 0.048280
0.026810 0.035874 0.048112
0.026413 0.035691 0.047761
0.026017 0.035294 0.047410
0.026017 0.034699 0.047059
0.026017 0.034104 0.046525
0.025834 0.033707 0.046174
0.026215 0.033310 0.045624
0.026810 0.033127 0.045090
0.028977 0.032731 0.044373
0.030564 0.032731 0.044007
0.032731 0.032731 0.043824
0.034897 0.033127 0.043626
0.037659 0.033127 0.043442
0.040803 0.033310 0.043259
0.044373 0.033707 0.043061
0.048112 0.034104 0.043061
0.053315 0.034501 0.042878
0.060166 0.035096 0.043061
0.070924 0.035874 0.043061
0.085618 0.036271 0.043259
0.106416 0.036271 0.043824
0.141238 0.034104 0.044541
0.213153 0.023453 0.046708
0.827817 0.000000 0.102052
0.025834 0.034104 0.046174
0.029572 0.036866 0.049149
0.029572 0.036866 0.049149
0.029572 0.036866 0.049149
0.029175 0.036667 0.048981
0.028580 0.036469 0.048798
0.027802 0.036469 0.048447
0.027405 0.036072 0.048280
0.026810 0.035874 0.048112
0.026413 0.035492 0.047593
0.026215 0.034897 0.047242
0.026215 0.034302 0.046708
0.025834 0.033906 0.046357
0.026017 0.033509 0.045991
0.026215 0.033127 0.045457
0.027207 0.032731 0.044907
0.029374 0.032731 0.044190
0.031144 0.032731 0.044007
0.033127 0.032929 0.043824
0.035691 0.032929 0.043442
0.038239 0.033310 0.043442
0.041367 0.033509 0.043259
0.044907 0.033906 0.043061
0.048981 0.034302 0.043061
0.054292 0.034897 0.043061
0.061494 0.035294 0.043061
0.072755 0.036072 0.043259
0.087297 0.036667 0.043442
0.107988 0.036667 0.044007
0.143206 0.034501 0.044724
0.215930 0.023850 0.047242
0.821942 0.000000 0.101381
0.025834 0.034104 0.046174
0.029572 0.036866 0.049149
0.029572 0.036866 0.049149
0.029572 0.036866 0.049149
0.028779 0.036667 0.048981
0.028199 0.036469 0.048798
0.027604 0.036271 0.048447
0.027207 0.035874 0.048112
0.026810 0.035492 0.047761
0.026413 0.034699 0.047242
0.026413 0.034302 0.046891
0.026017 0.033906 0.046525
0.026017 0.033509 0.046174
0.026215 0.033310 0.045624
0.026413 0.032929 0.045090
0.027604 0.032731 0.044724
0.029969 0.032532 0.044190
0.031540 0.032929 0.043824
0.034104 0.032929 0.043626
0.036469 0.033127 0.043442
0.039231 0.033509 0.043442
0.042130 0.033906 0.043061
0.045808 0.034302 0.043061
0.050507 0.034699 0.043061
0.056184 0.035294 0.043061
0.063798 0.035874 0.043259
0.075410 0.036469 0.043442
0.090135 0.037064 0.043626
0.110872 0.036866 0.044190
0.145144 0.035096 0.045090
0.216739 0.024842 0.047593
0.796246 0.000000 0.096117
0.026017 0.033509 0.045808
0.029572 0.036271 0.048981
0.029572 0.036072 0.048981
0.028977 0.036072 0.048981
0.028779 0.036072 0.048447
0.028382 0.035691 0.048112
0.027802 0.035294 0.047761
0.027207 0.034897 0.047593
0.026810 0.034699 0.047242
0.026810 0.034302 0.046891
0.026413 0.033906 0.046525
0.026215 0.033509 0.046174
0.026017 0.033310 0.045808
0.026413 0.032929 0.045274
0.027008 0.032532 0.044724
0.028000 0.032731 0.044373
0.030564 0.032731 0.044007
0.032731 0.032929 0.043824
0.034897 0.033310 0.043626
0.037659 0.033509 0.043442
0.040604 0.033906 0.043259
0.043824 0.034104 0.043259
0.047929 0.034699 0.043259
0.052827 0.035294 0.043259
0.059113 0.035874 0.043259
0.067170 0.036469 0.043442
0.079103 0.037263 0.043824
0.094362 0.037659 0.044007
0.114672 0.037659 0.044541
0.148470 0.035691 0.045457
0.218158 0.026017 0.048112
0.775967 0.000000 0.093111
0.029969 0.034699 0.048798
0.029572 0.034501 0.048798
0.028977 0.034501 0.048631
0.028382 0.034302 0.048631
0.027802 0.034699 0.048280
0.027604 0.034699 0.047761
0.027604 0.034302 0.047059
0.027207 0.034104 0.046708
0.026612 0.033906 0.046357
0.026612 0.033509 0.046174
0.026413 0.033310 0.045808
0.026215 0.033127 0.045457
0.026612 0.032731 0.044907
0.027405 0.032532 0.044541
0.028382 0.032731 0.044190
0.029969 0.032731 0.044007
0.033310 0.033127 0.043626
0.036072 0.033509 0.043626
0.038636 0.034104 0.043259
0.041932 0.034699 0.043259
0.045624 0.034897 0.043259
0.049668 0.035294 0.043442
0.054124 0.035874 0.043442
0.059724 0.036469 0.043626
0.066484 0.037064 0.043824
0.075914 0.037659 0.044007
0.091310 0.038636 0.044373
0.111238 0.038834 0.044907
0.139162 0.038056 0.045808
0.183139 0.033906 0.047410
0.264805 0.018143 0.050843
0.815183 0.000000 0.105943
0.031540 0.032731 0.044007
0.028779 0.033310 0.048280
0.028382 0.033310 0.048112
0.028000 0.033310 0.048112
0.027405 0.033310 0.047929
0.027405 0.033509 0.047761
0.027207 0.033707 0.047059
0.026810 0.033509 0.046525
0.026612 0.033310 0.046174
0.026413 0.033127 0.045808
0.026413 0.032929 0.045457
0.026612 0.032731 0.044907
0.027008 0.032334 0.044541
0.028000 0.032532 0.044190
0.029175 0.032929 0.044007
0.031144 0.033127 0.043824
0.035294 0.033906 0.043442
0.038239 0.034501 0.043442
0.041367 0.035096 0.043626
0.045090 0.035691 0.043626
0.049149 0.036072 0.043626
0.053315 0.036667 0.043824
0.058656 0.037263 0.044007
0.064942 0.037858 0.044190
0.073014 0.038636 0.044373
0.083909 0.039429 0.044724
0.101183 0.040208 0.045274
0.123766 0.040208 0.045991
0.153811 0.039033 0.046891
0.200610 0.034104 0.048798
0.287755 0.016754 0.053162
0.817990 0.000000 0.110338
0.034302 0.033310 0.043626
0.028199 0.032334 0.047761
0.027802 0.032334 0.047593
0.027604 0.032136 0.047593
0.027207 0.032532 0.047593
0.026810 0.032532 0.047410
0.026612 0.032731 0.047059
0.026612 0.032731 0.046708
0.026612 0.032929 0.045991
0.026413 0.032731 0.045457
0.026612 0.032334 0.044907
0.026810 0.032334 0.044541
0.027802 0.032532 0.044190
0.028977 0.032929 0.044007
0.030945 0.033310 0.043824
0.033310 0.034104 0.043626
0.038437 0.035294 0.043824
0.041749 0.036072 0.044007
0.045991 0.036866 0.044190
0.050340 0.037461 0.044373
0.055085 0.038239 0.044541
0.060166 0.039033 0.044724
0.066621 0.039612 0.044907
0.074540 0.040406 0.045274
0.084718 0.041367 0.045457
0.097932 0.042130 0.046174
0.119081 0.042878 0.046891
0.144579 0.042496 0.047929
0.177493 0.040604 0.049149
0.226947 0.034897 0.051514
0.317433 0.015778 0.056504
0.807965 0.000000 0.112306
0.037461 0.034501 0.043626
0.027604 0.031739 0.047242
0.027604 0.031739 0.047242
0.027207 0.031739 0.047242
0.027008 0.031937 0.047059
0.027008 0.031937 0.046891
0.026612 0.031937 0.046708
0.026413 0.032136 0.046357
0.026413 0.032136 0.045991
0.026612 0.032136 0.045274
0.026810 0.032334 0.044724
0.027405 0.032532 0.044373
0.028580 0.032929 0.044007
0.030167 0.033707 0.044007
0.032731 0.034501 0.043824
0.035874 0.035691 0.044007
0.042130 0.037461 0.044541
0.046357 0.038437 0.044907
0.051179 0.039612 0.045090
0.056504 0.040406 0.045274
0.062364 0.041367 0.045624
0.068940 0.042130 0.045991
0.077028 0.043061 0.046357
0.087068 0.044190 0.046891
0.100206 0.045090 0.047410
0.116732 0.045808 0.048112
0.141161 0.046357 0.049317
0.169268 0.045624 0.050507
0.203906 0.043259 0.052018
0.254627 0.037064 0.054780
0.346654 0.018723 0.060609
0.803677 0.000000 0.117327
0.027604 0.033127 0.045991
0.027604 0.033127 0.045991
0.027604 0.033310 0.045808
0.027604 0.033707 0.045808
0.028000 0.033509 0.045624
0.027802 0.033906 0.045624
0.028000 0.033906 0.045457
0.028000 0.033509 0.045274
0.027802 0.033310 0.045090
0.027802 0.033127 0.044724
0.028382 0.033707 0.044373
0.029374 0.034104 0.044190
0.031144 0.034897 0.043824
0.033310 0.035874 0.044007
0.036072 0.037263 0.044373
0.040406 0.038834 0.045090
0.049836 0.042313 0.046174
0.056504 0.043824 0.046891
0.063798 0.045624 0.047593
0.071977 0.047059 0.048280
0.080766 0.048447 0.048631
0.090135 0.049500 0.049149
0.101381 0.050340 0.049836
0.113970 0.051179 0.050340
0.130129 0.052018 0.051179
0.151598 0.052506 0.052186
0.184375 0.052674 0.053971
0.222904 0.051179 0.056031
0.268421 0.047761 0.058808
0.329656 0.039612 0.062943
0.423774 0.023270 0.070802
0.826062 0.096422 0.139101
0.074022 0.048798 0.048447
0.029572 0.039231 0.044190
0.029969 0.040803 0.044007
0.030167 0.041001 0.044007
0.030762 0.040604 0.044007
0.030762 0.040009 0.044190
0.031144 0.039429 0.044190
0.030945 0.038437 0.044190
0.030762 0.037461 0.044373
0.029969 0.036072 0.044373
0.029969 0.035492 0.044190
0.030762 0.035691 0.044007
0.032136 0.036469 0.043824
0.034302 0.037461 0.044007
0.037064 0.039033 0.044373
0.041566 0.040803 0.045090
0.052186 0.045274 0.047059
0.061189 0.048280 0.048280
0.071321 0.051179 0.049668
0.082185 0.053483 0.050675
0.093950 0.055406 0.051682
0.106416 0.056977 0.052506
0.121324 0.058350 0.053483
0.138674 0.059571 0.054444
0.160281 0.060899 0.055711
0.187030 0.061784 0.057282
0.225925 0.062654 0.059861
0.269291 0.061784 0.062806
0.318730 0.059571 0.066331
0.383139 0.055253 0.071580
0.476768 0.053162 0.081834
0.838819 0.180972 0.161822
0.069993 0.052186 0.049668
0.032136 0.049836 0.042496
0.033127 0.053483 0.042130
0.033509 0.053803 0.042313
0.034302 0.052354 0.042313
0.034699 0.051011 0.042695
0.035294 0.049149 0.042878
0.035294 0.047242 0.043259
0.035096 0.045274 0.043442
0.034302 0.042313 0.043626
0.033509 0.040009 0.043824
0.033127 0.039033 0.043824
0.034302 0.039231 0.043824
0.036469 0.040208 0.044007
0.039429 0.041932 0.044541
0.044190 0.044190 0.045274
0.055711 0.049149 0.047761
0.065217 0.052995 0.049500
0.078126 0.057130 0.051514
0.093217 0.061189 0.053483
0.109438 0.064515 0.055085
0.127108 0.067430 0.056809
0.147799 0.069993 0.058503
0.171588 0.072358 0.060304
0.200366 0.074662 0.062516
0.233677 0.076905 0.065080
0.278782 0.079454 0.068666
0.325963 0.080537 0.072496
0.376501 0.081239 0.077028
0.438605 0.083680 0.083574
0.527459 0.097230 0.096422
0.840574 0.239322 0.183948
0.070665 0.056031 0.050340
0.033707 0.066484 0.040604
0.034897 0.073518 0.040009
0.036469 0.074281 0.040009
0.037659 0.071839 0.040406
0.039033 0.069337 0.040803
0.040604 0.066621 0.041184
0.041749 0.063371 0.041749
0.041932 0.059861 0.042313
0.041932 0.056031 0.042695
0.040604 0.051514 0.043061
0.039033 0.047242 0.043442
0.038239 0.044907 0.043626
0.040208 0.044907 0.043824
0.043442 0.046357 0.044190
0.047929 0.048447 0.045090
0.059419 0.053803 0.047761
0.069200 0.057893 0.050004
0.082643 0.062806 0.052354
0.099519 0.068391 0.055085
0.121324 0.074403 0.058198
0.146777 0.079942 0.061189
0.175814 0.085283 0.064378
0.208728 0.090455 0.067704
0.245762 0.095705 0.071443
0.286061 0.100496 0.075410
0.336217 0.106691 0.080766
0.384695 0.110872 0.085847
0.433280 0.115953 0.091646
0.491020 0.125048 0.099718
0.572839 0.150011 0.115953
0.845731 0.303624 0.216556
0.027802 0.126238 0.033707
0.029175 0.126940 0.033707
0.031342 0.127565 0.033707
0.034699 0.127657 0.033906
0.039033 0.127260 0.034302
0.044373 0.124971 0.034897
0.050507 0.120256 0.036072
0.055406 0.113451 0.037064
0.058198 0.104921 0.038437
0.059419 0.094881 0.039811
0.059113 0.084596 0.041001
0.055558 0.072755 0.042130
0.051347 0.062943 0.043061
0.048447 0.056336 0.043442
0.050172 0.055253 0.044190
0.054444 0.056504 0.045090
0.067033 0.062074 0.047761
0.078737 0.067033 0.050172
0.094987 0.073640 0.053315
0.116381 0.081361 0.057130
0.144244 0.090349 0.061784
0.178271 0.100008 0.066896
0.218967 0.110613 0.072877
0.260670 0.120165 0.078737
0.305501 0.129747 0.084947
0.354681 0.140032 0.091951
0.414832 0.154192 0.101579
0.471870 0.167849 0.111589
0.525872 0.183185 0.122469
0.581491 0.202945 0.135683
0.645136 0.235645 0.156634
0.861845 0.397452 0.279866
0.108812 0.082185 0.054124
0.010056 0.187137 0.024247
0.002762 0.217899 0.018341
0.010254 0.219715 0.018143
0.024445 0.208774 0.020905
0.038437 0.197360 0.023651
0.053971 0.185702 0.026215
0.063798 0.171710 0.029374
0.070802 0.156954 0.032136
0.074281 0.140246 0.034897
0.075166 0.123766 0.037461
0.073259 0.107240 0.039429
0.067704 0.089921 0.041566
0.061936 0.076036 0.042695
0.057893 0.066896 0.043626
0.059419 0.064668 0.044541
0.071061 0.068940 0.046708
0.082643 0.073777 0.048981
0.098726 0.080659 0.052186
0.120012 0.088731 0.056184
0.147585 0.098634 0.061051
0.182162 0.110079 0.067033
0.224811 0.123766 0.074159
0.275196 0.139239 0.082887
0.333547 0.157336 0.093538
0.394034 0.176089 0.105196
0.461479 0.199283 0.120256
0.521904 0.221256 0.135531
0.574990 0.243137 0.151003
0.625925 0.268452 0.169085
0.682582 0.306813 0.196765
0.869184 0.465690 0.336996
0.097520 0.083909 0.050172
0.000000 0.253544 0.009659
0.000000 0.289662 0.000198
0.000000 0.291234 0.000000
0.007294 0.277516 0.004334
0.029175 0.263416 0.008865
0.055406 0.250187 0.012818
0.072236 0.234836 0.017151
0.085176 0.218158 0.021485
0.093324 0.199039 0.026017
0.097826 0.179095 0.030365
0.098238 0.158404 0.034104
0.095705 0.137865 0.037064
0.087190 0.114580 0.040208
0.079225 0.096117 0.042313
0.073396 0.083223 0.043626
0.080659 0.081361 0.045991
0.091539 0.085283 0.048112
0.107347 0.091417 0.051011
0.128435 0.099321 0.054932
0.156435 0.109895 0.060014
0.191959 0.122789 0.066484
0.236866 0.139162 0.075044
0.290913 0.158968 0.085618
0.355901 0.183459 0.099718
0.426047 0.211597 0.116976
0.500725 0.244831 0.139162
0.563012 0.274723 0.161089
0.613092 0.301610 0.181994
0.666880 0.338781 0.211551
0.722744 0.389181 0.254261
0.873396 0.525185 0.394369
0.103502 0.094255 0.048798
0.000000 0.327367 0.000000
0.000000 0.365957 0.000000
0.000000 0.367575 0.000000
0.000000 0.354040 0.000000
0.004929 0.342077 0.000000
0.050004 0.331746 0.000000
0.080537 0.320012 0.000000
0.104356 0.306645 0.000000
0.122148 0.289525 0.005127
0.134508 0.269535 0.011627
0.140887 0.245563 0.018524
0.141665 0.219089 0.025040
0.136492 0.190417 0.030945
0.122881 0.157336 0.036667
0.108446 0.129122 0.041001
0.097017 0.103304 0.044724
0.103777 0.101869 0.046525
0.117327 0.105486 0.049149
0.137148 0.112383 0.052674
0.164858 0.122881 0.057588
0.201144 0.136934 0.064088
0.248035 0.155489 0.073136
0.305440 0.179049 0.085389
0.373175 0.208209 0.101869
0.443427 0.240360 0.122393
0.519265 0.279500 0.149935
0.583734 0.316426 0.178988
0.644892 0.360265 0.215656
0.702388 0.411856 0.262943
0.751842 0.463859 0.315587
0.885283 0.594064 0.468147
0.135241 0.126390 0.046891
0.000000 0.452354 0.000000
0.000000 0.486183 0.000000
0.000000 0.490761 0.000000
0.000000 0.484031 0.000000
0.000000 0.479683 0.000000
0.032929 0.477058 0.000000
0.094987 0.472984 0.000000
0.138094 0.466529 0.000000
0.172107 0.456397 0.000000
0.199191 0.441505 0.000000
0.218997 0.420294 0.000000
0.231159 0.392996 0.000000
0.235492 0.359930 0.000000
0.232822 0.323278 0.001190
0.220371 0.280491 0.014786
0.187762 0.211185 0.032929
0.170199 0.178882 0.039429
0.167788 0.163470 0.043824
0.184482 0.164385 0.047593
0.213657 0.173831 0.052506
0.252262 0.188388 0.059266
0.300999 0.208728 0.069062
0.358358 0.233967 0.082887
0.423178 0.265064 0.102541
0.491432 0.301549 0.128893
0.566033 0.348257 0.167086
0.629694 0.395178 0.211872
0.680674 0.439734 0.259876
0.734035 0.496040 0.324742
0.780011 0.550958 0.393683
0.902937 0.683604 0.569802
0.167666 0.164019 0.043061
0.000000 0.538186 0.000000
0.000000 0.565164 0.000000
0.000000 0.566659 0.000000
0.000000 0.558251 0.000000
0.000000 0.551110 0.000000
0.062516 0.545785 0.000000
0.117494 0.539818 0.000000
0.159472 0.532357 0.000000
0.194858 0.522606 0.000000
0.225360 0.510719 0.000000
0.250797 0.495430 0.000000
0.270649 0.475822 0.000000
0.284276 0.450858 0.000000
0.291005 0.420905 0.000000
0.290715 0.386267 0.000000
0.262623 0.305226 0.012024
0.239445 0.259800 0.025834
0.219440 0.222553 0.035294
0.216144 0.203616 0.041932
0.235813 0.204242 0.046708
0.269718 0.215061 0.052995
0.315847 0.233555 0.061936
0.372992 0.259098 0.075288
0.438483 0.291356 0.095399
0.506935 0.329030 0.123354
0.580285 0.376410 0.164691
0.644251 0.426184 0.216281
0.702693 0.482719 0.282490
0.752163 0.538155 0.355306
0.794537 0.591134 0.429450
0.911833 0.722713 0.614740
0.238331 0.253132 0.028000
0.000000 0.600961 0.000000
0.000000 0.621225 0.000000
0.000000 0.620813 0.000000
0.015579 0.612451 0.000000
0.071443 0.605936 0.000000
0.127260 0.601984 0.000000
0.168505 0.598840 0.000000
0.207034 0.595529 0.000000
0.242741 0.591257 0.000000
0.275990 0.585412 0.000000
0.305821 0.576898 0.000000
0.331304 0.565042 0.000000
0.350820 0.547951 0.000000
0.363546 0.524910 0.000000
0.367987 0.494408 0.000000
0.356893 0.429450 0.000000
0.333867 0.376974 0.000000
0.306996 0.324987 0.012421
0.282261 0.280125 0.027207
0.275914 0.255299 0.036866
0.297383 0.254551 0.044190
0.338598 0.268833 0.052506
0.392996 0.292287 0.065217
0.456931 0.323552 0.085176
0.524376 0.360769 0.114580
0.602655 0.413489 0.162615
0.668986 0.467765 0.225452
0.722713 0.521233 0.298528
0.768063 0.573541 0.376928
0.807370 0.623957 0.455146
0.921111 0.755566 0.651102
0.326329 0.359350 0.000198
0.000000 0.654902 0.000000
0.081483 0.670344 0.000000
0.108812 0.669657 0.000000
0.125521 0.663417 0.000000
0.151125 0.659052 0.000000
0.190723 0.657404 0.000000
0.226612 0.657206 0.000000
0.264271 0.657618 0.000000
0.300496 0.657176 0.000000
0.333562 0.654398 0.000000
0.363561 0.649027 0.000000
0.389303 0.640131 0.000000
0.409873 0.626795 0.000000
0.424384 0.608423 0.000000
0.432013 0.583673 0.000000
0.431022 0.531182 0.000000
0.417914 0.487694 0.000000
0.394659 0.435447 0.000000
0.368536 0.383474 0.000000
0.345525 0.338125 0.015976
0.343618 0.314397 0.028382
0.376883 0.320668 0.038239
0.430442 0.342870 0.052354
0.494469 0.374273 0.074784
0.562966 0.412970 0.109071
0.633677 0.460472 0.161822
0.694179 0.509377 0.230488
0.743313 0.558236 0.309560
0.784985 0.606897 0.393362
0.821607 0.654139 0.474739
0.857954 0.701595 0.552789
0.428992 0.465751 0.000000
0.146029 0.710536 0.000000
0.190005 0.720439 0.000000
0.208865 0.721691 0.000000
0.225406 0.720500 0.000000
0.249683 0.720958 0.000000
0.284169 0.722683 0.000000
0.316793 0.724910 0.000000
0.351659 0.727123 0.000000
0.385748 0.728496 0.000000
0.417670 0.728161 0.000000
0.446693 0.726024 0.000000
0.472786 0.721508 0.000000
0.495888 0.714687 0.000000
0.515984 0.705348 0.000000
0.532845 0.693263 0.000000
0.552148 0.665949 0.000000
0.557656 0.643641 0.000000
0.555978 0.614069 0.000000
0.544457 0.575250 0.000000
0.528328 0.532616 0.000000
0.510536 0.489448 0.000000
0.501457 0.455055 0.008087
0.520592 0.446296 0.031342
0.560098 0.456687 0.062654
0.607401 0.477226 0.100801
0.661677 0.508476 0.154070
0.716808 0.549981 0.227115
0.762066 0.592889 0.310628
0.800870 0.636957 0.399023
0.835355 0.680903 0.484474
0.939818 0.806180 0.697444
0.525658 0.579507 0.000000
0.277134 0.757794 0.000000
0.306249 0.764721 0.000000
0.315328 0.764462 0.000000
0.321416 0.761685 0.000000
0.333455 0.760067 0.000000
0.355261 0.759472 0.000000
0.377554 0.759350 0.000000
0.403128 0.759426 0.000000
0.430762 0.759716 0.000000
0.458427 0.759426 0.000000
0.486137 0.758648 0.000000
0.512367 0.756680 0.000000
0.536675 0.753231 0.000000
0.558099 0.747860 0.000000
0.576806 0.740230 0.000000
0.600198 0.718624 0.000000
0.608179 0.702083 0.000000
0.612024 0.681315 0.000000
0.608545 0.652903 0.000000
0.598627 0.617990 0.000000
0.585534 0.580102 0.000000
0.573465 0.543297 0.000000
0.573678 0.517937 0.010849
0.603525 0.519554 0.049149
0.648280 0.537026 0.097017
0.700450 0.565454 0.160586
0.747845 0.598581 0.238163
0.787945 0.634867 0.325490
0.823117 0.673701 0.416739
0.855314 0.713664 0.503471
0.951690 0.828885 0.714595
0.615991 0.692790 0.000000
0.383291 0.791562 0.042878
0.403372 0.796124 0.071183
0.406455 0.794659 0.066194
0.406989 0.791516 0.050843
0.416526 0.790433 0.047761
0.436377 0.791089 0.058808
0.456123 0.791745 0.069200
0.478111 0.792523 0.080537
0.501427 0.793133 0.092271
0.524971 0.793271 0.102342
0.549722 0.793469 0.113619
0.574197 0.793133 0.123919
0.596445 0.791501 0.129595
0.615442 0.787884 0.129671
0.631220 0.782147 0.123278
0.649790 0.767056 0.098634
0.657069 0.754177 0.074662
0.663294 0.739254 0.045274
0.669352 0.723140 0.014786
0.670726 0.701717 0.002564
0.668711 0.676432 0.002960
0.665995 0.649989 0.012024
0.665141 0.625055 0.030762
0.671366 0.606821 0.062516
0.697856 0.607950 0.108446
0.738140 0.624277 0.172793
0.777981 0.648478 0.252262
0.813458 0.677653 0.340276
0.845579 0.710842 0.431968
0.875700 0.746548 0.519112
0.966567 0.853147 0.731243
0.690837 0.763470 0.112825
0.506874 0.832593 0.217533
0.511299 0.832776 0.218601
0.517418 0.832944 0.220905
0.525780 0.833204 0.224033
0.535866 0.833509 0.227161
0.550164 0.833875 0.232441
0.564584 0.834287 0.237675
0.580789 0.834745 0.243885
0.598627 0.835218 0.251102
0.617029 0.835477 0.258183
0.635004 0.835218 0.263447
0.652308 0.834287 0.267018
0.668467 0.832486 0.268284
0.683345 0.829664 0.266545
0.696590 0.825696 0.261463
0.714672 0.816297 0.244388
0.723537 0.808591 0.228931
0.730816 0.799084 0.208774
0.736721 0.787747 0.185275
0.741604 0.774578 0.158785
0.743130 0.757061 0.141161
0.742947 0.736950 0.129824
0.743023 0.716304 0.125444
0.745342 0.697124 0.131044
0.752529 0.682795 0.150469
0.777951 0.685618 0.201968
0.809598 0.700435 0.275944
0.840574 0.722683 0.360265
0.869780 0.750225 0.449943
0.897963 0.781506 0.535271
0.927749 0.816449 0.616022
0.757717 0.803281 0.221515
0.636118 0.871504 0.367971
0.644465 0.873564 0.376837
0.644190 0.872221 0.372625
0.643290 0.870222 0.365743
0.648081 0.869718 0.365515
0.657801 0.870008 0.369329
0.667796 0.870298 0.373739
0.681987 0.871763 0.383154
0.697658 0.873426 0.393744
0.713191 0.874708 0.403525
0.728206 0.875517 0.411582
0.742123 0.875578 0.416709
0.755459 0.875120 0.420661
0.767620 0.873854 0.421561
0.779217 0.872007 0.420539
0.794888 0.866606 0.410574
0.802396 0.861662 0.398749
0.808103 0.855024 0.381064
0.812207 0.846677 0.357855
0.814923 0.836561 0.329488
0.816220 0.824308 0.296407
0.813519 0.807202 0.271565
0.810315 0.788418 0.249653
0.809339 0.770459 0.237156
0.814115 0.757336 0.242634
0.824964 0.749401 0.268482
0.847486 0.756069 0.326329
0.873274 0.772412 0.401404
0.899413 0.795193 0.484154
0.925612 0.822248 0.563806
0.983490 0.881468 0.731151
0.816648 0.852705 0.370321
0.712322 0.902220 0.476097
0.714336 0.902296 0.476982
0.717372 0.902403 0.478187
0.721386 0.902556 0.479866
0.726406 0.902754 0.482017
0.733623 0.902968 0.484840
0.741085 0.903212 0.488121
0.749538 0.903487 0.491936
0.759152 0.903792 0.496193
0.769207 0.904036 0.500511
0.779477 0.904036 0.504067
0.789593 0.903670 0.506828
0.799359 0.902846 0.507942
0.808591 0.901473 0.507408
0.817258 0.899489 0.504891
0.831144 0.892302 0.488930
0.837293 0.888121 0.478370
0.842771 0.883024 0.464652
0.847715 0.877073 0.447745
0.852293 0.870329 0.427466
0.856764 0.862806 0.404364
0.860319 0.853742 0.383200
0.862181 0.842481 0.368521
0.864851 0.831357 0.358831
0.869062 0.821347 0.356909
0.876707 0.813901 0.369284
0.889265 0.813184 0.402487
0.909560 0.824445 0.461326
0.932799 0.843091 0.531395
0.957519 0.866789 0.602594
0.989395 0.892149 0.724514
0.869261 0.901808 0.519753
0.789441 0.934997 0.582498
0.790860 0.935058 0.583215
0.792950 0.935149 0.584070
0.795712 0.935271 0.585382
0.799252 0.935439 0.586938
0.804288 0.935637 0.589029
0.809522 0.935851 0.591318
0.815595 0.936095 0.594110
0.822354 0.936370 0.597253
0.829557 0.936584 0.600366
0.836973 0.936614 0.603098
0.844434 0.936416 0.605066
0.851865 0.935897 0.606058
0.859052 0.934981 0.605814
0.865965 0.933639 0.604150
0.876524 0.930358 0.597604
0.882429 0.927657 0.591134
0.887984 0.924361 0.582208
0.893278 0.920516 0.571054
0.898375 0.916152 0.557321
0.903487 0.911376 0.541192
0.908919 0.906340 0.523018
0.913909 0.900465 0.506294
0.917525 0.893111 0.495613
0.922148 0.886488 0.489433
0.929076 0.881422 0.491554
0.937835 0.879118 0.504540
0.949615 0.881941 0.532219
0.969253 0.895582 0.582147
0.992050 0.915282 0.640360
0.997330 0.906157 0.715938
0.906966 0.938140 0.617060
0.835615 0.961944 0.658015
0.836744 0.961990 0.658534
0.838331 0.962051 0.659175
0.840467 0.962173 0.660197
0.843183 0.962310 0.661463
0.847105 0.962463 0.663264
0.851209 0.962646 0.665125
0.855894 0.962875 0.667308
0.861219 0.963119 0.669810
0.866957 0.963348 0.672450
0.873060 0.963516 0.675029
0.879316 0.963531 0.676982
0.885603 0.963348 0.678386
0.891875 0.962890 0.678782
0.898070 0.962173 0.678218
0.907927 0.960327 0.674434
0.913756 0.958770 0.670314
0.919493 0.956802 0.664424
0.925170 0.954528 0.656840
0.930892 0.951980 0.647562
0.936767 0.949248 0.636469
0.943038 0.946487 0.623789
