FILES/STUDIOTEST-4262de71.cube
TITLE "STUDIOTEST"
LUT_3D_SIZE 5
DOMAIN_MIN 0.000000 0.000000 0.000000
DOMAIN_MAX 0.903226 0.903226 0.903226
0.029572 0.036866 0.049149
0.027405 0.036072 0.048280
0.026215 0.033310 0.045624
0.040803 0.033310 0.043259
0.106416 0.036271 0.043824
0.037461 0.034501 0.043626
0.026413 0.032136 0.046357
0.032731 0.034501 0.043824
0.068940 0.042130 0.045991
0.203906 0.043259 0.052018
0.097520 0.083909 0.050172
0.072236 0.234836 0.017151
0.079225 0.096117 0.042313
0.191959 0.122789 0.066484
0.613092 0.301610 0.181994
0.525658 0.579507 0.000000
0.377554 0.759350 0.000000
0.558099 0.747860 0.000000
0.585534 0.580102 0.000000
0.787945 0.634867 0.325490
0.852659 0.935393 0.622629
0.723217 0.950927 0.619394
0.812741 0.951293 0.643076
0.905058 0.949432 0.661387
0.955962 0.920455 0.576379
0.029374 0.035096 0.045274
0.028199 0.033707 0.044541
0.029770 0.031739 0.044724
0.036271 0.032136 0.044007
0.071580 0.034699 0.044007
0.032731 0.032136 0.044007
0.027008 0.032136 0.044190
0.031342 0.032929 0.044373
0.046174 0.034699 0.044541
0.109071 0.037858 0.045808
0.109255 0.088945 0.063798
0.019318 0.197910 0.038239
0.074281 0.089921 0.049317
0.191287 0.120256 0.080415
0.583307 0.256458 0.170779
0.549493 0.597742 0.000000
0.399664 0.766934 0.155428
0.585626 0.761303 0.185122
0.582437 0.574075 0.033707
0.792660 0.646159 0.386557
0.857603 0.939635 0.659266
0.723796 0.955871 0.657374
0.813794 0.956558 0.678447
0.904799 0.952300 0.689906
0.956054 0.922072 0.601770
0.028000 0.033707 0.044373
0.027008 0.032334 0.046357
0.030365 0.031342 0.069200
0.099031 0.028977 0.080659
0.169207 0.014984 0.062226
0.065919 0.031342 0.082887
0.026215 0.032136 0.053803
0.040803 0.034104 0.068940
0.125521 0.028580 0.071717
0.105104 0.026017 0.049149
0.084138 0.058503 0.074662
0.027604 0.063798 0.077882
0.073259 0.088182 0.099229
0.113359 0.064668 0.073640
0.288762 0.039231 0.071839
0.568658 0.608820 0.242512
0.374533 0.734524 0.401923
0.571710 0.737774 0.404700
0.586191 0.557580 0.213062
0.813565 0.692027 0.560678
0.788525 0.944533 0.718791
0.616648 0.939925 0.722835
0.731258 0.959899 0.734386
0.882536 0.964843 0.767239
0.954070 0.941192 0.693431
0.022278 0.031144 0.063081
0.020111 0.030365 0.074159
0.000000 0.028382 0.155932
0.216236 0.000000 0.428672
0.678111 0.000000 0.480507
0.073396 0.003357 0.367620
0.016754 0.030365 0.095491
0.000000 0.029374 0.229404
0.301518 0.000000 0.391363
0.757519 0.000000 0.458732
0.221424 0.131273 0.422385
0.021683 0.034699 0.067842
0.007095 0.061189 0.194858
0.464439 0.191501 0.478340
0.812985 0.357809 0.529091
0.416999 0.443229 0.449241
0.000000 0.231235 0.242863
0.119844 0.349081 0.344411
0.610880 0.578973 0.556390
0.778866 0.482460 0.436439
0.688121 0.886000 0.808804
0.481193 0.840101 0.752483
0.623545 0.878309 0.798276
0.800473 0.948867 0.860624
0.951370 0.973144 0.873960
0.000000 0.000000 0.633356
0.000000 0.000000 0.652567
0.000000 0.002960 0.712215
0.494301 0.250645 0.817685
0.809979 0.472786 0.874586
0.248539 0.082643 0.764462
0.000000 0.000000 0.656291
0.000000 0.018524 0.715740
0.592920 0.321157 0.826398
0.844388 0.469505 0.867796
0.397147 0.267720 0.784451
0.000000 0.029572 0.614160
0.000000 0.108263 0.710277
0.651225 0.482002 0.840970
0.881361 0.618128 0.890211
0.234089 0.349248 0.764614
0.000000 0.213565 0.646387
0.000000 0.194400 0.676158
0.654292 0.612146 0.848859
0.944137 0.810010 0.938933
0.000000 0.772412 0.840146
0.000000 0.800305 0.841520
0.000000 0.804776 0.846799
0.367117 0.818296 0.863416
0.801770 0.880217 0.928298
