FILES/Studio-c29520b0.cube
TITLE "Studio"
LUT_3D_SIZE 8
DOMAIN_MIN 0.000000 0.000000 0.000000
DOMAIN_MAX 0.903226 0.903226 0.903226
0.000000 0.005722 0.112123
0.000000 0.005722 0.111589
0.000000 0.006302 0.109621
0.003555 0.010452 0.106233
0.044190 0.018143 0.102449
0.095903 0.021286 0.099519
0.185489 0.014588 0.097017
0.448280 0.000000 0.096315
0.000000 0.011627 0.111681
0.000000 0.011048 0.110246
0.000000 0.013413 0.104540
0.025635 0.022278 0.100114
0.081239 0.028000 0.096727
0.139101 0.027008 0.094987
0.235203 0.015183 0.093431
0.497963 0.000000 0.094255
0.000000 0.081483 0.110155
0.000000 0.080766 0.106874
0.012421 0.049317 0.100313
0.059113 0.056031 0.091844
0.181353 0.074403 0.085954
0.278553 0.069871 0.085847
0.394080 0.052186 0.086854
0.629664 0.035294 0.089265
0.000000 0.356710 0.061189
0.000000 0.352270 0.058045
0.119921 0.274525 0.072618
0.091646 0.128511 0.086854
0.187396 0.135836 0.080888
0.393774 0.192416 0.078004
0.594461 0.234211 0.082063
0.769940 0.285389 0.088838
0.000000 0.603601 0.000000
0.179812 0.683604 0.000000
0.315297 0.655924 0.000000
0.374243 0.558694 0.000000
0.270024 0.299245 0.054292
0.370398 0.293828 0.059113
0.628977 0.411765 0.053635
0.839170 0.522164 0.120668
0.255787 0.816251 0.000000
0.348180 0.839399 0.000000
0.452857 0.839155 0.000000
0.552056 0.819699 0.000000
0.606210 0.738857 0.000000
0.550713 0.570397 0.000000
0.648798 0.555611 0.000000
0.861158 0.671214 0.126787
0.466255 0.926345 0.000000
0.495201 0.926055 0.000000
0.559213 0.924681 0.000000
0.643549 0.921248 0.000000
0.736690 0.909483 0.000000
0.792172 0.878767 0.000000
0.804028 0.808347 0.000000
0.901213 0.816144 0.152575
0.552224 0.839811 0.428565
0.571023 0.835187 0.466041
0.587274 0.839994 0.445686
0.618341 0.843976 0.428473
0.664240 0.847791 0.371176
0.708492 0.845930 0.249271
0.746548 0.822919 0.137865
0.802213 0.811353 0.279500
0.000000 0.005921 0.109621
0.000000 0.005921 0.108446
0.000000 0.006500 0.107149
0.005127 0.011048 0.103502
0.031342 0.015778 0.100694
0.067842 0.019120 0.099123
0.132631 0.018524 0.097520
0.341390 0.000000 0.096010
0.000000 0.010452 0.104356
0.000000 0.011048 0.103502
0.000000 0.015381 0.099123
0.022873 0.020706 0.096620
0.061051 0.024247 0.095705
0.103395 0.025238 0.094881
0.180316 0.019318 0.094057
0.413901 0.000000 0.094057
0.000000 0.078737 0.094057
0.002365 0.076661 0.093324
0.015579 0.046708 0.092592
0.058808 0.054292 0.087953
0.158282 0.065507 0.085618
0.232120 0.058350 0.086183
0.333242 0.040803 0.087190
0.578256 0.000000 0.089921
0.000000 0.352163 0.041184
0.000000 0.341543 0.044541
0.108446 0.261280 0.066331
0.086748 0.120745 0.084260
0.186862 0.133303 0.080888
0.379263 0.180911 0.081239
0.566873 0.211276 0.085847
0.754040 0.261646 0.091096
0.000000 0.620111 0.000000
0.159350 0.700511 0.000000
0.315938 0.671077 0.000000
0.380331 0.568689 0.000000
0.271839 0.298894 0.054124
0.369741 0.290654 0.062364
0.627863 0.406775 0.064668
0.842008 0.521889 0.137438
0.253803 0.830060 0.000000
0.362264 0.857206 0.000000
0.464912 0.853666 0.000000
0.563607 0.832227 0.000000
0.615351 0.748196 0.000000
0.550332 0.568536 0.000000
0.650752 0.555077 0.000000
0.864302 0.673243 0.150469
0.465019 0.925734 0.000000
0.506767 0.925887 0.000000
0.568444 0.924392 0.000000
0.648447 0.920913 0.000000
0.739971 0.911055 0.000000
0.794079 0.880369 0.000000
0.804990 0.808545 0.000000
0.902083 0.816587 0.178271
0.561273 0.831357 0.480262
0.585382 0.825360 0.529671
0.597284 0.831266 0.507454
0.623453 0.836774 0.486107
0.665217 0.841993 0.432624
0.707454 0.843305 0.297658
0.745769 0.822156 0.171588
0.800900 0.810758 0.299580
0.000000 0.008286 0.096818
0.000000 0.008484 0.093950
0.000000 0.008484 0.092699
0.029175 0.012818 0.090349
0.029374 0.013016 0.095796
0.043824 0.014588 0.097826
0.093004 0.015976 0.097230
0.277546 0.000000 0.096208
0.000000 0.011826 0.093843
0.000000 0.013794 0.091417
0.009461 0.017548 0.088624
0.023072 0.017151 0.090883
0.034699 0.017151 0.094575
0.063951 0.019120 0.094987
0.125689 0.018341 0.094362
0.340490 0.000000 0.094362
0.000000 0.052506 0.085954
0.003357 0.060166 0.085389
0.021881 0.046891 0.085618
0.067170 0.054612 0.085618
0.118914 0.049500 0.085618
0.166598 0.041932 0.086290
0.256901 0.026612 0.087404
0.510460 0.000000 0.090990
0.000000 0.296880 0.060166
0.000000 0.286336 0.061341
0.087068 0.238651 0.069734
0.086183 0.114580 0.082414
0.205951 0.138735 0.085954
0.378912 0.170077 0.091951
0.533913 0.175021 0.093645
0.728740 0.208774 0.096208
0.000000 0.605051 0.000000
0.000000 0.679057 0.000000
0.262592 0.654475 0.000000
0.366033 0.561212 0.000000
0.266697 0.288563 0.061936
0.384756 0.295155 0.074540
0.646235 0.412207 0.095903
0.849882 0.521996 0.182162
0.184268 0.829175 0.000000
0.324208 0.854688 0.000000
0.439063 0.849989 0.000000
0.555917 0.833814 0.000000
0.614984 0.749645 0.000000
0.544747 0.558953 0.000000
0.662318 0.559564 0.031540
0.871992 0.679042 0.212146
0.454246 0.921721 0.007294
0.503212 0.920897 0.129595
0.563561 0.919982 0.135470
0.646204 0.917128 0.151324
0.738231 0.910140 0.000000
0.793606 0.880751 0.000000
0.807324 0.808927 0.000000
0.903792 0.817899 0.242161
0.569360 0.819455 0.543343
0.591791 0.814603 0.579446
0.601709 0.820935 0.562448
0.627008 0.826246 0.553841
0.665019 0.832013 0.522026
0.703716 0.837140 0.396292
0.743160 0.819959 0.251972
0.796979 0.809201 0.350515
0.000000 0.010651 0.087510
0.000000 0.011429 0.086625
0.011429 0.014191 0.089494
0.045624 0.016358 0.092378
0.127657 0.012818 0.090135
0.092164 0.012818 0.087846
0.085512 0.011231 0.093111
0.211597 0.000000 0.095186
0.000000 0.015579 0.086748
0.001770 0.018341 0.087068
0.016556 0.024247 0.094881
0.058045 0.025040 0.094774
0.112566 0.020111 0.088182
0.074159 0.015778 0.089052
0.084947 0.013413 0.093645
0.244312 0.000000 0.094362
0.001373 0.031739 0.086854
0.005325 0.034897 0.087739
0.026215 0.053803 0.100801
0.074922 0.052674 0.096315
0.060456 0.027802 0.086412
0.077516 0.024842 0.088396
0.140032 0.020310 0.089494
0.369894 0.000000 0.091646
0.000000 0.151781 0.127565
0.000000 0.164981 0.128893
0.027604 0.187503 0.113451
0.095903 0.117906 0.101869
0.230365 0.142565 0.113176
0.307622 0.121080 0.101869
0.419928 0.092699 0.094774
0.649317 0.062516 0.096117
0.000000 0.557702 0.057282
0.000000 0.625422 0.076661
0.129747 0.611231 0.060304
0.350332 0.554452 0.067567
0.262303 0.275502 0.090562
0.421790 0.311452 0.113268
0.677623 0.422263 0.161944
0.854215 0.505211 0.235813
0.000000 0.816800 0.048112
0.247120 0.840772 0.136492
0.393362 0.839002 0.129595
0.545434 0.834623 0.134432
0.613779 0.751186 0.000000
0.538140 0.545495 0.035691
0.685725 0.571298 0.122713
0.882033 0.690745 0.322774
0.444541 0.912383 0.319097
0.499046 0.910323 0.373556
0.558526 0.910140 0.377554
0.642023 0.907973 0.393545
0.733364 0.906096 0.308492
0.792691 0.881956 0.091539
0.810788 0.809705 0.086961
0.904295 0.820249 0.347921
0.591806 0.801724 0.627344
0.607095 0.795514 0.644480
0.616495 0.801373 0.639399
0.639506 0.806821 0.643320
0.668116 0.815244 0.626886
0.696696 0.825315 0.534981
0.736400 0.815595 0.377859
0.788907 0.806439 0.431083
0.000000 0.015976 0.094255
0.001190 0.017945 0.102831
0.002762 0.022675 0.137591
0.044007 0.023651 0.176211
0.157900 0.010452 0.165103
0.321386 0.000000 0.159030
0.393851 0.000000 0.123690
0.426001 0.000000 0.097230
0.000000 0.019715 0.094774
0.001373 0.022675 0.103593
0.003738 0.030365 0.141375
0.055558 0.034104 0.186450
0.177768 0.016754 0.171878
0.340597 0.000000 0.162249
0.356191 0.000000 0.113008
0.401404 0.000000 0.094057
0.000595 0.025437 0.089921
0.003159 0.029770 0.094881
0.010651 0.048112 0.131350
0.082414 0.071443 0.199283
0.215335 0.052995 0.177432
0.303655 0.007889 0.140169
0.235935 0.000000 0.091951
0.340200 0.000000 0.090028
0.002167 0.053803 0.099718
0.004334 0.058198 0.103395
0.016159 0.072496 0.116548
0.120165 0.148058 0.206607
0.196414 0.105486 0.148058
0.126940 0.042313 0.090135
0.162554 0.021683 0.086519
0.413382 0.000000 0.090883
0.000000 0.331685 0.251179
0.000000 0.414862 0.308705
0.000000 0.461585 0.313603
0.252796 0.497169 0.275685
0.283375 0.283146 0.186175
0.503792 0.351385 0.237964
0.664652 0.353109 0.227283
0.823377 0.346303 0.194156
0.000000 0.774151 0.414969
0.094163 0.807507 0.468528
0.310521 0.809689 0.458762
0.485893 0.811978 0.443961
0.609476 0.758053 0.329656
0.538140 0.533974 0.177890
0.730159 0.602991 0.299702
0.889158 0.710658 0.505104
0.443122 0.895659 0.576196
0.515190 0.891112 0.615366
0.562997 0.891096 0.616907
0.630854 0.891615 0.616358
0.718318 0.893904 0.586862
0.787900 0.884901 0.416419
0.813169 0.811048 0.290425
0.896757 0.823819 0.519020
0.659663 0.769421 0.725063
0.673884 0.761242 0.735805
0.680873 0.761486 0.740581
0.687892 0.770031 0.743786
0.691463 0.784817 0.734951
0.696071 0.799359 0.697429
0.719341 0.804669 0.572717
0.770871 0.801144 0.557748
0.000000 0.021088 0.132326
0.000000 0.022873 0.149203
0.000000 0.026810 0.205280
0.000000 0.024643 0.310628
0.182589 0.000000 0.341238
0.376898 0.000000 0.347173
0.630045 0.000000 0.357305
0.786862 0.000000 0.328801
0.000000 0.023453 0.127413
0.000000 0.025834 0.144030
0.000000 0.032334 0.201770
0.000000 0.036469 0.317601
0.201678 0.007095 0.355627
0.403189 0.000000 0.359747
0.646311 0.000000 0.361929
0.779675 0.000000 0.314748
0.000000 0.026810 0.107439
0.000000 0.030564 0.120012
0.000000 0.043626 0.173663
0.010056 0.070924 0.311131
0.240772 0.064942 0.376196
0.450599 0.000000 0.372244
0.669612 0.000000 0.365667
0.750774 0.000000 0.267048
0.000000 0.033310 0.095491
0.000397 0.035096 0.098238
0.002762 0.047410 0.119249
0.041749 0.112032 0.258228
0.297749 0.172000 0.398825
0.504463 0.153414 0.376028
0.616892 0.024445 0.294652
0.667765 0.000000 0.169970
0.000000 0.102449 0.138445
0.000000 0.117662 0.154269
0.000000 0.133761 0.170367
0.048631 0.175189 0.213703
0.349203 0.344442 0.402396
0.292119 0.148806 0.183413
0.292500 0.045090 0.106783
0.650401 0.000000 0.108721
0.000000 0.607950 0.506249
0.000000 0.659709 0.558846
0.184955 0.683421 0.577676
0.370611 0.720974 0.599222
0.572122 0.743526 0.584588
0.565011 0.559777 0.411368
0.763348 0.655207 0.556985
0.892561 0.667109 0.560388
0.466865 0.882872 0.704570
0.536736 0.885542 0.724041
0.574273 0.883787 0.724224
0.633707 0.880369 0.726268
0.715969 0.879149 0.730129
0.776867 0.881819 0.683314
0.805707 0.811841 0.511162
0.870741 0.826017 0.677028
0.751629 0.759258 0.780865
0.766491 0.746029 0.788128
0.770565 0.740047 0.793225
0.775204 0.736889 0.803479
0.760693 0.745159 0.809766
0.732616 0.761471 0.801892
0.706584 0.783612 0.733288
0.745007 0.793545 0.677394
0.000000 0.025238 0.250294
0.000000 0.025635 0.274449
0.000000 0.024445 0.347448
0.000000 0.011826 0.483192
0.253666 0.000000 0.634180
0.483787 0.000000 0.647059
0.685908 0.000000 0.635065
0.867552 0.000000 0.618433
0.000000 0.027802 0.238209
0.000000 0.028580 0.262257
0.000000 0.029770 0.336858
0.000000 0.023453 0.480964
0.271565 0.000000 0.641993
0.501350 0.000000 0.655970
0.699992 0.000000 0.640894
0.870756 0.000000 0.621012
0.000000 0.031739 0.189746
0.000000 0.033906 0.211414
0.000000 0.041001 0.284566
0.000000 0.055253 0.449607
0.300313 0.095491 0.648142
0.533288 0.049836 0.668330
0.725170 0.000000 0.648417
0.876204 0.202991 0.630152
0.000000 0.031144 0.123522
0.000000 0.033127 0.133837
0.000000 0.044007 0.182223
0.000000 0.080415 0.348745
0.325521 0.219623 0.643580
0.573541 0.259648 0.682170
0.752239 0.275914 0.657603
0.879271 0.399313 0.650935
0.000000 0.047929 0.113710
0.000000 0.050675 0.120333
0.000000 0.051347 0.123598
0.000000 0.060014 0.146502
0.232151 0.279957 0.542336
0.610971 0.489494 0.696712
0.769863 0.522026 0.675639
0.877134 0.468803 0.622583
0.000000 0.178500 0.224598
0.000000 0.184421 0.231907
0.000000 0.193790 0.243488
0.000000 0.220676 0.276768
0.094575 0.311345 0.388708
0.642222 0.671778 0.711421
0.674189 0.404852 0.473884
0.894469 0.149935 0.299763
0.260884 0.809491 0.717983
0.315755 0.815061 0.723918
0.425315 0.829145 0.739055
0.557015 0.850065 0.761975
0.708980 0.870146 0.791119
0.788174 0.867323 0.806455
0.799008 0.822812 0.722896
0.788464 0.834546 0.797498
0.788830 0.803128 0.798047
0.798169 0.797177 0.800137
0.819776 0.781353 0.806027
0.845609 0.755032 0.816846
0.852277 0.722576 0.833097
0.805722 0.725368 0.838254
0.730999 0.743114 0.835096
0.707820 0.783719 0.786908
0.000000 0.020905 0.682063
0.000000 0.020310 0.692103
0.000000 0.021683 0.717220
0.000000 0.037064 0.753826
0.398566 0.110872 0.797971
0.611688 0.191394 0.825223
0.766400 0.166247 0.827771
0.906416 0.254704 0.816754
0.000000 0.031540 0.682200
0.000000 0.032136 0.692332
0.000000 0.038239 0.717601
0.000000 0.062943 0.754589
0.405707 0.147051 0.799146
0.618250 0.236667 0.826078
0.770779 0.222431 0.828794
0.907317 0.303563 0.817227
0.000000 0.050004 0.660624
0.000000 0.052674 0.672557
0.000000 0.063233 0.702510
0.000000 0.098726 0.745953
0.409308 0.212192 0.797360
0.632914 0.335821 0.827619
0.780194 0.337591 0.831128
0.907240 0.409110 0.818082
0.000000 0.064805 0.598093
0.000000 0.067567 0.614588
0.000000 0.079576 0.656626
0.000000 0.122148 0.718059
0.391959 0.281956 0.790372
0.650385 0.464714 0.828779
0.790372 0.482933 0.834119
0.902007 0.538293 0.818509
0.000000 0.105577 0.503349
0.000000 0.103120 0.512505
0.000000 0.099916 0.545525
0.000000 0.115099 0.627756
0.224247 0.294469 0.759945
0.657649 0.595132 0.826490
0.798657 0.654841 0.837156
0.877745 0.692927 0.815457
0.000000 0.268132 0.572106
0.000000 0.264347 0.575326
0.000000 0.253132 0.584115
0.000000 0.230610 0.600900
0.000000 0.209522 0.654536
0.578531 0.607385 0.805890
0.800534 0.790524 0.833997
0.811566 0.818280 0.809644
0.000000 0.649363 0.718608
0.000000 0.649165 0.719661
0.000000 0.648127 0.722484
0.000000 0.645045 0.727337
0.000000 0.636027 0.736660
0.205051 0.631815 0.754604
0.804028 0.865461 0.819043
0.675456 0.879545 0.816938
0.662623 0.856245 0.800336
0.676310 0.853605 0.800153
0.711437 0.845991 0.799802
0.767178 0.830503 0.799481
0.837156 0.796506 0.799146
0.834287 0.756207 0.791882
0.728771 0.733104 0.767773
0.665843 0.756130 0.769787
