FILES/STUDIOTEST-4262de71.cube
TITLE "STUDIOTEST"
LUT_3D_SIZE 8
DOMAIN_MIN 0.000000 0.000000 0.000000
DOMAIN_MAX 0.903226 0.903226 0.903226
0.029572 0.036866 0.049149
0.029374 0.036866 0.048981
0.026810 0.035874 0.048112
0.026017 0.034104 0.046525
0.028977 0.032731 0.044373
0.037659 0.033127 0.043442
0.053315 0.034501 0.042878
0.106416 0.036271 0.043824
0.029969 0.034699 0.048798
0.027802 0.034699 0.048280
0.026612 0.033906 0.046357
0.026612 0.032731 0.044907
0.033310 0.033127 0.043626
0.045624 0.034897 0.043259
0.066484 0.037064 0.043824
0.139162 0.038056 0.045808
0.027604 0.033127 0.045991
0.028000 0.033509 0.045624
0.027802 0.033310 0.045090
0.031144 0.034897 0.043824
0.049836 0.042313 0.046174
0.080766 0.048447 0.048631
0.130129 0.052018 0.051179
0.268421 0.047761 0.058808
0.027802 0.126238 0.033707
0.039033 0.127260 0.034302
0.058198 0.104921 0.038437
0.051347 0.062943 0.043061
0.067033 0.062074 0.047761
0.144244 0.090349 0.061784
0.305501 0.129747 0.084947
0.525872 0.183185 0.122469
0.135241 0.126390 0.046891
0.000000 0.484031 0.000000
0.138094 0.466529 0.000000
0.231159 0.392996 0.000000
0.187762 0.211185 0.032929
0.213657 0.173831 0.052506
0.423178 0.265064 0.102541
0.680674 0.439734 0.259876
0.428992 0.465751 0.000000
0.225406 0.720500 0.000000
0.351659 0.727123 0.000000
0.472786 0.721508 0.000000
0.552148 0.665949 0.000000
0.528328 0.532616 0.000000
0.560098 0.456687 0.062654
0.762066 0.592889 0.310628
0.757717 0.803281 0.221515
0.643290 0.870222 0.365743
0.681987 0.871763 0.383154
0.742123 0.875578 0.416709
0.794888 0.866606 0.410574
0.814923 0.836561 0.329488
0.809339 0.770459 0.237156
0.873274 0.772412 0.401404
0.852659 0.935393 0.622629
0.700008 0.953567 0.620600
0.733700 0.950561 0.620951
0.783413 0.949996 0.631861
0.850889 0.953368 0.659922
0.897551 0.952514 0.669169
0.926070 0.938140 0.624949
0.955962 0.920455 0.576379
0.029572 0.036072 0.046891
0.029572 0.035492 0.046525
0.028000 0.033906 0.045457
0.026612 0.032731 0.044541
0.029969 0.032334 0.044007
0.037659 0.033127 0.043824
0.051682 0.035096 0.044007
0.094987 0.037858 0.045090
0.029175 0.034897 0.047242
0.028199 0.034501 0.046891
0.026612 0.033509 0.045808
0.026612 0.032731 0.044724
0.031342 0.032532 0.043824
0.039231 0.033509 0.043442
0.053635 0.034897 0.043259
0.102251 0.036866 0.044373
0.027008 0.033707 0.044190
0.027604 0.034104 0.044190
0.027802 0.033310 0.044190
0.031144 0.034699 0.044190
0.045991 0.039811 0.046357
0.065919 0.042878 0.047410
0.099718 0.045991 0.048631
0.211002 0.044007 0.053971
0.016754 0.123201 0.036667
0.028580 0.120333 0.037461
0.052186 0.099626 0.041001
0.048798 0.060014 0.044190
0.066331 0.061189 0.050172
0.137072 0.085954 0.063951
0.274342 0.114580 0.081834
0.491188 0.155673 0.112566
0.152377 0.137652 0.050843
0.000000 0.504799 0.000000
0.120989 0.484245 0.000000
0.234424 0.406897 0.000000
0.189792 0.212421 0.036866
0.212375 0.171130 0.057282
0.421485 0.263203 0.111955
0.684688 0.444800 0.275441
0.460822 0.493950 0.000000
0.280537 0.743297 0.000000
0.384390 0.743816 0.000000
0.496605 0.735882 0.001373
0.565896 0.676616 0.000000
0.528298 0.531456 0.000000
0.562051 0.456413 0.078981
0.764385 0.597910 0.332937
0.765667 0.808072 0.264958
0.676524 0.882536 0.438849
0.711406 0.883848 0.453025
0.762356 0.885512 0.474861
0.806760 0.873854 0.457511
0.818006 0.838697 0.359731
0.809781 0.770611 0.257343
0.873854 0.773678 0.418585
0.859190 0.939818 0.643992
0.716213 0.960830 0.651041
0.745647 0.957031 0.648341
0.790722 0.955139 0.654490
0.855909 0.958007 0.679728
0.898894 0.954665 0.682078
0.926177 0.939086 0.635615
0.955993 0.920974 0.585306
0.029374 0.034897 0.044541
0.028779 0.034501 0.044724
0.027604 0.033310 0.044190
0.027405 0.032136 0.044724
0.035492 0.031540 0.045808
0.036469 0.031739 0.044373
0.041932 0.032334 0.043824
0.064668 0.033509 0.043824
0.028382 0.034302 0.044724
0.028000 0.033707 0.044541
0.027008 0.033127 0.044190
0.028580 0.031739 0.044541
0.032136 0.031739 0.044190
0.034897 0.031937 0.043824
0.042496 0.032532 0.043442
0.069993 0.033509 0.043259
0.026810 0.032334 0.044541
0.026810 0.032929 0.044724
0.028199 0.033707 0.045624
0.031540 0.034104 0.045624
0.038834 0.034897 0.045624
0.048447 0.035874 0.045624
0.067308 0.037263 0.045808
0.133837 0.037659 0.047761
0.010452 0.091646 0.055085
0.015381 0.092592 0.052354
0.038437 0.087068 0.050340
0.046891 0.057588 0.049500
0.072755 0.065080 0.060304
0.136568 0.081834 0.071321
0.227832 0.088945 0.077150
0.411749 0.097230 0.092485
0.168139 0.144442 0.065644
0.000000 0.459602 0.000000
0.000000 0.439414 0.000000
0.207843 0.397009 0.013596
0.184588 0.205005 0.052354
0.224674 0.175586 0.074662
0.446967 0.280293 0.148867
0.695964 0.456748 0.312459
0.468421 0.496956 0.017151
0.247700 0.732830 0.129900
0.351003 0.730129 0.128267
0.487877 0.730358 0.151125
0.566964 0.676753 0.097017
0.523186 0.523598 0.039231
0.574304 0.462531 0.124331
0.770321 0.612116 0.391089
0.770047 0.810147 0.339986
0.671809 0.882216 0.493050
0.704372 0.882383 0.500908
0.760082 0.886000 0.525338
0.808499 0.876051 0.514427
0.817182 0.838453 0.416678
0.810575 0.770932 0.308370
0.875395 0.777295 0.462150
0.856382 0.939422 0.665522
0.696468 0.957794 0.664576
0.727840 0.954604 0.662577
0.780163 0.954925 0.673579
0.851240 0.959335 0.700786
0.896849 0.956298 0.704967
0.926452 0.941924 0.663920
0.956100 0.922576 0.608927
0.028580 0.033906 0.044190
0.028382 0.033707 0.044190
0.027207 0.032532 0.045090
0.027802 0.031342 0.052354
0.038437 0.032136 0.058350
0.073518 0.031342 0.061494
0.081483 0.030564 0.053483
0.072099 0.029969 0.046357
0.027604 0.033127 0.044373
0.027207 0.032532 0.044907
0.027405 0.031540 0.047929
0.030945 0.031540 0.051682
0.049668 0.030365 0.055558
0.072099 0.029770 0.053803
0.066621 0.029770 0.047761
0.069734 0.029770 0.044724
0.026215 0.032334 0.046525
0.026017 0.032334 0.047242
0.027604 0.033707 0.052995
0.036072 0.035874 0.059861
0.062943 0.036469 0.059724
0.058198 0.033707 0.050340
0.054612 0.032334 0.045808
0.074022 0.031540 0.044373
0.025437 0.044541 0.057740
0.026413 0.045808 0.059113
0.030762 0.050675 0.063798
0.046708 0.059266 0.071443
0.061936 0.052827 0.063233
0.076158 0.049149 0.058350
0.108629 0.047593 0.056504
0.215656 0.038056 0.058961
0.212650 0.169680 0.119249
0.000000 0.341970 0.136339
0.000000 0.350530 0.116213
0.168261 0.358511 0.111330
0.173434 0.183032 0.087953
0.268666 0.201724 0.129900
0.500755 0.316915 0.223301
0.691661 0.423743 0.316136
0.458534 0.467247 0.117494
0.205905 0.702144 0.277409
0.322087 0.703075 0.273701
0.475471 0.710643 0.290272
0.568780 0.665156 0.236469
0.509270 0.495369 0.129671
0.608698 0.486229 0.226261
0.785962 0.644114 0.494057
0.773281 0.796506 0.413214
0.681575 0.877058 0.564080
0.714214 0.878340 0.571588
0.768795 0.883299 0.593057
0.812009 0.870619 0.575723
0.814008 0.825971 0.471397
0.808331 0.756176 0.376272
0.889586 0.793454 0.564614
0.814862 0.942840 0.696651
0.613550 0.948638 0.689754
0.649989 0.952193 0.685847
0.728908 0.957198 0.705226
0.817777 0.961257 0.727596
0.880949 0.961685 0.742565
0.923598 0.954025 0.726497
0.954665 0.932982 0.658381
0.027008 0.032929 0.046174
0.026612 0.032532 0.047242
0.025635 0.031540 0.051850
0.024842 0.030945 0.068528
0.037858 0.031937 0.117998
0.090669 0.030365 0.125765
0.258854 0.000000 0.152438
0.495949 0.000000 0.168444
0.025834 0.031540 0.052506
0.025635 0.031144 0.055558
0.025437 0.030365 0.067430
0.029770 0.030167 0.096422
0.060609 0.029572 0.110338
0.127810 0.021485 0.118074
0.332204 0.000000 0.143404
0.484291 0.000000 0.135836
0.025040 0.032136 0.052506
0.024643 0.031937 0.055711
0.024842 0.032929 0.069337
0.030167 0.037064 0.108629
0.078492 0.037858 0.130968
0.173022 0.023453 0.134127
0.383566 0.000000 0.155673
0.414450 0.000000 0.110872
0.024247 0.035096 0.055711
0.024445 0.035492 0.056809
0.025635 0.037858 0.064088
0.035691 0.055558 0.110704
0.124163 0.074281 0.161700
0.247547 0.063523 0.155489
0.294301 0.019120 0.117830
0.222858 0.004334 0.065919
0.201190 0.144244 0.163165
0.012818 0.091752 0.108080
0.020111 0.105394 0.120333
0.062654 0.141451 0.151980
0.184161 0.187716 0.189746
0.207507 0.137285 0.141451
0.265126 0.104738 0.113970
0.447791 0.070130 0.111864
0.480125 0.489525 0.290532
0.162127 0.590585 0.423575
0.257816 0.611460 0.434012
0.380835 0.645869 0.441413
0.552239 0.647105 0.421744
0.499718 0.468650 0.269718
0.657893 0.552300 0.435447
0.810285 0.679927 0.602152
0.782742 0.803082 0.566217
0.668208 0.871321 0.665690
0.700298 0.872831 0.667872
0.751751 0.875044 0.673274
0.809110 0.866850 0.666423
0.812421 0.817792 0.575174
0.808118 0.746090 0.497627
0.908507 0.820478 0.690120
0.758129 0.944121 0.753933
0.595117 0.916274 0.761212
0.626139 0.926101 0.767117
0.673701 0.941390 0.773281
0.745815 0.958373 0.769116
0.845060 0.965194 0.790829
0.917571 0.968658 0.808118
0.954177 0.949157 0.740154
0.024247 0.031739 0.056504
0.023453 0.031540 0.058961
0.022080 0.030365 0.068666
0.016754 0.029572 0.099321
0.000000 0.028382 0.207324
0.139315 0.007492 0.333623
0.365393 0.000000 0.370031
0.654612 0.000000 0.401068
0.021088 0.029969 0.074662
0.020310 0.029770 0.080766
0.016159 0.028779 0.104067
0.003738 0.027604 0.162371
0.049317 0.017945 0.271244
0.205859 0.000000 0.305974
0.442466 0.000000 0.349691
0.712505 0.000000 0.377020
0.021485 0.031144 0.069734
0.020508 0.031144 0.075792
0.016556 0.031342 0.099031
0.002762 0.033310 0.164446
0.075547 0.031540 0.298802
0.255970 0.000000 0.341146
0.510460 0.000000 0.380697
0.745922 0.000000 0.399832
0.022675 0.032731 0.060014
0.022080 0.033127 0.063371
0.020111 0.035096 0.080415
0.010849 0.044907 0.145556
0.131960 0.087190 0.327749
0.342123 0.089158 0.386465
0.594995 0.058961 0.414435
0.781079 0.205432 0.441337
0.368521 0.273243 0.446174
0.018524 0.045991 0.077272
0.019715 0.047593 0.082292
0.022278 0.053635 0.097520
0.170489 0.180636 0.307836
0.467231 0.300557 0.444083
0.660060 0.353079 0.453178
0.705547 0.151659 0.308171
0.470329 0.470390 0.473671
0.000000 0.196109 0.210681
0.000000 0.215656 0.227161
0.014588 0.264912 0.269230
0.296071 0.392538 0.379416
0.523583 0.493050 0.469856
0.560357 0.385245 0.359579
0.727306 0.369619 0.333074
0.781643 0.795666 0.681620
0.629664 0.803204 0.717281
0.653880 0.812985 0.723476
0.695994 0.831861 0.731914
0.779797 0.850187 0.738170
0.812192 0.813947 0.687037
0.824643 0.765576 0.666056
0.934661 0.856229 0.802258
0.710063 0.906920 0.810758
0.518059 0.859388 0.763531
0.556649 0.868269 0.773526
0.615946 0.885481 0.791669
0.706432 0.919326 0.823224
0.790051 0.952697 0.844465
0.889891 0.972747 0.863005
0.951370 0.967178 0.843610
0.001190 0.028779 0.119509
0.000000 0.028580 0.126070
0.000000 0.027207 0.150408
0.000000 0.024445 0.216770
0.000000 0.010452 0.404974
0.183078 0.000000 0.585382
0.482567 0.000000 0.654749
0.724468 0.009064 0.683833
0.000000 0.026017 0.166537
0.000000 0.025437 0.178439
0.000000 0.023453 0.218875
0.000000 0.017350 0.312169
0.000000 0.000000 0.494881
0.326192 0.000000 0.614908
0.541390 0.000000 0.633188
0.769696 0.000000 0.658228
0.000000 0.028779 0.147524
0.000000 0.028199 0.159594
0.000000 0.027207 0.200900
0.000000 0.023651 0.300877
0.000000 0.009064 0.502251
0.378378 0.047242 0.631266
0.584024 0.000397 0.650996
0.796124 0.150408 0.675547
0.007095 0.031937 0.105669
0.003937 0.032136 0.115175
0.000000 0.032532 0.151064
0.000000 0.034897 0.252186
0.016159 0.069871 0.492988
0.453651 0.220111 0.648051
0.644205 0.259800 0.674235
0.827268 0.362295 0.698009
0.317983 0.235813 0.571633
0.016358 0.035691 0.075166
0.014786 0.035874 0.082643
0.001190 0.040208 0.127657
0.000000 0.112306 0.403372
0.531807 0.413581 0.661204
0.716716 0.500160 0.712032
0.862348 0.565469 0.731838
0.282582 0.299336 0.502007
0.000000 0.062806 0.117998
0.000000 0.063523 0.123201
0.000000 0.066758 0.139239
0.000000 0.087633 0.205814
0.553750 0.526467 0.643656
0.779919 0.670924 0.755169
0.898787 0.706630 0.768948
0.622461 0.640192 0.650172
0.000000 0.460365 0.465995
0.000000 0.488563 0.490120
0.242435 0.539406 0.535241
0.526482 0.632990 0.625422
0.751812 0.753307 0.750515
0.794522 0.701762 0.688090
0.975891 0.758221 0.728542
0.479377 0.787259 0.739696
0.000000 0.745190 0.681056
0.000000 0.758572 0.695964
0.256077 0.780636 0.721828
0.499916 0.819364 0.768490
0.673259 0.867826 0.825132
0.828443 0.930739 0.892393
0.945388 0.978988 0.932403
0.000000 0.000000 0.633356
0.000000 0.000000 0.639689
0.000000 0.000000 0.658473
0.000000 0.000000 0.691051
0.000000 0.038056 0.743664
0.418753 0.199832 0.803922
0.668238 0.390082 0.852277
0.809979 0.472786 0.874586
0.000000 0.000000 0.637736
0.000000 0.000000 0.645640
0.000000 0.000000 0.668101
0.000000 0.000000 0.704570
0.203800 0.061936 0.758358
0.513924 0.228428 0.811399
0.707332 0.375463 0.849622
0.833814 0.426902 0.864225
0.000000 0.000000 0.632212
0.000000 0.000000 0.640742
0.000000 0.000992 0.664973
0.000000 0.016159 0.704097
0.232242 0.117144 0.761151
0.543297 0.296666 0.817014
0.729107 0.443214 0.856260
0.847990 0.490166 0.871214
0.000000 0.014588 0.599878
0.000000 0.015381 0.610620
0.000000 0.020905 0.640589
0.000000 0.051850 0.688487
0.249149 0.179431 0.760235
0.577707 0.386358 0.823163
0.758373 0.531716 0.866346
0.868437 0.572717 0.882277
0.464836 0.359335 0.795483
0.000000 0.045457 0.559258
0.000000 0.047059 0.591211
0.000000 0.078004 0.654307
0.172625 0.231067 0.749859
0.601755 0.485191 0.828763
0.796674 0.642924 0.884642
0.898741 0.680598 0.903365
0.414862 0.408896 0.787488
0.000000 0.156695 0.608743
0.000000 0.146975 0.616815
0.000000 0.140520 0.640162
0.000000 0.222782 0.719203
0.572839 0.533333 0.825101
0.830961 0.738613 0.906142
0.933104 0.783108 0.930617
0.556680 0.591684 0.832044
0.000000 0.491569 0.751476
0.000000 0.492042 0.757549
0.000000 0.493462 0.768521
0.000000 0.501884 0.791089
0.659022 0.671809 0.864820
0.919814 0.872206 0.953185
0.990402 0.888747 0.955978
0.000000 0.772412 0.840146
0.000000 0.799451 0.840558
0.000000 0.800702 0.841993
0.000000 0.803037 0.844694
0.000000 0.807843 0.850553
0.306523 0.815427 0.859907
0.536141 0.831083 0.878843
0.801770 0.880217 0.928298
