FILES/Studio-c29520b0.cube
TITLE "Studio"
LUT_3D_SIZE 5
DOMAIN_MIN 0.000000 0.000000 0.000000
DOMAIN_MAX 0.903226 0.903226 0.903226
0.000000 0.005722 0.112123
0.000000 0.006119 0.109987
0.017548 0.013993 0.104540
0.112566 0.021286 0.098726
0.448280 0.000000 0.096315
0.000000 0.032532 0.111330
0.000000 0.029572 0.105013
0.085618 0.049668 0.091096
0.236988 0.045808 0.088289
0.562707 0.000000 0.090562
0.000000 0.412406 0.036469
0.171191 0.471473 0.000000
0.145953 0.180468 0.079347
0.428412 0.247120 0.071977
0.805661 0.392996 0.100206
0.311849 0.852476 0.000000
0.447944 0.864057 0.000000
0.609018 0.832334 0.000000
0.600031 0.618204 0.000000
0.868391 0.707073 0.127565
0.552224 0.839811 0.428565
0.581537 0.838941 0.449393
0.637461 0.845624 0.413489
0.719402 0.843503 0.202304
0.802213 0.811353 0.279500
0.000000 0.007294 0.099321
0.000000 0.006897 0.096208
0.019913 0.012421 0.096422
0.058350 0.016556 0.098024
0.296788 0.000000 0.096117
0.000000 0.026413 0.089601
0.008484 0.031540 0.088182
0.066056 0.039231 0.086961
0.147723 0.033127 0.088731
0.430884 0.000000 0.091096
0.000000 0.377417 0.023453
0.098436 0.439841 0.000000
0.140246 0.168673 0.077272
0.425177 0.234668 0.085054
0.795926 0.361608 0.115953
0.272175 0.859251 0.000000
0.440406 0.873899 0.000000
0.620417 0.846754 0.000000
0.596613 0.611185 0.000000
0.875731 0.712261 0.195865
0.566812 0.822919 0.525917
0.596033 0.822675 0.550423
0.642313 0.831617 0.527123
0.716045 0.838087 0.318074
0.798260 0.809689 0.335088
0.000000 0.012421 0.086625
0.008484 0.017151 0.099229
0.084031 0.018341 0.112825
0.183291 0.001190 0.089921
0.239445 0.000000 0.091203
0.000000 0.021881 0.086625
0.012024 0.037461 0.101381
0.104829 0.043442 0.112566
0.098329 0.019516 0.086748
0.248081 0.000000 0.092271
0.000000 0.184955 0.148135
0.000000 0.275166 0.177264
0.151400 0.166781 0.123354
0.421561 0.195712 0.135760
0.722362 0.170657 0.113268
0.055406 0.841871 0.255116
0.377630 0.860471 0.313252
0.609598 0.850065 0.277546
0.605142 0.608454 0.088396
0.889693 0.731472 0.401480
0.614404 0.788251 0.672343
0.632105 0.784848 0.683146
0.663401 0.796933 0.688350
0.701762 0.817960 0.577859
0.782544 0.804501 0.482170
0.000000 0.022080 0.150072
0.000000 0.026215 0.209522
0.049668 0.009461 0.404532
0.461784 0.000000 0.424872
0.826337 0.000000 0.420157
0.000000 0.024842 0.111772
0.000000 0.035096 0.165286
0.088182 0.059724 0.401450
0.497017 0.000000 0.427314
0.819776 0.000000 0.397803
0.000000 0.041184 0.098924
0.000992 0.046891 0.107988
0.122057 0.172107 0.335515
0.583764 0.256458 0.444007
0.726024 0.000000 0.206088
0.000000 0.658030 0.560891
0.144869 0.699062 0.600855
0.484123 0.773480 0.655787
0.633173 0.637613 0.504067
0.888853 0.730266 0.643580
0.773816 0.767437 0.790768
0.789914 0.750454 0.799283
0.800427 0.728222 0.819440
0.738445 0.755795 0.814679
0.736782 0.791028 0.706004
0.000000 0.020905 0.682063
0.000000 0.020706 0.709682
0.207645 0.061189 0.773754
0.650004 0.188281 0.827100
0.906416 0.254704 0.816754
0.000000 0.035492 0.636301
0.000000 0.053483 0.699672
0.173373 0.113878 0.765240
0.666667 0.312428 0.829602
0.907576 0.379446 0.817884
0.000000 0.072496 0.535744
0.000000 0.079942 0.600229
0.000000 0.173770 0.732097
0.697963 0.552163 0.833310
0.895247 0.605035 0.817929
0.000000 0.339635 0.601282
0.000000 0.329686 0.608576
0.000000 0.289891 0.634211
0.655039 0.689784 0.817121
0.781613 0.844358 0.809522
0.662623 0.856245 0.800336
0.700664 0.848493 0.799908
0.799863 0.818250 0.799466
0.815335 0.747448 0.787182
0.665843 0.756130 0.769787
