FILES/Studio-c29520b0.cube
TITLE "Studio"
LUT_3D_SIZE 32
0.000000 0.005722 0.112123
0.000000 0.005722 0.112123
0.000000 0.005722 0.112123
0.000000 0.005722 0.112123
0.000000 0.005722 0.111589
0.000000 0.005921 0.111147
0.000000 0.006119 0.110430
0.000000 0.006119 0.109987
0.000000 0.006302 0.109621
0.000000 0.006699 0.109071
0.000000 0.007889 0.108171
0.000000 0.009064 0.107149
0.003555 0.010452 0.106233
0.010254 0.012222 0.105394
0.017548 0.013993 0.104540
0.026017 0.015778 0.103777
0.044190 0.018143 0.102449
0.055879 0.019318 0.101762
0.067979 0.020111 0.100893
0.081239 0.021088 0.100206
0.095903 0.021286 0.099519
0.112566 0.021286 0.098726
0.132403 0.020310 0.098238
0.155749 0.018524 0.097520
0.185489 0.014588 0.097017
0.224506 0.007691 0.096422
0.287495 0.000000 0.095903
0.359106 0.000000 0.095796
0.448280 0.000000 0.096315
0.557961 0.000000 0.097429
0.695994 0.000000 0.098528
0.872129 0.000000 0.097627
0.000000 0.005722 0.112123
0.000000 0.005722 0.112123
0.000000 0.005722 0.112123
0.000000 0.005524 0.111955
0.000000 0.005921 0.111498
0.000000 0.005921 0.111055
0.000000 0.006119 0.110430
0.000000 0.006119 0.109987
0.000000 0.006897 0.109255
0.000000 0.007691 0.108446
0.000000 0.008865 0.107439
0.000000 0.010056 0.106508
0.004929 0.011826 0.105486
0.011627 0.013596 0.104738
0.019318 0.015183 0.103883
0.028382 0.016556 0.103029
0.047059 0.019120 0.101762
0.058808 0.020310 0.100984
0.071061 0.021485 0.100313
0.084031 0.021881 0.099519
0.098634 0.022080 0.098924
0.114931 0.022080 0.098238
0.134356 0.021088 0.097734
0.157839 0.019318 0.097124
0.187915 0.015579 0.096513
0.227161 0.008484 0.096010
0.288991 0.000000 0.095491
0.358801 0.000000 0.095491
0.444892 0.000000 0.095903
0.552956 0.000000 0.097017
0.691386 0.000000 0.098024
0.870375 0.000000 0.097124
0.000000 0.005722 0.112123
0.000000 0.005722 0.112123
0.000000 0.005722 0.112123
0.000000 0.005722 0.111864
0.000000 0.005722 0.111421
0.000000 0.006119 0.110796
0.000000 0.006500 0.109987
0.000000 0.007294 0.109163
0.000000 0.007889 0.108446
0.000000 0.009064 0.107439
0.000000 0.009857 0.106600
0.000595 0.011429 0.105760
0.006897 0.013413 0.104829
0.013993 0.014984 0.103883
0.022278 0.016754 0.103029
0.031937 0.018341 0.102159
0.051514 0.020706 0.100984
0.062943 0.021683 0.100313
0.075166 0.022477 0.099428
0.088075 0.022873 0.098924
0.102541 0.023072 0.098238
0.118502 0.023072 0.097734
0.138231 0.021683 0.097017
0.162371 0.019913 0.096422
0.193545 0.015976 0.096010
0.232898 0.008865 0.095491
0.293141 0.000000 0.094987
0.359930 0.000000 0.095094
0.441459 0.000000 0.095399
0.544762 0.000000 0.096422
0.681239 0.000000 0.097627
0.860777 0.000000 0.096727
0.000000 0.006699 0.111955
0.000000 0.007294 0.111955
0.000000 0.007492 0.111955
0.000000 0.007294 0.111772
0.000000 0.007294 0.110338
0.000000 0.008087 0.109255
0.000000 0.008484 0.108446
0.000000 0.009064 0.107530
0.000000 0.009857 0.106966
0.000000 0.010849 0.106233
0.000000 0.012222 0.105287
0.004334 0.013993 0.104265
0.011048 0.015778 0.103304
0.018524 0.017548 0.102449
0.028199 0.019516 0.101579
0.038437 0.020905 0.100893
0.058350 0.023072 0.099718
0.070130 0.023850 0.098924
0.082414 0.024445 0.098238
0.095293 0.024842 0.097734
0.110079 0.024842 0.097230
0.126558 0.024247 0.096620
0.146715 0.023072 0.096117
0.171710 0.020905 0.095598
0.203510 0.016358 0.095186
0.242466 0.009461 0.094667
0.301427 0.000000 0.094255
0.364569 0.000000 0.094255
0.440787 0.000000 0.094774
0.538399 0.000000 0.095598
0.670634 0.000000 0.096818
0.848173 0.000000 0.096208
0.000000 0.011627 0.111681
0.000000 0.011627 0.111681
0.000000 0.011826 0.111681
0.000000 0.011826 0.111330
0.000000 0.011048 0.110246
0.000000 0.010849 0.108354
0.000000 0.011627 0.106600
0.000000 0.012421 0.105394
0.000000 0.013413 0.104540
0.000397 0.015778 0.103304
0.007691 0.017746 0.102159
0.015976 0.020111 0.100984
0.025635 0.022278 0.100114
0.037064 0.024048 0.099321
0.049500 0.025834 0.098634
0.061189 0.026612 0.097932
0.081239 0.028000 0.096727
0.093736 0.028199 0.096315
0.107622 0.028199 0.095705
0.122545 0.028000 0.095293
0.139101 0.027008 0.094987
0.157336 0.025834 0.094575
0.178439 0.023651 0.094163
0.203326 0.020508 0.093843
0.235203 0.015183 0.093431
0.276432 0.006699 0.093324
0.341817 0.000000 0.093217
0.413931 0.000000 0.093538
0.497963 0.000000 0.094255
0.597513 0.000000 0.095186
0.717693 0.000000 0.096010
0.869795 0.000000 0.094987
0.000000 0.015183 0.111589
0.000000 0.016159 0.111330
0.000000 0.016556 0.111238
0.000000 0.016358 0.110964
0.000000 0.015976 0.110796
0.000000 0.014389 0.109163
0.000000 0.014588 0.106508
0.000000 0.015976 0.104738
0.000000 0.017945 0.103120
0.004135 0.020111 0.101472
0.012024 0.022873 0.100114
0.021088 0.025437 0.098924
0.032731 0.027802 0.098024
0.046174 0.029572 0.097230
0.059571 0.030945 0.096315
0.072496 0.031937 0.095598
0.095293 0.032929 0.094575
0.109438 0.032731 0.093950
0.124483 0.032532 0.093736
0.139956 0.031739 0.093431
0.156756 0.030564 0.093004
0.175128 0.029175 0.092805
0.196765 0.026413 0.092592
0.222248 0.022873 0.092271
0.255451 0.017350 0.092058
0.297871 0.007889 0.091951
0.363439 0.000000 0.092058
0.433906 0.000000 0.092378
0.513954 0.000000 0.093111
0.608820 0.000000 0.094057
0.725444 0.000000 0.094774
0.875593 0.042313 0.093736
0.000000 0.021088 0.111421
0.000000 0.022477 0.111147
0.000000 0.023453 0.110964
0.000000 0.024247 0.110613
0.000000 0.024445 0.110155
0.000000 0.023850 0.109529
0.000000 0.021683 0.106783
0.000000 0.021088 0.104356
0.000000 0.022873 0.102449
0.005325 0.025238 0.100801
0.013794 0.028199 0.099229
0.024643 0.031540 0.097520
0.040009 0.035096 0.096117
0.057282 0.037461 0.094575
0.073899 0.039811 0.093324
0.090349 0.041001 0.092378
0.117998 0.041749 0.091539
0.134203 0.041566 0.091096
0.151003 0.040803 0.090776
0.167559 0.039429 0.090776
0.185595 0.037659 0.090562
0.204379 0.035492 0.090562
0.227420 0.032532 0.090349
0.254963 0.028000 0.090349
0.290532 0.021286 0.090242
0.334173 0.011826 0.090349
0.399786 0.000000 0.090562
0.465660 0.000000 0.091203
0.539101 0.000000 0.091951
0.625422 0.000000 0.092805
0.733715 0.000000 0.093217
0.876814 0.102251 0.092378
0.000000 0.032532 0.111330
0.000000 0.036271 0.111238
0.000000 0.037858 0.111055
0.000000 0.038239 0.110430
0.000000 0.037659 0.109804
0.000000 0.036469 0.109346
0.000000 0.033127 0.107530
0.000000 0.029572 0.105013
0.000198 0.028382 0.102632
0.006302 0.030167 0.100404
0.014191 0.033310 0.098634
0.025834 0.037263 0.096925
0.043259 0.041749 0.094667
0.063951 0.045991 0.092592
0.085618 0.049668 0.091096
0.106600 0.052186 0.089921
0.140383 0.053803 0.088838
0.159411 0.053315 0.088624
0.178653 0.052354 0.088289
0.197055 0.050675 0.088289
0.216419 0.048447 0.088289
0.236988 0.045808 0.088289
0.262013 0.042313 0.088396
0.292027 0.037659 0.088502
0.329549 0.030945 0.088502
0.374319 0.021485 0.088731
0.437324 0.006302 0.089387
0.497185 0.000000 0.089921
0.562707 0.000000 0.090562
0.640024 0.000000 0.091310
0.740215 0.004135 0.091539
0.875273 0.141863 0.091096
0.000000 0.081483 0.110155
0.000000 0.082414 0.109712
0.000000 0.083116 0.108995
0.000000 0.082765 0.108171
0.000000 0.080766 0.106874
0.003357 0.076539 0.105760
0.009262 0.069871 0.104631
0.011429 0.058961 0.102342
0.012421 0.049317 0.100313
0.015778 0.045457 0.098238
0.024643 0.047242 0.095903
0.039429 0.051011 0.093843
0.059113 0.056031 0.091844
0.080888 0.060899 0.090028
0.106416 0.065919 0.088502
0.134432 0.070130 0.087297
0.181353 0.074403 0.085954
0.206806 0.074662 0.085618
0.231495 0.074022 0.085618
0.254826 0.072358 0.085618
0.278553 0.069871 0.085847
0.301915 0.066621 0.085847
0.328420 0.062806 0.086183
0.357565 0.057893 0.086519
0.394080 0.052186 0.086854
0.438560 0.045090 0.087404
0.502632 0.036866 0.087953
0.564736 0.031540 0.088624
0.629664 0.035294 0.089265
0.699199 0.056657 0.089708
0.781857 0.104829 0.089815
0.886030 0.192523 0.090455
0.000000 0.095491 0.109071
0.000000 0.125765 0.106416
0.000000 0.136995 0.104738
0.000000 0.136339 0.103685
0.000000 0.129122 0.102831
0.007889 0.119677 0.102052
0.018524 0.107439 0.101183
0.024048 0.093431 0.100694
0.024643 0.075669 0.098833
0.023453 0.062074 0.097322
0.026215 0.056031 0.095705
0.037064 0.056977 0.093736
0.053803 0.061189 0.091844
0.074403 0.066758 0.089708
0.099718 0.073136 0.088075
0.129427 0.079454 0.086519
0.187182 0.089815 0.084596
0.222995 0.093950 0.084031
0.256153 0.096208 0.083803
0.285939 0.096208 0.083909
0.314076 0.094881 0.084138
0.340932 0.092485 0.084367
0.370733 0.089815 0.084718
0.403601 0.086961 0.085054
0.441779 0.084367 0.085512
0.486595 0.082414 0.085954
0.547723 0.083680 0.086748
0.604212 0.088624 0.087404
0.661646 0.099519 0.087846
0.723827 0.120333 0.088289
0.799573 0.162005 0.088624
0.897627 0.243107 0.091539
0.000000 0.128740 0.106600
0.000000 0.171481 0.101671
0.000000 0.188128 0.099031
0.000000 0.187762 0.097734
0.000000 0.178546 0.097734
0.007889 0.167025 0.097230
0.025834 0.152117 0.096818
0.037064 0.134951 0.096818
0.042313 0.114839 0.096727
0.040406 0.092378 0.095598
0.037263 0.075669 0.094774
0.039811 0.067979 0.093538
0.052674 0.069062 0.091539
0.071183 0.074281 0.089708
0.095903 0.081483 0.087633
0.126070 0.089601 0.085847
0.186282 0.103975 0.083680
0.227070 0.111772 0.082643
0.270069 0.118761 0.082292
0.309743 0.122957 0.082185
0.345785 0.124727 0.082643
0.379599 0.124880 0.083116
0.415061 0.124880 0.083452
0.452049 0.124727 0.083803
0.493172 0.125689 0.084489
0.537804 0.128191 0.085054
0.594369 0.134951 0.085618
0.643519 0.143618 0.086076
0.692332 0.155428 0.086748
0.746212 0.175082 0.087068
0.813748 0.212879 0.088075
0.903624 0.288014 0.094667
0.000000 0.169848 0.102541
0.000000 0.224857 0.094362
0.000000 0.246921 0.089494
0.000000 0.247654 0.088396
0.000000 0.237675 0.088731
0.006119 0.225666 0.088945
0.035691 0.209842 0.089265
0.055406 0.191501 0.090135
0.066194 0.170321 0.091310
0.068116 0.144030 0.091844
0.063233 0.116976 0.091752
0.058198 0.095705 0.091646
0.060304 0.085512 0.090562
0.073777 0.086519 0.088838
0.095598 0.092485 0.087068
0.123598 0.100801 0.085176
0.183032 0.117327 0.082536
0.224338 0.127413 0.081483
0.269673 0.137438 0.080766
0.316487 0.146227 0.080659
0.364660 0.154192 0.080888
0.409369 0.159777 0.081361
0.453590 0.164691 0.082063
0.496818 0.168917 0.082765
0.541360 0.174166 0.083345
0.585184 0.180148 0.084138
0.636301 0.189853 0.084825
0.678111 0.198703 0.085512
0.719402 0.209293 0.086183
0.765988 0.227161 0.087068
0.826169 0.261830 0.089494
0.907851 0.331685 0.100694
0.000000 0.356710 0.061189
0.000000 0.357443 0.060014
0.000000 0.357534 0.059266
0.000000 0.356512 0.058503
0.000000 0.352270 0.058045
0.028977 0.342962 0.059571
0.079454 0.325963 0.062806
0.105287 0.303105 0.067567
0.119921 0.274525 0.072618
0.124880 0.241077 0.078370
0.117571 0.200031 0.082414
0.103777 0.159533 0.085283
0.091646 0.128511 0.086854
0.089708 0.112032 0.086854
0.104265 0.111498 0.085512
0.128817 0.117403 0.083803
0.187396 0.135836 0.080888
0.231693 0.149203 0.079576
0.282429 0.163714 0.078614
0.336614 0.178042 0.078126
0.393774 0.192416 0.078004
0.450141 0.205478 0.078614
0.503639 0.217044 0.079698
0.550378 0.225711 0.080888
0.594461 0.234211 0.082063
0.637125 0.243290 0.083574
0.687282 0.257374 0.085176
0.729122 0.270451 0.086854
0.769940 0.285389 0.088838
0.811414 0.304021 0.091752
0.859083 0.333104 0.097627
0.917906 0.384161 0.113970
0.000000 0.338048 0.068666
0.000000 0.441184 0.017151
0.000000 0.479164 0.000000
0.000000 0.480049 0.000000
0.002365 0.463859 0.000000
0.068803 0.444938 0.008865
0.115099 0.422049 0.019715
0.140734 0.393744 0.032929
0.156191 0.360098 0.046708
0.162493 0.321218 0.058961
0.161822 0.280598 0.069062
0.146715 0.229740 0.076417
0.129046 0.184695 0.081132
0.113787 0.149798 0.083803
0.110796 0.131350 0.084367
0.126314 0.130205 0.083223
0.176715 0.145418 0.080171
0.218692 0.159350 0.078492
0.268070 0.175692 0.077150
0.321981 0.192630 0.076036
0.380377 0.210117 0.075547
0.440208 0.227329 0.075669
0.500420 0.244739 0.076417
0.558663 0.261967 0.077760
0.612222 0.278447 0.079820
0.660182 0.293385 0.082414
0.711543 0.311345 0.085725
0.752636 0.326360 0.089387
0.790875 0.341360 0.093645
0.828809 0.359030 0.099031
0.872206 0.386511 0.108995
0.925338 0.434775 0.133608
0.000000 0.412406 0.036469
0.000000 0.511238 0.000000
0.000000 0.545724 0.000000
0.000000 0.546181 0.000000
0.043061 0.531533 0.000000
0.098528 0.514809 0.000000
0.143481 0.495506 0.000000
0.171191 0.471473 0.000000
0.191348 0.442863 0.004334
0.203082 0.407752 0.022278
0.207172 0.368322 0.040009
0.202411 0.323171 0.056031
0.183948 0.268284 0.067430
0.163287 0.219043 0.074922
0.145953 0.180468 0.079347
0.141100 0.158465 0.080659
0.175586 0.161273 0.078859
0.211505 0.172625 0.077028
0.256336 0.188281 0.075288
0.307774 0.205997 0.074022
0.366033 0.226047 0.072755
0.428412 0.247120 0.071977
0.492790 0.269261 0.072099
0.556603 0.292119 0.073014
0.617853 0.315755 0.075166
0.673457 0.338277 0.079347
0.728664 0.361563 0.086183
0.769512 0.378180 0.092897
0.805661 0.392996 0.100206
0.846113 0.415427 0.111498
0.889982 0.447120 0.130587
0.930831 0.483299 0.159152
0.000000 0.486595 0.000000
0.000000 0.574807 0.000000
0.000000 0.604349 0.000000
0.041367 0.604822 0.000000
0.095598 0.593133 0.000000
0.138384 0.581186 0.000000
0.180972 0.568338 0.000000
0.212375 0.552331 0.000000
0.238087 0.532677 0.000000
0.256565 0.506584 0.000000
0.267506 0.474128 0.000000
0.270024 0.434699 0.004532
0.261433 0.385718 0.028382
0.237034 0.323644 0.050843
0.210452 0.266377 0.064805
0.187076 0.219669 0.072496
0.185977 0.187442 0.075914
0.211368 0.191135 0.074784
0.248737 0.202838 0.073396
0.295338 0.219394 0.071717
0.351919 0.240681 0.069734
0.415534 0.265019 0.068254
0.483223 0.291585 0.067170
0.551492 0.319646 0.067033
0.616815 0.348119 0.069062
0.675181 0.374197 0.073640
0.734234 0.401984 0.083116
0.776684 0.421012 0.093843
0.820233 0.444739 0.108904
0.864179 0.473762 0.130739
0.904234 0.504601 0.159411
0.939712 0.538582 0.198749
0.000000 0.603601 0.000000
0.012619 0.664378 0.000000
0.108080 0.686580 0.000000
0.148470 0.688914 0.000000
0.179812 0.683604 0.000000
0.213840 0.679072 0.000000
0.253391 0.673686 0.000000
0.285710 0.666331 0.000000
0.315297 0.655924 0.000000
0.340230 0.640986 0.000000
0.359182 0.620752 0.000000
0.370840 0.593683 0.000000
0.374243 0.558694 0.000000
0.369070 0.516121 0.000000
0.345586 0.455467 0.000000
0.315908 0.390951 0.020310
0.270024 0.299245 0.054292
0.258778 0.265492 0.062226
0.277607 0.260563 0.063371
0.316976 0.272358 0.061936
0.370398 0.293828 0.059113
0.432120 0.320272 0.056031
0.498650 0.349996 0.053315
0.565240 0.380880 0.052186
0.628977 0.411765 0.053635
0.688319 0.441291 0.060304
0.750423 0.473960 0.075547
0.797894 0.499184 0.095399
0.839170 0.522164 0.120668
0.882017 0.553017 0.159350
0.918349 0.584741 0.208072
0.946502 0.616815 0.267781
0.000000 0.670527 0.000000
0.129427 0.719890 0.000000
0.179370 0.737148 0.000000
0.205951 0.737667 0.000000
0.228046 0.731441 0.000000
0.254154 0.725612 0.000000
0.287144 0.719524 0.000000
0.315328 0.711711 0.000000
0.342489 0.701854 0.000000
0.366567 0.689311 0.000000
0.388037 0.673472 0.000000
0.404608 0.653483 0.000000
0.415839 0.628199 0.000000
0.420249 0.597070 0.000000
0.415946 0.557778 0.000000
0.394125 0.501350 0.000000
0.347082 0.401816 0.013993
0.319295 0.346700 0.038437
0.305943 0.309483 0.051347
0.323781 0.302342 0.053971
0.364599 0.314534 0.052506
0.418158 0.336217 0.049149
0.481209 0.364843 0.045457
0.548577 0.397696 0.041749
0.615579 0.432212 0.041367
0.678401 0.465293 0.047242
0.743389 0.500496 0.063661
0.794842 0.529183 0.087510
0.844724 0.561379 0.123033
0.887724 0.592966 0.169497
0.922774 0.624750 0.228855
0.947433 0.656107 0.302403
0.104540 0.721645 0.000000
0.190463 0.760815 0.000000
0.226993 0.773877 0.000000
0.246891 0.773144 0.000000
0.264027 0.767102 0.000000
0.286397 0.761898 0.000000
0.316533 0.757488 0.000000
0.344274 0.752621 0.000000
0.372488 0.746761 0.000000
0.399298 0.739269 0.000000
0.424186 0.729564 0.000000
0.446036 0.716793 0.000000
0.463478 0.699779 0.000000
0.475242 0.677623 0.000000
0.480186 0.649027 0.000000
0.474434 0.610300 0.000000
0.436377 0.520180 0.000000
0.404288 0.457542 0.000000
0.374899 0.400320 0.014984
0.359655 0.359930 0.033906
0.377279 0.351308 0.039033
0.418631 0.363500 0.037659
0.474937 0.387945 0.033127
0.540108 0.420462 0.028199
0.607736 0.456535 0.025437
0.672129 0.491554 0.029969
0.743954 0.533349 0.050675
0.800565 0.567346 0.082765
0.850156 0.599237 0.125292
0.892302 0.630106 0.178439
0.925689 0.660395 0.244587
0.947341 0.688960 0.325444
0.178042 0.765621 0.000000
0.241199 0.796613 0.000000
0.270237 0.806760 0.000000
0.286549 0.805890 0.000000
0.300877 0.801144 0.000000
0.321019 0.797543 0.000000
0.349813 0.795178 0.000000
0.377295 0.792981 0.000000
0.405859 0.790356 0.000000
0.433875 0.786435 0.000000
0.459754 0.780072 0.000000
0.482811 0.770901 0.000000
0.502144 0.758022 0.000000
0.516625 0.740719 0.000000
0.525429 0.717800 0.000000
0.527825 0.688869 0.000000
0.507820 0.618647 0.000000
0.482414 0.563012 0.000000
0.452399 0.503868 0.000000
0.423865 0.447700 0.000000
0.410208 0.408179 0.013413
0.432639 0.403174 0.018723
0.483772 0.424048 0.014389
0.547173 0.456352 0.008286
0.614725 0.493584 0.004334
0.681239 0.531258 0.008865
0.750851 0.571374 0.034104
0.806409 0.604440 0.075914
0.855344 0.635554 0.126314
0.896468 0.665293 0.186343
0.928054 0.693675 0.259648
0.946319 0.718532 0.345953
0.255787 0.816251 0.000000
0.294804 0.833463 0.000000
0.316396 0.840070 0.000000
0.331853 0.840681 0.000000
0.348180 0.839399 0.000000
0.369406 0.839246 0.000000
0.397803 0.839567 0.000000
0.424857 0.839780 0.000000
0.452857 0.839155 0.000000
0.480430 0.837308 0.000000
0.506462 0.833585 0.000000
0.530587 0.827924 0.000000
0.552056 0.819699 0.000000
0.570703 0.808667 0.000000
0.585962 0.794644 0.000000
0.597818 0.777371 0.000000
0.606210 0.738857 0.000000
0.598581 0.702754 0.000000
0.585199 0.660868 0.000000
0.567758 0.615228 0.000000
0.550713 0.570397 0.000000
0.542443 0.534752 0.000000
0.561685 0.525811 0.000000
0.600397 0.535714 0.000000
0.648798 0.555611 0.000000
0.700679 0.580133 0.000000
0.760037 0.610620 0.013016
0.813596 0.641703 0.067033
0.861158 0.671214 0.126787
0.900832 0.699275 0.194095
0.930083 0.724941 0.274449
0.944183 0.745220 0.365805
0.311849 0.852476 0.000000
0.344167 0.865690 0.000000
0.361852 0.870237 0.000000
0.373465 0.869810 0.000000
0.385290 0.867628 0.000000
0.401709 0.866117 0.000000
0.424994 0.865080 0.000000
0.447944 0.864057 0.000000
0.471992 0.862593 0.000000
0.496803 0.860563 0.000000
0.521767 0.857725 0.000000
0.546212 0.853895 0.000000
0.569253 0.848676 0.000000
0.590463 0.841627 0.000000
0.609018 0.832334 0.000000
0.624765 0.820493 0.000000
0.642390 0.794049 0.000000
0.644846 0.769757 0.000000
0.638712 0.737194 0.000000
0.627497 0.699260 0.000000
0.613397 0.658289 0.000000
0.600031 0.618204 0.000000
0.595453 0.586984 0.000000
0.618494 0.582300 0.000000
0.662531 0.598199 0.000000
0.713832 0.622110 0.000000
0.773037 0.652522 0.000000
0.823285 0.680140 0.056336
0.868391 0.707073 0.127565
0.905760 0.732418 0.202747
0.931823 0.754360 0.289601
0.940185 0.768719 0.386175
0.370153 0.886259 0.000000
0.380835 0.887953 0.000000
0.394675 0.890745 0.000000
0.403082 0.889662 0.000000
0.412512 0.887358 0.000000
0.427329 0.886320 0.000000
0.449851 0.886305 0.000000
0.471870 0.886107 0.000000
0.495232 0.885588 0.000000
0.519265 0.884535 0.000000
0.543465 0.882765 0.000000
0.568017 0.880629 0.000000
0.592218 0.877699 0.000000
0.614755 0.873365 0.000000
0.634714 0.867018 0.000000
0.651926 0.858427 0.000000
0.672892 0.838529 0.000000
0.681147 0.822034 0.000000
0.683589 0.800061 0.000000
0.681788 0.773465 0.000000
0.677348 0.743984 0.000000
0.672114 0.713298 0.000000
0.669215 0.684703 0.000000
0.674144 0.663676 0.000000
0.700343 0.662898 0.000000
0.739986 0.675669 0.000000
0.791012 0.698024 0.000000
0.836347 0.720653 0.044907
0.877653 0.743618 0.130510
0.911482 0.764874 0.213382
0.932677 0.781552 0.307027
0.932982 0.788296 0.407843
0.423835 0.912230 0.000000
0.429908 0.912184 0.000000
0.436530 0.912154 0.000000
0.445777 0.912093 0.000000
0.457557 0.912016 0.000000
0.472129 0.911879 0.000000
0.491341 0.911711 0.000000
0.510918 0.911452 0.000000
0.531823 0.911009 0.000000
0.553719 0.910231 0.000000
0.575936 0.908995 0.000000
0.598291 0.907195 0.000000
0.620386 0.904753 0.000000
0.641566 0.901427 0.000000
0.661799 0.897124 0.000000
0.680491 0.891585 0.000000
0.706966 0.879332 0.000000
0.720470 0.869490 0.000000
0.731777 0.857694 0.000000
0.737041 0.840574 0.000000
0.738628 0.819837 0.000000
0.738430 0.796826 0.000000
0.738109 0.773159 0.000000
0.740215 0.751232 0.000000
0.748455 0.734966 0.000000
0.774060 0.734905 0.000000
0.814435 0.747066 0.000000
0.853162 0.763226 0.037064
0.889067 0.780575 0.138094
0.917357 0.796002 0.228519
0.930877 0.805188 0.327947
0.919982 0.802274 0.432593
0.466255 0.926345 0.000000
0.474327 0.926726 0.000000
0.482109 0.926955 0.000000
0.487892 0.926604 0.000000
0.495201 0.926055 0.000000
0.506645 0.925704 0.000000
0.523110 0.925368 0.000000
0.539834 0.925017 0.000000
0.559213 0.924681 0.000000
0.579858 0.924224 0.000000
0.601038 0.923506 0.000000
0.622293 0.922530 0.000000
0.643549 0.921248 0.000000
0.664576 0.919631 0.000000
0.685344 0.917586 0.000000
0.705669 0.915068 0.000000
0.736690 0.909483 0.000000
0.754162 0.904723 0.000000
0.769879 0.898604 0.000000
0.783627 0.890867 0.000000
0.792172 0.878767 0.000000
0.796994 0.863493 0.000000
0.799329 0.845670 0.000000
0.800381 0.826200 0.000000
0.804028 0.808347 0.000000
0.815076 0.796841 0.000000
0.842725 0.798016 0.000000
0.872801 0.806134 0.039811
0.901213 0.816144 0.152575
0.920867 0.823377 0.250217
0.922408 0.822110 0.354726
0.897704 0.807691 0.458839
0.495827 0.926925 0.000000
0.499779 0.926848 0.000000
0.504326 0.926711 0.000000
0.510643 0.926574 0.000000
0.518929 0.926375 0.000000
0.529198 0.926070 0.000000
0.542977 0.925658 0.000000
0.556954 0.925185 0.000000
0.572564 0.924605 0.000000
0.589380 0.923919 0.000000
0.607019 0.923156 0.000000
0.625345 0.922362 0.000000
0.644175 0.921508 0.000000
0.663310 0.920577 0.000000
0.682673 0.919478 0.000000
0.702052 0.918196 0.000000
0.733318 0.915373 0.000000
0.752071 0.912963 0.000000
0.770138 0.909865 0.000000
0.787305 0.905882 0.000000
0.803326 0.900786 0.000000
0.816419 0.893141 0.000000
0.827405 0.883894 0.000000
0.836988 0.873442 0.000000
0.846235 0.862654 0.000000
0.856580 0.852781 0.000000
0.871427 0.844785 0.000000
0.891295 0.844480 0.064805
0.908919 0.845212 0.177432
0.915007 0.841245 0.281361
0.899977 0.826886 0.389029
0.890211 0.814771 0.442817
0.518547 0.911025 0.109255
0.521691 0.910918 0.110338
0.525093 0.910811 0.110964
0.530007 0.910658 0.112749
0.536324 0.910445 0.114229
0.544350 0.910140 0.117327
0.555016 0.909712 0.120089
0.566049 0.909209 0.123110
0.578317 0.908583 0.126711
0.591791 0.907881 0.129595
0.606012 0.907118 0.131273
0.620981 0.906432 0.130587
0.636484 0.905913 0.124651
0.652506 0.905516 0.113970
0.669062 0.905226 0.096620
0.686091 0.905058 0.069200
0.714885 0.904830 0.000000
0.733104 0.904555 0.000000
0.751522 0.903990 0.000000
0.770077 0.903014 0.000000
0.788357 0.901427 0.000000
0.806363 0.899214 0.000000
0.824659 0.896513 0.000000
0.841260 0.892714 0.000000
0.856260 0.887800 0.000000
0.869734 0.881987 0.000000
0.883085 0.874601 0.007889
0.892485 0.867247 0.124651
0.894957 0.856596 0.223560
0.881544 0.837797 0.328862
0.868070 0.821088 0.401862
0.878309 0.819883 0.424369
0.535515 0.881926 0.283680
0.537774 0.881819 0.284276
0.540291 0.881727 0.284596
0.543923 0.881590 0.285420
0.548547 0.881392 0.286137
0.554467 0.881102 0.287343
0.562509 0.880690 0.288991
0.570733 0.880232 0.290425
0.580011 0.879667 0.291707
0.590143 0.878950 0.293141
0.601038 0.878187 0.293919
0.612421 0.877516 0.292531
0.624292 0.876982 0.288991
0.636606 0.876692 0.281956
0.649363 0.876677 0.270268
0.662684 0.876814 0.254932
0.685481 0.877470 0.217807
0.700359 0.877867 0.188190
0.715831 0.878141 0.151003
0.731792 0.878035 0.105196
0.747951 0.877333 0.036469
0.763973 0.875837 0.000000
0.780560 0.873823 0.000000
