FILES/Studio_2-5d0ec884.cube
TITLE "STUDIOTEST"
LUT_3D_SIZE 32
0.029572 0.036866 0.049149
0.029572 0.036866 0.049149
0.029572 0.036866 0.049149
0.029572 0.036866 0.049149
0.029374 0.036866 0.049149
0.028580 0.036469 0.048798
0.027802 0.036469 0.048447
0.027405 0.036072 0.048280
0.026810 0.035874 0.047929
0.026413 0.035492 0.047761
0.026017 0.035294 0.047410
0.026017 0.034699 0.047059
0.026017 0.034104 0.046525
0.025834 0.033707 0.046174
0.026215 0.033310 0.045624
0.026810 0.033127 0.045090
0.028977 0.032731 0.044373
0.030564 0.032731 0.044007
0.032731 0.032731 0.043824
0.035096 0.032731 0.043626
0.037659 0.033127 0.043442
0.040604 0.033310 0.043259
0.044007 0.033707 0.043061
0.048280 0.033906 0.042878
0.053315 0.034501 0.042878
0.060166 0.035096 0.042878
0.071839 0.035691 0.043061
0.086625 0.035874 0.043061
0.108721 0.035874 0.043626
0.145830 0.033310 0.044373
0.223041 0.020508 0.046891
0.427192 0.000000 0.057740
0.029572 0.036866 0.049149
0.029572 0.036866 0.049149
0.029572 0.036866 0.049149
0.029572 0.036866 0.049149
0.029374 0.036667 0.048981
0.028580 0.036469 0.048798
0.027802 0.036469 0.048447
0.027405 0.036072 0.048280
0.026810 0.035874 0.048112
0.026413 0.035492 0.047761
0.026017 0.035096 0.047242
0.026017 0.034302 0.046891
0.025834 0.033906 0.046357
0.026017 0.033509 0.045991
0.026215 0.033127 0.045457
0.027207 0.032731 0.044907
0.029175 0.032731 0.044373
0.030945 0.032731 0.044007
0.033127 0.032731 0.043824
0.035294 0.032929 0.043626
0.038056 0.033127 0.043442
0.041001 0.033509 0.043061
0.044541 0.033906 0.043061
0.048631 0.034104 0.043061
0.054124 0.034699 0.043061
0.061189 0.035096 0.043061
0.073259 0.035874 0.043061
0.087953 0.036271 0.043259
0.109438 0.036072 0.043824
0.146441 0.033707 0.044541
0.223865 0.021286 0.047242
0.430579 0.000000 0.058350
0.029572 0.036866 0.049149
0.029572 0.036866 0.049149
0.029572 0.036866 0.049149
0.029572 0.036866 0.049149
0.029175 0.036667 0.048981
0.028580 0.036469 0.048798
0.027802 0.036469 0.048447
0.027405 0.036072 0.048280
0.026612 0.035691 0.047929
0.026413 0.035096 0.047410
0.026215 0.034501 0.047059
0.025834 0.034104 0.046708
0.025834 0.033707 0.046174
0.026017 0.033310 0.045808
0.026413 0.033127 0.045274
0.027207 0.032731 0.044724
0.029572 0.032532 0.044190
0.031540 0.032731 0.044007
0.033310 0.032929 0.043626
0.035874 0.033127 0.043442
0.038636 0.033310 0.043442
0.041566 0.033707 0.043061
0.045274 0.034104 0.043061
0.049668 0.034501 0.043061
0.055558 0.034897 0.043061
0.062943 0.035492 0.043061
0.074922 0.036072 0.043259
0.089601 0.036667 0.043442
0.110521 0.036469 0.044007
0.146227 0.034501 0.044724
0.221118 0.022873 0.047242
0.421851 0.000000 0.058350
0.029572 0.036866 0.049149
0.029770 0.036667 0.048981
0.029770 0.036469 0.048981
0.029572 0.036469 0.048981
0.028977 0.036271 0.048631
0.028580 0.036072 0.048447
0.027802 0.035691 0.048112
0.027405 0.035294 0.047761
0.027008 0.034897 0.047410
0.026612 0.034501 0.047059
0.026215 0.034104 0.046708
0.026215 0.033707 0.046357
0.026017 0.033509 0.045808
0.026215 0.033127 0.045457
0.026810 0.032929 0.044907
0.028000 0.032731 0.044541
0.030167 0.032731 0.044007
0.032136 0.032929 0.043824
0.034699 0.033127 0.043626
0.037064 0.033310 0.043442
0.039811 0.033707 0.043442
0.043061 0.034104 0.043061
0.046891 0.034501 0.043061
0.051682 0.034897 0.043061
0.057740 0.035492 0.043259
0.065782 0.036072 0.043259
0.078126 0.036667 0.043442
0.092805 0.037263 0.043824
0.113359 0.037064 0.044373
0.147860 0.035096 0.045090
0.219806 0.024445 0.047593
0.412238 0.000000 0.058350
0.029770 0.034897 0.048798
0.029969 0.034699 0.048798
0.029969 0.034699 0.048798
0.028977 0.034501 0.048631
0.028382 0.034501 0.048631
0.027802 0.034897 0.047929
0.027604 0.034501 0.047242
0.027008 0.034302 0.046891
0.026612 0.033906 0.046525
0.026612 0.033509 0.046174
0.026413 0.033310 0.045808
0.026215 0.033127 0.045624
0.026413 0.032929 0.045090
0.027008 0.032532 0.044724
0.028382 0.032532 0.044373
0.029572 0.032532 0.044007
0.032929 0.033127 0.043626
0.035492 0.033509 0.043626
0.038239 0.033906 0.043259
0.041367 0.034104 0.043259
0.044724 0.034699 0.043259
0.048631 0.035096 0.043259
0.053162 0.035691 0.043442
0.058350 0.036072 0.043442
0.065217 0.036866 0.043626
0.074159 0.037263 0.043824
0.089921 0.037858 0.044190
0.109438 0.038239 0.044541
0.137591 0.037263 0.045457
0.182437 0.032731 0.046891
0.266911 0.015976 0.050507
0.459144 0.000000 0.062943
0.029969 0.033707 0.048447
0.029770 0.033509 0.048447
0.029175 0.033310 0.048280
0.028580 0.033127 0.048280
0.028000 0.033310 0.048112
0.027405 0.033310 0.047929
0.027207 0.033509 0.047410
0.027008 0.033707 0.046708
0.026810 0.033509 0.046357
0.026413 0.033127 0.045808
0.026413 0.032929 0.045457
0.026612 0.032731 0.045090
0.027008 0.032334 0.044541
0.027802 0.032532 0.044373
0.028977 0.032731 0.044007
0.030762 0.032929 0.043824
0.034699 0.033707 0.043626
0.037659 0.034104 0.043442
0.040604 0.034699 0.043442
0.044373 0.035294 0.043626
0.048112 0.035691 0.043626
0.052186 0.036072 0.043626
0.057435 0.036667 0.043824
0.063371 0.037263 0.044007
0.071183 0.038056 0.044190
0.081712 0.038636 0.044541
0.099229 0.039429 0.044907
0.120745 0.039612 0.045457
0.150866 0.038239 0.046708
0.198306 0.033127 0.048280
0.287297 0.014389 0.052506
0.485176 0.000000 0.066758
0.029175 0.032731 0.047929
0.028580 0.032532 0.047929
0.028382 0.032334 0.047761
0.028199 0.032334 0.047761
0.027604 0.032532 0.047593
0.027207 0.032532 0.047593
0.026810 0.032532 0.047410
0.026612 0.032731 0.046891
0.026413 0.032929 0.046174
0.026413 0.032731 0.045624
0.026612 0.032334 0.045090
0.026810 0.032334 0.044541
0.027405 0.032532 0.044190
0.028977 0.032929 0.044007
0.030762 0.033127 0.043824
0.033127 0.033906 0.043824
0.037858 0.034897 0.043824
0.041367 0.035691 0.043824
0.045274 0.036469 0.044007
0.049149 0.037064 0.044190
0.053635 0.037858 0.044373
0.058808 0.038239 0.044541
0.064942 0.039033 0.044724
0.072496 0.039811 0.045090
0.082292 0.040406 0.045274
0.095094 0.041367 0.045808
0.115953 0.041932 0.046525
0.140246 0.041566 0.047410
0.173022 0.039811 0.048631
0.222858 0.033707 0.050843
0.314214 0.013993 0.055711
0.509682 0.000000 0.071839
0.028580 0.031937 0.047593
0.028382 0.031937 0.047410
0.028000 0.031937 0.047410
0.027802 0.031739 0.047242
0.027604 0.031739 0.047242
0.027008 0.031937 0.047059
0.026612 0.031937 0.046891
0.026413 0.032136 0.046525
0.026413 0.032136 0.046174
0.026612 0.032136 0.045457
0.026612 0.032334 0.044907
0.027008 0.032334 0.044541
0.028382 0.032731 0.044190
0.029770 0.033509 0.044007
0.032136 0.034302 0.043824
0.034897 0.035492 0.044007
0.041184 0.037064 0.044541
0.045457 0.038056 0.044724
0.050340 0.039033 0.045090
0.055253 0.039811 0.045274
0.060746 0.040604 0.045457
0.067033 0.041367 0.045808
0.074784 0.042313 0.045991
0.084367 0.043061 0.046525
0.096818 0.044190 0.047059
0.112566 0.045090 0.047593
0.137148 0.045457 0.048798
0.163775 0.044724 0.049836
0.198001 0.042313 0.051347
0.248661 0.035691 0.053971
0.341360 0.016556 0.059724
0.529946 0.000000 0.077272
0.027802 0.032731 0.045991
0.027802 0.032929 0.045991
0.027802 0.032929 0.045808
0.027802 0.033127 0.045808
0.027802 0.033310 0.045624
0.027604 0.033707 0.045457
0.028000 0.033906 0.045274
0.028000 0.033906 0.045274
0.027802 0.033310 0.045090
0.027604 0.033127 0.044907
0.028000 0.033509 0.044541
0.028977 0.033707 0.044190
0.030564 0.034501 0.043824
0.032731 0.035691 0.044007
0.035691 0.036866 0.044373
0.039612 0.038636 0.045090
0.048798 0.041749 0.045991
0.055253 0.043442 0.046708
0.062516 0.045090 0.047410
0.070130 0.046357 0.047929
0.078614 0.047410 0.048631
0.087510 0.048280 0.048981
0.098024 0.049149 0.049500
0.110155 0.050004 0.050004
0.125689 0.050675 0.050675
0.146227 0.051179 0.051514
0.179217 0.051011 0.053315
0.215976 0.049500 0.055085
0.261250 0.045457 0.057740
0.322805 0.036469 0.061631
0.418112 0.017350 0.069200
0.573220 0.002365 0.088075
0.027802 0.035492 0.044907
0.028199 0.038437 0.044007
0.028382 0.040009 0.043824
0.028977 0.040208 0.043824
0.029374 0.040208 0.043824
0.029969 0.040208 0.043824
0.030365 0.039811 0.044007
0.030564 0.039033 0.044007
0.030945 0.038056 0.044373
0.030365 0.036667 0.044373
0.029969 0.035492 0.044190
0.030167 0.035492 0.044007
0.031739 0.036072 0.043824
0.033509 0.037064 0.044007
0.036271 0.038437 0.044541
0.040406 0.040406 0.045090
0.051179 0.044541 0.047059
0.059724 0.047761 0.048280
0.069596 0.050340 0.049500
0.080064 0.052674 0.050675
0.091417 0.054444 0.051347
0.103395 0.055711 0.052186
0.117571 0.056977 0.052995
0.134051 0.058045 0.053971
0.154772 0.059113 0.055085
0.180697 0.059861 0.056657
0.219806 0.060166 0.058808
0.261326 0.059113 0.061631
0.310018 0.056031 0.064942
0.374640 0.050340 0.069993
0.469947 0.044190 0.079698
0.618647 0.077272 0.104067
0.028382 0.041367 0.043442
0.028779 0.048631 0.042313
0.029374 0.052018 0.041932
0.030167 0.052506 0.041932
0.031144 0.051682 0.042130
0.032334 0.051011 0.042313
0.033509 0.050172 0.042496
0.034302 0.048447 0.042878
0.034699 0.046525 0.043259
0.034897 0.044190 0.043442
0.033906 0.041566 0.043824
0.033127 0.039231 0.043824
0.033509 0.039033 0.043824
0.035492 0.039612 0.043824
0.038239 0.041184 0.044373
0.042496 0.043259 0.045274
0.053315 0.048280 0.047410
0.062654 0.051850 0.049149
0.075288 0.056031 0.051347
0.089815 0.060166 0.053162
0.105669 0.063371 0.054932
0.122545 0.065782 0.056504
0.142504 0.068254 0.057893
0.165347 0.070390 0.059724
0.193286 0.072618 0.061631
0.225452 0.074403 0.063951
0.271214 0.076417 0.067567
0.315526 0.076905 0.071061
0.366049 0.076905 0.075166
0.428412 0.077638 0.081361
0.518364 0.088502 0.093645
0.653758 0.144869 0.124483
0.028382 0.051347 0.041932
0.028580 0.064942 0.040208
0.028580 0.071443 0.039811
0.030167 0.072236 0.039612
0.031937 0.070390 0.040009
0.033906 0.069200 0.040406
0.036469 0.068116 0.040803
0.038834 0.066056 0.041184
0.040604 0.062943 0.041566
0.041367 0.059113 0.042313
0.041367 0.055253 0.042695
0.039811 0.050004 0.043259
0.038636 0.045991 0.043442
0.039033 0.044724 0.043824
0.041566 0.045624 0.044190
0.045808 0.047410 0.044907
0.056504 0.052506 0.047410
0.065919 0.056504 0.049500
0.078614 0.061341 0.052018
0.095094 0.066896 0.054780
0.116548 0.072755 0.057740
0.141161 0.078126 0.060746
0.169558 0.083345 0.063951
0.201297 0.088182 0.066896
0.237675 0.093004 0.070527
0.276829 0.097322 0.074281
0.327703 0.102449 0.079454
0.373816 0.106142 0.084031
0.422278 0.110155 0.089158
0.480568 0.117830 0.097124
0.563531 0.140520 0.112383
0.683543 0.209659 0.150729
0.013214 0.121569 0.033906
0.014984 0.122225 0.033906
0.016953 0.122789 0.033906
0.019913 0.122957 0.034104
0.024247 0.122881 0.034302
0.029770 0.122393 0.034897
0.037461 0.121569 0.035492
0.045457 0.117571 0.036271
0.051850 0.110964 0.037461
0.056336 0.101579 0.039033
0.057893 0.090776 0.040604
0.057130 0.079820 0.041566
0.052995 0.067567 0.042695
0.049317 0.058656 0.043442
0.048631 0.054932 0.044007
0.052018 0.055558 0.044907
0.063523 0.060456 0.047410
0.074784 0.065217 0.049836
0.090562 0.071717 0.053162
0.111238 0.079347 0.056977
0.138598 0.088289 0.061631
0.172229 0.097826 0.066758
0.212467 0.108080 0.072496
0.253101 0.116976 0.078004
0.297307 0.126070 0.084031
0.344900 0.135241 0.090562
0.407248 0.148470 0.099916
0.461585 0.160647 0.108904
0.515724 0.174395 0.119005
0.572198 0.192721 0.131502
0.637705 0.224506 0.151659
0.719295 0.286915 0.191806
0.014588 0.118502 0.034302
0.000000 0.181186 0.025040
0.000000 0.210864 0.019516
0.000000 0.212604 0.019318
0.000000 0.201923 0.021683
0.004730 0.192569 0.023850
0.023072 0.185489 0.025834
0.040604 0.176486 0.028000
0.055406 0.165103 0.030762
0.065507 0.150408 0.033310
0.070802 0.134279 0.036271
0.072099 0.116808 0.038834
0.070268 0.100206 0.040604
0.064240 0.082643 0.042313
0.059266 0.070390 0.043442
0.057893 0.064668 0.044373
0.067430 0.067308 0.046357
0.078248 0.071839 0.048631
0.093538 0.078370 0.051850
0.113787 0.086290 0.055879
0.140734 0.096010 0.060746
0.174624 0.107240 0.066621
0.216907 0.120745 0.073899
0.267018 0.135897 0.082536
0.324605 0.153292 0.092805
0.384787 0.171237 0.103975
0.454856 0.193896 0.118914
0.512322 0.213794 0.132784
0.565927 0.234379 0.147326
0.617700 0.258412 0.164324
0.675807 0.295720 0.190677
0.746700 0.362905 0.241764
0.000000 0.166964 0.027207
0.000000 0.246571 0.011048
0.000000 0.281697 0.001770
0.000000 0.283055 0.001770
0.000000 0.269780 0.005722
0.000000 0.257969 0.009262
0.000000 0.249195 0.012222
0.021088 0.240085 0.015183
0.050843 0.229236 0.018524
0.072236 0.214252 0.022675
0.086290 0.196719 0.027008
0.093645 0.176318 0.031144
0.095598 0.154650 0.035096
0.092485 0.132036 0.038239
0.083909 0.108263 0.041367
0.076158 0.090242 0.043259
0.076158 0.080064 0.045457
0.085283 0.082643 0.047593
0.099519 0.088182 0.050172
0.118837 0.095491 0.053971
0.145205 0.105577 0.058961
0.179370 0.117998 0.065080
0.223163 0.133837 0.073396
0.276493 0.153292 0.083909
0.340734 0.177218 0.097627
0.411933 0.205005 0.114580
0.491173 0.238849 0.137072
0.551278 0.266545 0.157198
0.602502 0.292500 0.177157
0.657938 0.328908 0.205615
0.715312 0.378286 0.246540
0.767132 0.433433 0.296910
0.000000 0.228855 0.014984
0.000000 0.320333 0.000000
0.000000 0.358160 0.000000
0.000000 0.359777 0.000000
0.000000 0.346517 0.000000
0.000000 0.335134 0.000000
0.000000 0.328313 0.000000
0.000000 0.322454 0.000000
0.035096 0.316625 0.000000
0.079820 0.306371 0.000000
0.108812 0.291295 0.004929
0.127413 0.270375 0.012024
0.137362 0.244587 0.019318
0.138598 0.214618 0.026612
0.132097 0.182269 0.033127
0.116808 0.147112 0.038834
0.096620 0.107530 0.044190
0.097932 0.100694 0.045991
0.109071 0.102541 0.048447
0.126635 0.108171 0.051682
0.152255 0.117662 0.056184
0.186603 0.131044 0.062516
0.231861 0.148867 0.071183
0.288014 0.171710 0.082994
0.355352 0.200214 0.099031
0.426749 0.232197 0.119081
0.508034 0.272740 0.147189
0.571160 0.307576 0.174228
0.634607 0.351171 0.209979
0.693950 0.402182 0.255818
0.744961 0.454261 0.307485
0.790143 0.506828 0.364202
0.000000 0.362341 0.000000
0.000000 0.447364 0.000000
0.000000 0.481239 0.000000
0.000000 0.485924 0.000000
0.000000 0.479438 0.000000
0.000000 0.474998 0.000000
0.000000 0.473091 0.000000
0.000000 0.471565 0.000000
0.000000 0.470665 0.000000
0.095796 0.467170 0.000000
0.149798 0.458610 0.000000
0.187442 0.442847 0.000000
0.213199 0.420188 0.000000
0.228473 0.389899 0.000000
0.234089 0.354116 0.000000
0.230777 0.314153 0.005722
0.201541 0.237232 0.028199
0.180041 0.196307 0.037064
0.166659 0.168734 0.042878
0.176211 0.163043 0.046891
0.202213 0.170016 0.051514
0.238407 0.183078 0.058198
0.285573 0.202121 0.067430
0.342153 0.226688 0.081010
0.407584 0.257557 0.100008
0.477394 0.294026 0.125994
0.557931 0.343145 0.165652
0.620233 0.387961 0.207736
0.673121 0.432883 0.255344
0.728191 0.489845 0.319875
0.775509 0.545251 0.388647
0.815824 0.596307 0.455268
0.000000 0.458213 0.000000
0.000000 0.533806 0.000000
0.000000 0.560967 0.000000
0.000000 0.562722 0.000000
0.000000 0.554360 0.000000
0.000000 0.547387 0.000000
0.000000 0.542351 0.000000
0.000000 0.537514 0.000000
0.000000 0.533303 0.000000
0.102922 0.529473 0.000000
0.163470 0.523659 0.000000
0.208545 0.513893 0.000000
0.243336 0.499184 0.000000
0.268803 0.478752 0.000000
0.285420 0.451774 0.000000
0.292561 0.418112 0.000000
0.282353 0.348867 0.000000
0.258518 0.295308 0.017151
0.233402 0.247547 0.030564
0.214801 0.211872 0.039612
0.223560 0.202548 0.045274
0.252232 0.209293 0.051179
0.294896 0.225193 0.059266
0.349950 0.248844 0.071443
0.415534 0.280156 0.090135
0.485710 0.317433 0.117067
0.565377 0.366827 0.158648
0.629465 0.414740 0.206760
0.691081 0.472114 0.272038
0.743023 0.528664 0.344976
0.787167 0.582574 0.419516
0.826658 0.633692 0.491630
0.000000 0.537484 0.000000
0.000000 0.597711 0.000000
0.000000 0.618128 0.000000
0.000000 0.617807 0.000000
0.000000 0.609827 0.000000
0.000000 0.603342 0.000000
0.000000 0.599664 0.000000
0.000000 0.597253 0.000000
0.041932 0.596307 0.000000
0.139528 0.596399 0.000000
0.202075 0.596109 0.000000
0.252125 0.592889 0.000000
0.293233 0.585946 0.000000
0.326329 0.573922 0.000000
0.350027 0.554971 0.000000
0.364126 0.528450 0.000000
0.367529 0.470039 0.000000
0.353292 0.420478 0.000000
0.327001 0.363073 0.000595
0.298116 0.308858 0.019715
0.275944 0.266651 0.033127
0.283711 0.253468 0.041566
0.318273 0.262013 0.049668
0.369619 0.282551 0.060899
0.432639 0.312139 0.078981
0.501259 0.348272 0.106142
0.586282 0.402869 0.153811
0.653437 0.455299 0.211872
0.710445 0.509667 0.284001
0.758419 0.563180 0.363027
0.799420 0.614710 0.442634
0.836789 0.663355 0.516701
0.000000 0.605600 0.000000
0.000000 0.652644 0.000000
0.000000 0.668269 0.000000
0.000000 0.667781 0.000000
0.000000 0.661570 0.000000
0.000000 0.657328 0.000000
0.000000 0.655955 0.000000
0.028580 0.656199 0.000000
0.136416 0.657893 0.000000
0.203571 0.659922 0.000000
0.259464 0.661463 0.000000
0.307057 0.660410 0.000000
0.347173 0.655650 0.000000
0.379599 0.646342 0.000000
0.404440 0.631937 0.000000
0.421210 0.611124 0.000000
0.432456 0.563989 0.000000
0.428473 0.525780 0.000000
0.413077 0.477256 0.000000
0.387778 0.421454 0.000000
0.361425 0.368475 0.006302
0.345480 0.329183 0.022873
0.362448 0.320531 0.034104
0.408774 0.336004 0.047059
0.470588 0.364111 0.067170
0.539712 0.400946 0.098238
0.616632 0.449607 0.150134
0.678111 0.496834 0.213474
0.730602 0.546288 0.291447
0.774868 0.595850 0.376013
0.813123 0.644266 0.459785
0.848569 0.690562 0.536309
0.000000 0.682643 0.000000
0.000000 0.708370 0.000000
0.000000 0.718410 0.000000
0.000000 0.719860 0.000000
0.000000 0.718730 0.000000
0.087633 0.719371 0.000000
0.160220 0.721294 0.000000
0.215290 0.723751 0.000000
0.265522 0.726314 0.000000
0.313283 0.728756 0.000000
0.358587 0.730663 0.000000
0.400275 0.731334 0.000000
0.436896 0.729519 0.000000
0.468956 0.725399 0.000000
0.496620 0.718532 0.000000
0.519936 0.708812 0.000000
0.547616 0.685222 0.000000
0.557183 0.664424 0.000000
0.560922 0.638483 0.000000
0.554513 0.602625 0.000000
0.539651 0.559243 0.000000
0.520333 0.512398 0.000000
0.503395 0.469184 0.002167
0.509514 0.447364 0.026017
0.543481 0.451331 0.055406
0.590433 0.469383 0.091844
0.648966 0.500984 0.145617
0.704173 0.540719 0.213291
0.751949 0.583856 0.296193
0.792752 0.628473 0.385397
0.828534 0.673167 0.472862
0.862242 0.716777 0.551553
0.000000 0.736812 0.000000
0.128511 0.756527 0.000000
0.181567 0.763622 0.000000
0.199145 0.763394 0.000000
0.210544 0.760693 0.000000
0.231281 0.759167 0.000000
0.263447 0.758740 0.000000
0.295338 0.758709 0.000000
0.329305 0.759030 0.000000
0.365179 0.759716 0.000000
0.402716 0.760800 0.000000
0.441077 0.762203 0.000000
0.476905 0.762448 0.003159
0.509483 0.761273 0.018921
0.538018 0.757931 0.027604
0.562722 0.752407 0.028382
0.592798 0.736721 0.011231
0.604944 0.722240 0.000000
0.611994 0.703059 0.000000
0.614282 0.679179 0.000000
0.608454 0.646922 0.000000
0.596170 0.608179 0.000000
0.582498 0.568276 0.000000
0.574762 0.534142 0.002762
0.590402 0.521355 0.035874
0.629679 0.531411 0.081361
0.684398 0.557610 0.144030
0.732174 0.588144 0.214969
0.774975 0.623774 0.301183
0.812360 0.662577 0.393393
0.845899 0.703014 0.483482
0.877943 0.743679 0.564340
0.257923 0.788205 0.031540
0.278248 0.791043 0.052018
0.305684 0.795712 0.078248
0.311223 0.794278 0.072877
0.313313 0.791165 0.058198
0.327672 0.790158 0.055085
0.353948 0.790906 0.064240
0.380041 0.791745 0.073396
0.408164 0.792615 0.084138
0.437827 0.793515 0.095705
0.468757 0.794553 0.107240
0.502983 0.796384 0.124804
0.536812 0.798093 0.141588
0.567483 0.798489 0.154192
0.593362 0.796750 0.159655
0.614969 0.792798 0.158785
0.640879 0.780926 0.142077
0.651667 0.769741 0.122545
0.660746 0.756542 0.099626
0.669001 0.741695 0.074784
0.674876 0.724056 0.043442
0.675227 0.700236 0.028779
0.672541 0.672923 0.026017
0.669688 0.645075 0.035492
0.670604 0.620722 0.057130
0.685252 0.609247 0.092485
0.723003 0.618845 0.152377
0.762539 0.639567 0.223865
0.800076 0.667079 0.310216
0.834104 0.699474 0.403296
0.865476 0.735134 0.494392
0.895872 0.772351 0.576196
0.431205 0.832792 0.220157
0.436439 0.832959 0.221515
0.442084 0.833143 0.222553
0.450385 0.833310 0.224857
0.460807 0.833616 0.227237
0.473793 0.833951 0.230701
0.491218 0.834440 0.235370
0.508873 0.834913 0.240482
0.528572 0.835431 0.246616
0.549798 0.835966 0.253468
0.572473 0.836591 0.261280
0.596292 0.837217 0.270207
0.620462 0.837736 0.279332
0.643214 0.837522 0.286488
0.663844 0.836316 0.290623
0.682033 0.833814 0.290425
0.706569 0.826825 0.281193
0.718456 0.820371 0.269078
0.728145 0.812100 0.252049
0.735836 0.801877 0.230655
0.741802 0.789563 0.204288
0.746639 0.775418 0.175189
0.747250 0.755871 0.156954
0.746746 0.734340 0.144732
0.747173 0.712856 0.141100
0.750942 0.694255 0.150011
0.767559 0.685649 0.186023
0.795880 0.694636 0.247623
0.827771 0.714046 0.328893
0.858366 0.739910 0.419028
0.887541 0.770535 0.508324
0.916365 0.803891 0.589349
0.560830 0.870542 0.359182
0.572457 0.873060 0.370336
0.582788 0.875090 0.379187
0.583459 0.873777 0.375097
0.583398 0.871717 0.368368
0.590158 0.871244 0.368032
0.602472 0.871504 0.371878
0.615198 0.871824 0.376181
0.632639 0.873304 0.385565
0.651835 0.875029 0.396017
0.671427 0.876585 0.406775
0.691386 0.878080 0.417563
0.711162 0.879362 0.427985
0.730449 0.880354 0.437705
0.748180 0.880613 0.444862
0.764355 0.880156 0.449638
0.786191 0.876921 0.448127
0.796719 0.873106 0.441001
0.804746 0.867552 0.427787
0.810529 0.860136 0.407889
0.814404 0.850813 0.381888
0.816297 0.839261 0.349020
0.817212 0.825864 0.311635
0.813947 0.807309 0.282948
0.811749 0.788296 0.261692
0.814176 0.772320 0.255482
0.820676 0.757885 0.264805
0.834791 0.754360 0.299046
0.858701 0.764553 0.362951
0.885573 0.784146 0.444236
0.912444 0.809583 0.527886
0.939864 0.838758 0.605737
0.659007 0.904128 0.476219
0.661570 0.904189 0.476890
0.664347 0.904250 0.477897
0.668452 0.904356 0.479088
0.673808 0.904448 0.480934
0.680446 0.904601 0.483085
0.689540 0.904799 0.486213
0.698833 0.905028 0.489448
0.709484 0.905287 0.492973
0.721157 0.905562 0.497261
0.733761 0.905882 0.501961
0.747234 0.906233 0.507286
0.761379 0.906661 0.513146
0.775769 0.907027 0.519265
0.789593 0.906996 0.524056
0.802106 0.906218 0.526314
0.819944 0.903334 0.524529
0.829236 0.900374 0.519326
0.837293 0.896422 0.510582
0.844190 0.891463 0.498253
0.850095 0.885435 0.481758
0.855314 0.878477 0.461646
0.860151 0.870619 0.437568
0.865049 0.862104 0.411185
0.866911 0.850141 0.393851
0.869459 0.838193 0.380896
0.874327 0.826291 0.377295
0.881651 0.819028 0.388418
0.894697 0.819181 0.422278
0.916075 0.831662 0.483619
0.940597 0.852049 0.555947
0.966583 0.877287 0.627420
0.741436 0.938064 0.580774
0.743221 0.938094 0.581415
0.745373 0.938140 0.582010
0.748257 0.938216 0.583124
0.752163 0.938293 0.584466
0.757076 0.938415 0.586023
0.763714 0.938552 0.588327
0.770657 0.938735 0.590829
0.778500 0.938933 0.593668
0.787106 0.939162 0.597009
0.796521 0.939437 0.600595
0.806577 0.939742 0.604547
0.817136 0.940078 0.609033
0.828153 0.940475 0.613840
0.839200 0.940734 0.618418
0.849546 0.940551 0.621408
0.864897 0.939116 0.622263
0.873228 0.937377 0.619883
0.880858 0.934966 0.615015
0.887755 0.931868 0.607691
0.894087 0.928084 0.597314
0.899931 0.923629 0.584192
0.905608 0.918685 0.568200
0.911391 0.913375 0.549462
0.917769 0.908095 0.529061
0.921706 0.900404 0.516564
0.927199 0.892515 0.507774
0.933867 0.887449 0.508522
0.942946 0.885557 0.520882
0.955444 0.888808 0.549096
0.976272 0.903609 0.600320
1.000000 0.924834 0.660014
0.796078 0.964767 0.655787
0.797498 0.964797 0.656352
0.799115 0.964828 0.656855
0.801373 0.964889 0.657664
0.804364 0.964965 0.658778
0.808148 0.965057 0.660182
0.813245 0.965179 0.662104
0.818616 0.965331 0.664012
0.824735 0.965484 0.666346
0.831449 0.965682 0.669032
0.838804 0.965911 0.671916
0.846738 0.966171 0.675212
0.855116 0.966476 0.678828
0.863874 0.966812 0.682734
0.872892 0.967147 0.686717
0.881758 0.967285 0.690089
0.895293 0.966766 0.692454
0.902983 0.965896 0.691615
0.910307 0.964584 0.688975
0.917250 0.962875 0.684504
0.923888 0.960708 0.677821
0.930388 0.958175 0.668910
0.936919 0.955367 0.658045
