FILES/Studio_2-5d0ec884.cube
TITLE "STUDIOTEST"
LUT_3D_SIZE 8
DOMAIN_MIN 0.000000 0.000000 0.000000
DOMAIN_MAX 0.903226 0.903226 0.903226
0.029572 0.036866 0.049149
0.029374 0.036866 0.049149
0.026810 0.035874 0.047929
0.026017 0.034104 0.046525
0.028977 0.032731 0.044373
0.037659 0.033127 0.043442
0.053315 0.034501 0.042878
0.108721 0.035874 0.043626
0.029770 0.034897 0.048798
0.028382 0.034501 0.048631
0.026612 0.033906 0.046525
0.026413 0.032929 0.045090
0.032929 0.033127 0.043626
0.044724 0.034699 0.043259
0.065217 0.036866 0.043626
0.137591 0.037263 0.045457
0.027802 0.032731 0.045991
0.027802 0.033310 0.045624
0.027802 0.033310 0.045090
0.030564 0.034501 0.043824
0.048798 0.041749 0.045991
0.078614 0.047410 0.048631
0.125689 0.050675 0.050675
0.261250 0.045457 0.057740
0.013214 0.121569 0.033906
0.024247 0.122881 0.034302
0.051850 0.110964 0.037461
0.052995 0.067567 0.042695
0.063523 0.060456 0.047410
0.138598 0.088289 0.061631
0.297307 0.126070 0.084031
0.515724 0.174395 0.119005
0.000000 0.362341 0.000000
0.000000 0.479438 0.000000
0.000000 0.470665 0.000000
0.213199 0.420188 0.000000
0.201541 0.237232 0.028199
0.202213 0.170016 0.051514
0.407584 0.257557 0.100008
0.673121 0.432883 0.255344
0.000000 0.682643 0.000000
0.000000 0.718730 0.000000
0.265522 0.726314 0.000000
0.436896 0.729519 0.000000
0.547616 0.685222 0.000000
0.539651 0.559243 0.000000
0.543481 0.451331 0.055406
0.751949 0.583856 0.296193
0.560830 0.870542 0.359182
0.583398 0.871717 0.368368
0.632639 0.873304 0.385565
0.711162 0.879362 0.427985
0.786191 0.876921 0.448127
0.814404 0.850813 0.381888
0.811749 0.788296 0.261692
0.858701 0.764553 0.362951
0.838422 0.988205 0.720745
0.853635 0.993210 0.738689
0.863951 0.990631 0.735393
0.885115 0.989609 0.740001
0.918944 0.990692 0.753445
0.947417 0.989899 0.748119
0.976623 0.986206 0.712978
1.000000 0.992142 0.690929
0.029572 0.036667 0.048447
0.029374 0.036469 0.048112
0.026612 0.035874 0.047593
0.025834 0.034104 0.046174
0.028199 0.032731 0.044541
0.033509 0.032532 0.043824
0.043626 0.033127 0.043259
0.076905 0.034699 0.042878
0.029770 0.035294 0.047410
0.028199 0.034699 0.046708
0.026810 0.033707 0.045991
0.026612 0.032731 0.044724
0.030945 0.032532 0.043824
0.038437 0.033127 0.043442
0.052186 0.034699 0.043259
0.099718 0.036469 0.044007
0.026810 0.033509 0.044373
0.027008 0.033707 0.044190
0.027802 0.033509 0.044190
0.030564 0.034501 0.044190
0.044907 0.039231 0.046174
0.064240 0.042130 0.047242
0.096208 0.044724 0.048112
0.204517 0.042878 0.052995
0.003555 0.118837 0.037659
0.015183 0.116381 0.037659
0.044541 0.104265 0.040406
0.050004 0.063951 0.044190
0.063081 0.059724 0.049836
0.131960 0.084138 0.063951
0.265339 0.110796 0.080659
0.479622 0.146975 0.109163
0.000000 0.379095 0.000000
0.000000 0.499382 0.000000
0.000000 0.483238 0.000000
0.212192 0.433570 0.000000
0.203754 0.239414 0.032731
0.200702 0.167193 0.056336
0.406195 0.255818 0.109346
0.677287 0.438102 0.270863
0.000000 0.699458 0.000000
0.140169 0.741573 0.000000
0.304463 0.742901 0.000000
0.460533 0.742229 0.034699
0.561624 0.695445 0.000000
0.540017 0.558648 0.000000
0.545220 0.450752 0.071580
0.754559 0.588968 0.318700
0.568902 0.872938 0.395575
0.621637 0.884077 0.440528
0.665843 0.885359 0.454826
0.731273 0.888502 0.482017
0.797986 0.883909 0.491920
0.817609 0.853101 0.411521
0.812329 0.788632 0.282780
0.859373 0.765576 0.380514
0.840314 0.991196 0.734783
0.859953 0.998596 0.760235
0.868971 0.995453 0.754955
0.888350 0.993484 0.756313
0.921706 0.994385 0.769055
0.947845 0.991562 0.757946
0.976303 0.986938 0.720516
1.000000 0.992889 0.696956
0.029572 0.035691 0.045274
0.028779 0.035294 0.044724
0.027008 0.035294 0.044373
0.026413 0.033310 0.044724
0.033127 0.031342 0.044541
0.034699 0.031540 0.044007
0.038834 0.031739 0.043626
0.057893 0.032334 0.043061
0.028580 0.034302 0.044907
0.027802 0.033906 0.044541
0.026810 0.033310 0.044190
0.028580 0.031739 0.044541
0.032731 0.031739 0.044190
0.034897 0.031937 0.043824
0.041932 0.032334 0.043442
0.068803 0.033310 0.043259
0.026810 0.032136 0.044373
0.026810 0.032334 0.044541
0.027802 0.033310 0.045624
0.031144 0.033707 0.045457
0.038056 0.034501 0.045457
0.047242 0.035294 0.045457
0.064942 0.036866 0.045457
0.128893 0.037263 0.047242
0.011429 0.080415 0.059113
0.012818 0.084489 0.056336
0.028779 0.084596 0.050843
0.047593 0.061631 0.050004
0.068940 0.063661 0.060014
0.130663 0.079820 0.070665
0.217365 0.085389 0.075410
0.396338 0.089708 0.089052
0.000000 0.345190 0.019120
0.000000 0.451865 0.003738
0.000000 0.433951 0.000198
0.171588 0.417334 0.011627
0.198047 0.232151 0.050843
0.211780 0.171008 0.072877
0.432273 0.273014 0.145693
0.688807 0.449943 0.307683
0.000000 0.689357 0.048280
0.065217 0.730159 0.143206
0.262333 0.728359 0.139239
0.441596 0.732280 0.162249
0.562661 0.695308 0.132326
0.535790 0.552163 0.046525
0.557321 0.456306 0.115953
0.760998 0.603433 0.378073
0.558434 0.870451 0.450019
0.615351 0.883497 0.494575
0.657053 0.883757 0.502556
0.724971 0.887617 0.527214
0.797925 0.885466 0.542489
0.817212 0.853529 0.465995
0.813687 0.789654 0.336355
0.860975 0.768505 0.425681
0.828824 0.990723 0.745068
0.847837 0.997086 0.766476
0.858396 0.994247 0.762280
0.881758 0.993683 0.767941
0.919051 0.995865 0.785046
0.945708 0.992615 0.774914
0.975372 0.988876 0.740200
1.000000 0.993545 0.710796
0.028382 0.034302 0.044007
0.028000 0.033906 0.044190
0.027405 0.032929 0.045274
0.029374 0.031739 0.048447
0.043824 0.029770 0.054292
0.075669 0.027604 0.055406
0.077150 0.028000 0.049500
0.077638 0.028000 0.045624
0.027802 0.033310 0.044190
0.027207 0.032731 0.044541
0.027008 0.031739 0.047761
0.030762 0.031342 0.051850
0.049317 0.030167 0.056031
0.075410 0.029175 0.054780
0.070390 0.029374 0.048280
0.073014 0.029175 0.044907
0.026215 0.032532 0.045624
0.026215 0.032334 0.046357
0.027008 0.033127 0.050675
0.034501 0.035691 0.059861
0.062074 0.036469 0.060456
0.060456 0.033707 0.051179
0.055879 0.032136 0.045991
0.073136 0.031540 0.044373
0.024247 0.041566 0.054932
0.024842 0.042695 0.056184
0.028000 0.046891 0.060304
0.042878 0.058961 0.072099
0.058656 0.052018 0.063371
0.072099 0.048112 0.057893
0.101671 0.046357 0.055711
0.199145 0.038437 0.057435
0.000000 0.220508 0.118166
0.000000 0.304829 0.148196
0.000000 0.326970 0.133013
0.063661 0.354330 0.114397
0.191089 0.220859 0.093324
0.243534 0.191089 0.122148
0.478065 0.306371 0.216510
0.678386 0.412970 0.308171
0.000000 0.652049 0.227619
0.000000 0.696468 0.286061
0.182269 0.699428 0.284108
0.399329 0.709560 0.296162
0.560998 0.690913 0.279866
0.531548 0.543069 0.147997
0.581933 0.473228 0.203845
0.771756 0.630304 0.473243
0.528832 0.864622 0.525109
0.587060 0.878538 0.562570
0.634775 0.880461 0.570779
0.708766 0.886000 0.591501
0.790234 0.885618 0.606104
0.816663 0.855665 0.546838
0.815167 0.791669 0.420569
0.863737 0.774395 0.498772
0.807340 0.990875 0.764736
0.823209 0.994598 0.777218
0.839582 0.993500 0.778424
0.870863 0.995361 0.790707
0.911452 0.996796 0.805219
0.942107 0.994629 0.802655
0.973831 0.992325 0.772656
1.000000 0.993744 0.732860
0.026612 0.032136 0.049668
0.026413 0.031540 0.052674
0.026215 0.030167 0.063371
0.030365 0.028580 0.088945
0.055253 0.027802 0.102052
0.111681 0.021683 0.111421
0.309117 0.000000 0.139239
0.510811 0.000000 0.146166
0.025834 0.031739 0.050843
0.025437 0.031342 0.053971
0.025437 0.030365 0.065507
0.029175 0.029969 0.095293
0.060166 0.029374 0.111589
0.128344 0.021088 0.119677
0.337209 0.000000 0.146029
0.500114 0.000000 0.140948
0.025437 0.032136 0.049668
0.025040 0.032136 0.052018
0.024643 0.032334 0.063233
0.028199 0.036271 0.100206
0.073396 0.038239 0.131044
0.166659 0.024643 0.134951
0.383001 0.000000 0.157900
0.427085 0.000000 0.115175
0.023850 0.034699 0.053315
0.024048 0.034897 0.054444
0.024643 0.036072 0.058350
0.029374 0.046891 0.088075
0.105943 0.074922 0.161700
0.230777 0.064805 0.156954
0.315084 0.020706 0.129976
0.235691 0.001190 0.069459
0.016159 0.065354 0.081239
0.011429 0.078737 0.095491
0.014191 0.089265 0.105577
0.032136 0.118166 0.132174
0.173541 0.200412 0.203220
0.198596 0.143206 0.148058
0.249424 0.106050 0.115267
0.410254 0.068528 0.106966
0.000000 0.481193 0.333455
0.000000 0.549630 0.395621
0.102342 0.576104 0.414969
0.296620 0.619562 0.441306
0.489693 0.650004 0.428992
0.529854 0.533379 0.309178
0.628534 0.531716 0.405493
0.793820 0.668849 0.590249
0.504112 0.829206 0.634226
0.563104 0.851545 0.669291
0.594797 0.860716 0.670604
0.652964 0.874693 0.671855
0.749523 0.875578 0.673487
0.819394 0.866255 0.666255
0.816114 0.795743 0.544442
0.869734 0.788022 0.615015
0.762387 0.990326 0.804440
0.778698 0.994690 0.812024
0.805310 0.995773 0.817823
0.844556 0.997177 0.827665
0.892454 0.996765 0.836179
0.936385 0.998825 0.850095
0.970855 0.998199 0.828672
1.000000 0.994217 0.772839
0.022080 0.030167 0.071839
0.021286 0.029374 0.078370
0.017548 0.028000 0.101183
0.006302 0.025635 0.156832
0.043061 0.015381 0.258045
0.188022 0.000000 0.290684
0.415961 0.000000 0.336294
0.705684 0.000000 0.374243
0.021881 0.030365 0.070527
0.020706 0.029969 0.077028
0.016953 0.028977 0.099916
0.003937 0.027405 0.158724
0.045457 0.017548 0.271977
0.206561 0.000000 0.309621
0.445869 0.000000 0.353368
0.717571 0.000000 0.381140
0.022675 0.031342 0.062516
0.021683 0.031144 0.067704
0.018524 0.031342 0.087404
0.006302 0.032929 0.147723
0.056977 0.032532 0.288823
0.245960 0.000000 0.341970
0.502220 0.000000 0.382086
0.743832 0.000000 0.401266
0.023453 0.032731 0.054612
0.023072 0.032929 0.056504
0.022080 0.033509 0.065919
0.015976 0.039811 0.112306
0.083452 0.077394 0.294026
0.315358 0.094469 0.387015
0.575662 0.061631 0.418219
0.773236 0.195819 0.441672
0.019318 0.042313 0.067033
0.018143 0.044373 0.071977
0.018921 0.045457 0.075914
0.020310 0.049500 0.086519
0.061631 0.109621 0.205570
0.421851 0.302892 0.444968
0.639017 0.348638 0.458030
0.715969 0.224155 0.351934
0.000000 0.137438 0.156512
0.000000 0.165286 0.183566
0.000000 0.181018 0.197314
0.000000 0.220066 0.231235
0.170260 0.328496 0.324575
0.524575 0.526909 0.506355
0.546136 0.407202 0.383276
0.687388 0.348531 0.319753
0.364370 0.723568 0.619577
0.450263 0.751888 0.658076
0.502739 0.763500 0.672160
0.580407 0.786862 0.698299
0.683940 0.830869 0.735241
0.793912 0.863706 0.754849
0.814908 0.800275 0.667964
0.883162 0.815885 0.743511
0.754681 0.968048 0.861952
0.769970 0.974472 0.869429
0.783719 0.978210 0.869459
0.809262 0.985458 0.870039
0.863050 0.997314 0.875975
0.923674 1.000000 0.892180
0.968124 1.000000 0.893858
1.000000 0.995041 0.825895
0.000000 0.025437 0.164141
0.000000 0.024643 0.177722
0.000000 0.022278 0.219181
0.000000 0.015183 0.311727
0.000000 0.000000 0.490425
0.307546 0.000000 0.608820
0.527932 0.000000 0.627619
0.763714 0.000000 0.655131
0.000000 0.026612 0.157839
0.000000 0.025834 0.171237
0.000000 0.023850 0.212787
0.000000 0.017746 0.308141
0.000000 0.000000 0.495033
0.326360 0.000000 0.617807
0.544091 0.000000 0.636637
0.772793 0.000000 0.661479
0.000000 0.029175 0.128115
0.000000 0.028977 0.140032
0.000000 0.028000 0.178988
0.000000 0.024842 0.276692
0.000000 0.010254 0.487449
0.362860 0.044190 0.628611
0.577234 0.002762 0.652430
0.792813 0.145953 0.676982
0.013993 0.032136 0.085054
0.011826 0.032136 0.092058
0.002564 0.032136 0.119005
0.000000 0.033707 0.203326
0.000000 0.055085 0.450660
0.413733 0.201770 0.637385
0.627314 0.261280 0.675761
0.817395 0.356817 0.700252
0.018341 0.035874 0.066194
0.016556 0.036271 0.071183
0.016953 0.035691 0.072877
0.012421 0.036667 0.092897
0.000000 0.068803 0.293004
0.444648 0.348424 0.625345
0.693233 0.501564 0.713573
0.848402 0.561868 0.735500
0.000000 0.062074 0.110338
0.000000 0.063081 0.113970
0.000000 0.063371 0.117662
0.000000 0.065644 0.129900
0.000000 0.073518 0.167666
0.290974 0.320470 0.500374
0.752850 0.671550 0.756664
0.881682 0.704646 0.771832
0.000000 0.396460 0.408820
0.000000 0.404593 0.415732
0.000000 0.427115 0.434913
0.000000 0.469047 0.470603
0.166781 0.550958 0.542321
0.536751 0.653941 0.643214
0.808606 0.801038 0.798856
0.866514 0.737011 0.718578
0.677546 0.916335 0.862715
0.688884 0.919707 0.866438
0.717632 0.928573 0.876066
0.763027 0.943664 0.891798
0.832059 0.968612 0.915846
0.897642 0.992615 0.935637
0.961349 1.000000 0.949355
1.000000 0.996765 0.903075
0.000000 0.000000 0.633997
0.000000 0.000000 0.642985
0.000000 0.000000 0.666362
0.000000 0.000000 0.703761
0.192935 0.031144 0.758236
0.509621 0.205661 0.812543
0.703441 0.349355 0.849500
0.832670 0.401404 0.863737
0.000000 0.000000 0.637705
0.000000 0.000000 0.646494
0.000000 0.000000 0.669612
0.000000 0.000000 0.706569
0.202548 0.062943 0.760464
0.516518 0.230777 0.813504
0.710109 0.377600 0.851499
0.836683 0.428367 0.865965
0.000000 0.000595 0.622660
0.000000 0.000198 0.632517
0.000000 0.000595 0.658061
0.000000 0.012222 0.698787
0.196460 0.107057 0.757946
0.531914 0.288594 0.815808
0.725841 0.442023 0.856718
0.846662 0.490227 0.872114
0.000000 0.015579 0.581292
0.000000 0.015579 0.593256
0.000000 0.017945 0.625040
0.000000 0.038834 0.675242
0.152972 0.152056 0.750988
0.547601 0.363561 0.818463
0.748028 0.526970 0.865873
0.862470 0.572732 0.883268
0.000000 0.056657 0.540169
0.000000 0.054612 0.549035
0.000000 0.051347 0.575204
0.000000 0.062074 0.631067
0.000000 0.176257 0.730816
0.538628 0.436805 0.817365
0.776486 0.630488 0.881376
0.888334 0.680797 0.904524
0.000000 0.197314 0.625345
0.000000 0.193545 0.628061
0.000000 0.183032 0.635248
0.000000 0.165164 0.648234
0.000000 0.183459 0.699580
0.428244 0.441138 0.802762
0.793744 0.709224 0.896193
0.918502 0.782803 0.931579
0.000000 0.553780 0.759014
0.000000 0.554040 0.761044
0.000000 0.554604 0.766491
0.000000 0.555688 0.776150
0.000000 0.558236 0.794659
0.118074 0.549599 0.808804
0.740154 0.731746 0.890257
0.954879 0.891752 0.963653
0.402823 0.885420 0.887816
0.416358 0.886381 0.888838
0.450904 0.889082 0.891752
0.507607 0.894194 0.897261
0.603433 0.905135 0.909072
0.717830 0.922591 0.927565
0.872297 0.956832 0.961532
1.000000 1.000000 1.000000
