luts/Blue_City_Walk-c7abfd42.cube
LUT_3D_SIZE 6
0.019709 0.022666 0.042359
0.067347 0.037741 0.042725
0.194951 0.097888 0.081330
0.286692 0.136016 0.109951
0.417704 0.199037 0.157346
0.507360 0.235825 0.185898
0.005434 0.083472 0.119313
0.066960 0.077230 0.061432
0.223760 0.120422 0.094260
0.315936 0.155558 0.122149
0.415780 0.198121 0.156622
0.545155 0.267605 0.208070
0.313759 0.398748 0.401054
0.331099 0.388337 0.377545
0.395526 0.313745 0.191708
0.377442 0.208899 0.150063
0.482641 0.256353 0.184453
0.642635 0.364513 0.256133
0.575059 0.604950 0.586887
0.594516 0.613926 0.589407
0.582028 0.579128 0.510192
0.616529 0.527601 0.338629
0.586854 0.379050 0.237215
0.746192 0.505829 0.324215
0.753077 0.755419 0.740810
0.761282 0.759043 0.744647
0.761187 0.747746 0.726974
0.756705 0.712361 0.615738
0.774375 0.692345 0.507832
0.870130 0.762574 0.571553
0.934842 0.899628 0.884941
0.937067 0.902431 0.884774
0.934902 0.899578 0.885015
0.937158 0.898485 0.876826
0.934584 0.877551 0.827586
0.900801 0.833982 0.718295
0.026705 0.047169 0.106964
0.048054 0.023348 0.107958
0.204710 0.104657 0.086902
0.339020 0.168025 0.133081
0.444516 0.216508 0.170631
0.563829 0.282640 0.220376
0.005915 0.078977 0.118668
0.056755 0.078200 0.111904
0.260550 0.147815 0.121418
0.395456 0.210547 0.160768
0.499529 0.261194 0.196149
0.594558 0.312484 0.237598
0.173426 0.318244 0.329150
0.350462 0.417884 0.406631
0.377111 0.311077 0.208750
0.416620 0.250445 0.182106
0.535141 0.308716 0.221495
0.676382 0.404899 0.285482
0.524612 0.582372 0.570937
0.603081 0.619089 0.595131
0.590042 0.601980 0.549325
0.613105 0.534272 0.365555
0.609525 0.421810 0.262764
0.771366 0.550960 0.355680
0.740055 0.742713 0.735361
0.771172 0.760967 0.747701
0.769752 0.755043 0.737484
0.766566 0.723472 0.647282
0.772944 0.700615 0.534169
0.869516 0.768488 0.588025
0.932499 0.897926 0.879982
0.936486 0.901118 0.886234
0.940134 0.903895 0.888809
0.939034 0.899443 0.881290
0.937719 0.883211 0.839700
0.904459 0.835045 0.729824
0.062029 0.126599 0.244343
0.057328 0.083295 0.216645
0.238414 0.028519 0.241784
0.276625 0.116737 0.123978
0.515067 0.264603 0.203114
0.631220 0.340291 0.253366
0.018182 0.153960 0.272346
0.059313 0.151717 0.267294
0.279126 0.097249 0.274155
0.336172 0.147880 0.161713
0.383373 0.170168 0.144882
0.558055 0.272144 0.213067
0.004243 0.225885 0.267701
0.004084 0.250918 0.291590
0.336017 0.343135 0.338115
0.495323 0.370334 0.324690
0.614619 0.430792 0.349899
0.742613 0.504106 0.396348
0.173097 0.371368 0.175223
0.434573 0.538918 0.507800
0.584653 0.601896 0.573613
0.567033 0.519632 0.424081
0.632164 0.491266 0.364030
0.786519 0.608881 0.451383
0.608535 0.698588 0.608817
0.717819 0.735563 0.721834
0.782281 0.771194 0.756874
0.778635 0.755368 0.714879
0.774467 0.718527 0.606433
0.865248 0.782221 0.628514
0.902202 0.890027 0.853448
0.925833 0.893788 0.872007
0.938837 0.903624 0.888920
0.938420 0.901569 0.886395
0.938226 0.893178 0.863383
0.910398 0.850209 0.761078
0.027636 0.214033 0.400529
0.076535 0.190648 0.375992
0.106319 0.000000 0.289052
0.429416 0.035041 0.378145
0.502632 0.161432 0.309585
0.608136 0.213260 0.369070
0.027648 0.228537 0.409743
0.027591 0.243284 0.421095
0.167992 0.081174 0.358648
0.467112 0.127619 0.403227
0.531738 0.178187 0.346677
0.622975 0.191853 0.406527
0.023401 0.283824 0.439419
0.015848 0.333647 0.449182
0.301559 0.406967 0.468838
0.520602 0.375265 0.489552
0.610178 0.403523 0.438499
0.699941 0.426291 0.477023
0.002326 0.371722 0.404906
0.002847 0.389251 0.427064
0.446837 0.546013 0.545948
0.570540 0.552554 0.537806
0.670890 0.559750 0.504889
0.787473 0.622193 0.536265
0.233493 0.537121 0.309514
0.298938 0.568848 0.393088
0.689123 0.729106 0.698666
0.792570 0.776457 0.762618
0.769813 0.726015 0.649695
0.853136 0.769541 0.641043
0.753110 0.837408 0.702488
0.833155 0.876077 0.778011
0.913006 0.891000 0.861907
0.940092 0.903796 0.889453
0.941244 0.902842 0.881279
0.923332 0.868743 0.799527
0.035699 0.352093 0.581397
0.037260 0.335731 0.576191
0.089936 0.180165 0.475126
0.364842 0.033868 0.482796
0.569330 0.040408 0.488734
0.673337 0.050580 0.574704
0.034788 0.359061 0.581998
0.032529 0.386591 0.595521
0.120954 0.235893 0.517091
0.432415 0.137997 0.504000
0.593896 0.156502 0.509991
0.687614 0.177767 0.590087
0.027529 0.414024 0.603137
0.021407 0.458994 0.612277
0.353922 0.508782 0.625132
0.546381 0.389034 0.600983
0.679283 0.418653 0.610176
0.775448 0.456308 0.673470
0.021331 0.442023 0.601960
0.015528 0.486320 0.612859
0.457813 0.610957 0.653377
0.574487 0.599763 0.670194
0.713743 0.570101 0.677539
0.826145 0.610069 0.730411
0.001702 0.517100 0.547639
0.001929 0.530555 0.563225
0.423846 0.629806 0.647386
0.638565 0.702784 0.700063
0.726415 0.715801 0.711522
0.832532 0.738030 0.707471
0.350664 0.703907 0.648908
0.518483 0.742636 0.702815
0.711010 0.811005 0.759826
0.832838 0.876087 0.802550
0.939655 0.904238 0.890962
0.938358 0.885694 0.845028
0.038123 0.488044 0.732834
0.042259 0.459008 0.725928
0.045664 0.303989 0.648592
0.447496 0.040554 0.616612
0.638667 0.047490 0.597163
0.690571 0.053948 0.605430
0.036830 0.497299 0.735340
0.163008 0.520780 0.726558
0.138247 0.361824 0.676064
0.480009 0.159378 0.620562
0.647930 0.175874 0.607389
0.696759 0.183209 0.615514
0.026580 0.551615 0.741830
0.216563 0.592236 0.736870
0.446932 0.623567 0.737744
0.549497 0.407305 0.693426
0.750652 0.457746 0.711490
0.783851 0.462167 0.707712
0.020630 0.578807 0.741583
0.109445 0.615211 0.746906
0.552945 0.703496 0.776796
0.619067 0.693893 0.781266
0.775961 0.603932 0.765458
0.838390 0.623050 0.768938
0.007883 0.631581 0.718678
0.007000 0.645742 0.724775
0.469429 0.714522 0.779763
0.659139 0.765598 0.813560
0.760179 0.772240 0.826684
0.873650 0.722991 0.834876
0.000230 0.692363 0.702553
0.000230 0.694763 0.704777
0.454548 0.742390 0.769899
0.647567 0.789468 0.803565
0.781511 0.845684 0.840772
0.905949 0.883729 0.875881
