luts/Blue_City_Walk-c7abfd42.cube
LUT_3D_SIZE 16
0.019709 0.022666 0.042359
0.019709 0.022666 0.042359
0.023762 0.022859 0.041132
0.067347 0.037741 0.042725
0.108137 0.059857 0.055765
0.151448 0.079304 0.068557
0.194951 0.097888 0.081330
0.231290 0.112499 0.093090
0.260369 0.124686 0.101945
0.286692 0.136016 0.109951
0.324335 0.153356 0.123706
0.372481 0.178448 0.140918
0.417704 0.199037 0.157346
0.460912 0.219371 0.173213
0.489005 0.230000 0.180892
0.507360 0.235825 0.185898
0.019709 0.022666 0.042359
0.019709 0.022666 0.042359
0.023762 0.022859 0.041132
0.067347 0.037741 0.042725
0.108137 0.059857 0.055765
0.151448 0.079304 0.068557
0.194951 0.097888 0.081330
0.231290 0.112499 0.093090
0.260369 0.124686 0.101945
0.286692 0.136016 0.109951
0.324335 0.153356 0.123706
0.372481 0.178448 0.140918
0.417704 0.199037 0.157346
0.460912 0.219371 0.173213
0.489005 0.230000 0.180892
0.507360 0.235825 0.185898
0.020441 0.029418 0.054624
0.020441 0.029418 0.054624
0.023786 0.026813 0.044827
0.072287 0.046099 0.045075
0.110743 0.063018 0.056864
0.153515 0.080626 0.069535
0.193718 0.097559 0.081075
0.230260 0.112181 0.092618
0.260369 0.124686 0.101945
0.286692 0.136016 0.109951
0.324335 0.153356 0.123706
0.372481 0.178448 0.140918
0.417704 0.199037 0.157346
0.460912 0.219371 0.173213
0.489005 0.230000 0.180892
0.507360 0.235825 0.185898
0.005434 0.083472 0.119313
0.005434 0.083472 0.119313
0.021342 0.082359 0.110643
0.066960 0.077230 0.061432
0.131941 0.085122 0.066557
0.180678 0.103786 0.078761
0.223760 0.120422 0.094260
0.262605 0.135474 0.105409
0.290808 0.146012 0.114287
0.315936 0.155558 0.122149
0.340659 0.164515 0.130511
0.378417 0.182057 0.145128
0.415780 0.198121 0.156622
0.453405 0.214231 0.169967
0.507004 0.242077 0.189805
0.545155 0.267605 0.208070
0.093304 0.180607 0.207193
0.093304 0.180607 0.207193
0.100206 0.180474 0.207284
0.115135 0.149871 0.135344
0.159428 0.141400 0.097328
0.201194 0.123356 0.090416
0.237253 0.134850 0.098952
0.277873 0.150151 0.110604
0.312928 0.164363 0.121815
0.348347 0.180008 0.135352
0.375909 0.191684 0.146171
0.413170 0.207914 0.159741
0.461373 0.232597 0.178873
0.521211 0.266534 0.204588
0.569849 0.296001 0.227413
0.603164 0.322395 0.244803
0.192594 0.290102 0.305743
0.192594 0.290102 0.305743
0.209559 0.303084 0.315829
0.204590 0.276933 0.275122
0.206683 0.218626 0.172617
0.284629 0.226424 0.143724
0.278445 0.173281 0.119021
0.299208 0.169032 0.122271
0.328490 0.178601 0.129749
0.355066 0.187364 0.137295
0.390406 0.203763 0.151372
0.433417 0.225327 0.167441
0.482145 0.252253 0.187307
0.542378 0.287661 0.213977
0.598618 0.325161 0.239284
0.626654 0.345439 0.252363
0.313759 0.398748 0.401054
0.313759 0.398748 0.401054
0.319081 0.403174 0.400165
0.331099 0.388337 0.377545
0.320885 0.363315 0.316813
0.309913 0.285516 0.194734
0.395526 0.313745 0.191708
0.361521 0.229417 0.151647
0.355921 0.205396 0.144417
0.377442 0.208899 0.150063
0.405265 0.219324 0.158679
0.444370 0.237401 0.171089
0.482641 0.256353 0.184453
0.545894 0.294323 0.212229
0.605578 0.334006 0.237434
0.642635 0.364513 0.256133
0.442527 0.495226 0.478457
0.442526 0.495226 0.478457
0.443651 0.495823 0.479739
0.457100 0.499524 0.482732
0.443657 0.483458 0.456730
0.437279 0.447751 0.378196
0.423679 0.376455 0.251057
0.497563 0.403103 0.246207
0.445716 0.296539 0.185411
0.415213 0.247077 0.166994
0.431353 0.246315 0.171201
0.464097 0.259389 0.183131
0.507817 0.282537 0.200280
0.567595 0.319593 0.225178
0.629282 0.365527 0.254942
0.671837 0.400946 0.280480
0.509260 0.551421 0.531841
0.509260 0.551421 0.531841
0.509260 0.551421 0.531841
0.535428 0.566488 0.545885
0.521479 0.545991 0.518436
0.509478 0.535622 0.484174
0.508571 0.487685 0.389045
0.494679 0.429352 0.291584
0.566280 0.468822 0.291732
0.546362 0.398425 0.222367
0.491733 0.312785 0.199939
0.491159 0.292517 0.197896
0.533983 0.314209 0.215266
0.593182 0.353049 0.241537
0.661124 0.407593 0.278904
0.707600 0.449014 0.305139
0.575059 0.604950 0.586887
0.575059 0.604950 0.586887
0.575059 0.604950 0.586887
0.594516 0.613926 0.589407
0.591416 0.606180 0.582266
0.583057 0.594979 0.556177
0.582028 0.579128 0.510192
0.570493 0.531206 0.413515
0.561018 0.489513 0.327504
0.616529 0.527601 0.338629
0.614860 0.472860 0.260103
0.585788 0.402070 0.232673
0.586854 0.379050 0.237215
0.630661 0.403081 0.258157
0.700038 0.459588 0.295769
0.746192 0.505829 0.324215
0.632832 0.649111 0.632411
0.632832 0.649111 0.632411
0.632832 0.649111 0.632411
0.641498 0.655420 0.633943
0.652447 0.658751 0.635218
0.637662 0.644445 0.618918
0.632259 0.639682 0.591166
0.638334 0.616877 0.537845
0.626571 0.580426 0.445585
0.622860 0.547603 0.377540
0.664687 0.578357 0.383820
0.678924 0.547755 0.315188
0.679442 0.508167 0.274378
0.700137 0.500665 0.282057
0.758191 0.553986 0.317915
0.793924 0.589403 0.347705
0.691809 0.701658 0.686552
0.691809 0.701658 0.686552
0.691809 0.701658 0.686552
0.700951 0.706046 0.689506
0.717183 0.714189 0.697257
0.701578 0.697943 0.675276
0.697933 0.694300 0.663846
0.699391 0.689469 0.632383
0.695078 0.665763 0.579203
0.687594 0.633372 0.495832
0.684699 0.614597 0.439182
0.719406 0.636596 0.443821
0.751476 0.642942 0.416487
0.780492 0.644077 0.392203
0.812375 0.666666 0.406706
0.838611 0.689405 0.430591
0.753077 0.755419 0.740810
0.753077 0.755419 0.740810
0.753077 0.755419 0.740810
0.761282 0.759043 0.744647
0.778411 0.767030 0.752433
0.766018 0.750804 0.732179
0.761187 0.747746 0.726974
0.763310 0.744630 0.705965
0.767171 0.730450 0.673080
0.756705 0.712361 0.615738
0.752473 0.692369 0.556379
0.750031 0.676054 0.503221
0.774375 0.692345 0.507832
0.815722 0.720044 0.527185
0.849663 0.743236 0.548691
0.870130 0.762574 0.571553
0.837710 0.821436 0.810133
0.837710 0.821436 0.810133
0.837710 0.821436 0.810133
0.843421 0.825792 0.811672
0.855176 0.831161 0.814962
0.847164 0.823460 0.807067
0.843571 0.819778 0.803705
0.841095 0.816326 0.789748
0.845199 0.809629 0.768575
0.842756 0.794865 0.730881
0.831693 0.777389 0.691337
0.820954 0.757988 0.640741
0.818363 0.746567 0.598299
0.827472 0.747299 0.585338
0.857432 0.782544 0.633878
0.874152 0.795899 0.646941
0.895613 0.870217 0.859877
0.895613 0.870217 0.859877
0.895613 0.870217 0.859877
0.899033 0.873519 0.861787
0.905166 0.876474 0.864137
0.905420 0.875842 0.861765
0.899558 0.870122 0.856233
0.898823 0.868835 0.855900
0.900152 0.866409 0.847430
0.903365 0.864243 0.832255
0.904593 0.853737 0.808159
0.893242 0.837442 0.766575
0.880869 0.820314 0.728125
0.868204 0.808036 0.686075
0.868624 0.798578 0.658420
0.889951 0.817015 0.689439
0.934842 0.899628 0.884941
0.934842 0.899628 0.884941
0.934842 0.899628 0.884941
0.937067 0.902431 0.884774
0.938743 0.903567 0.888921
0.941577 0.903882 0.889202
0.934902 0.899578 0.885015
0.936269 0.899294 0.881178
0.936110 0.899193 0.881178
0.937158 0.898485 0.876826
0.933560 0.890590 0.865233
0.938062 0.886366 0.849557
0.934584 0.877551 0.827586
0.919897 0.861076 0.783805
0.904519 0.841809 0.748076
0.900801 0.833982 0.718295
0.019709 0.022666 0.042359
0.019709 0.022666 0.042359
0.023762 0.022859 0.041132
0.067347 0.037741 0.042725
0.108137 0.059857 0.055765
0.151448 0.079304 0.068557
0.194951 0.097888 0.081330
0.231290 0.112499 0.093090
0.260369 0.124686 0.101945
0.286692 0.136016 0.109951
0.324335 0.153356 0.123706
0.372481 0.178448 0.140918
0.417704 0.199037 0.157346
0.460912 0.219371 0.173213
0.489005 0.230000 0.180892
0.507360 0.235825 0.185898
0.019709 0.022666 0.042359
0.019709 0.022666 0.042359
0.023762 0.022859 0.041132
0.067347 0.037741 0.042725
0.108137 0.059857 0.055765
0.151448 0.079304 0.068557
0.194951 0.097888 0.081330
0.231290 0.112499 0.093090
0.260369 0.124686 0.101945
0.286692 0.136016 0.109951
0.324335 0.153356 0.123706
0.372481 0.178448 0.140918
0.417704 0.199037 0.157346
0.460912 0.219371 0.173213
0.489005 0.230000 0.180892
0.507360 0.235825 0.185898
0.020338 0.029482 0.053553
0.020441 0.029418 0.054624
0.023786 0.026813 0.044827
0.071366 0.044616 0.044439
0.109826 0.061973 0.056505
0.151448 0.079304 0.068557
0.193994 0.097646 0.081119
0.230557 0.112303 0.092781
0.260369 0.124686 0.101945
0.286692 0.136016 0.109951
0.324335 0.153356 0.123706
0.372481 0.178448 0.140918
0.417704 0.199037 0.157346
0.460912 0.219371 0.173213
0.489005 0.230000 0.180892
0.507360 0.235825 0.185898
0.005434 0.083472 0.119313
0.005434 0.083472 0.119313
0.019273 0.083417 0.114007
0.066952 0.077230 0.061432
0.131524 0.084645 0.066369
0.180058 0.103251 0.078429
0.223362 0.120024 0.094120
0.261892 0.134961 0.105109
0.290608 0.145848 0.114185
0.316154 0.155763 0.122278
0.341331 0.164969 0.130777
0.378684 0.182367 0.145264
0.415048 0.197646 0.156319
0.453112 0.214002 0.169788
0.507546 0.242432 0.190071
0.545155 0.267605 0.208070
0.093304 0.180607 0.207192
0.093304 0.180607 0.207192
0.101380 0.180594 0.207551
0.115436 0.151307 0.137959
0.159428 0.141400 0.097328
0.200851 0.123048 0.090222
0.237068 0.134653 0.098895
0.277776 0.150055 0.110554
0.312939 0.164345 0.121823
0.348370 0.180042 0.135370
0.376445 0.192034 0.146356
0.413782 0.208408 0.160031
0.462060 0.233190 0.179195
0.521599 0.266887 0.204852
0.570215 0.296286 0.227641
0.603164 0.322395 0.244803
0.192594 0.290102 0.305743
0.192594 0.290102 0.305743
0.206114 0.300579 0.313882
0.204427 0.277872 0.276743
0.206834 0.219627 0.173721
0.284629 0.226424 0.143724
0.277951 0.172834 0.118797
0.299038 0.168874 0.122170
0.328428 0.178540 0.129728
0.355176 0.187435 0.137326
0.390416 0.203792 0.151363
0.433448 0.225417 0.167411
0.482113 0.252269 0.187265
0.542460 0.287744 0.213976
0.598719 0.325216 0.239300
0.626654 0.345439 0.252363
0.313759 0.398748 0.401054
0.313759 0.398748 0.401054
0.317713 0.402035 0.400407
0.331306 0.388643 0.377864
0.321110 0.363735 0.318363
0.309765 0.285658 0.194972
0.395526 0.313745 0.191708
0.361365 0.229215 0.151591
0.355964 0.205334 0.144409
0.377466 0.208930 0.150077
0.405414 0.219432 0.158736
0.444363 0.237485 0.171124
0.482896 0.256581 0.184585
0.546020 0.294441 0.212308
0.605667 0.334021 0.237419
0.642635 0.364513 0.256133
0.442527 0.495226 0.478457
0.442526 0.495226 0.478457
0.442910 0.495516 0.479078
0.458172 0.500633 0.483732
0.443671 0.483667 0.456987
0.437352 0.448183 0.379015
0.423636 0.376435 0.251225
0.497563 0.403102 0.246207
0.445676 0.296425 0.185438
0.415285 0.247201 0.167035
0.431521 0.246420 0.171264
0.464196 0.259520 0.183210
0.507951 0.282713 0.200344
0.567717 0.319826 0.225264
0.629389 0.365623 0.254987
0.671837 0.400946 0.280480
0.509260 0.551421 0.531841
0.509260 0.551421 0.531842
0.509260 0.551421 0.531842
0.535420 0.566624 0.546088
0.521541 0.545982 0.518480
0.509434 0.535697 0.484386
0.508598 0.487599 0.389126
0.494571 0.429410 0.291670
0.566280 0.468822 0.291732
0.546334 0.398423 0.222515
0.491945 0.312989 0.200057
0.491160 0.292678 0.197916
0.534177 0.314350 0.215345
0.593260 0.353248 0.241568
0.661174 0.407690 0.278939
0.707600 0.449014 0.305139
0.575059 0.604950 0.586887
0.575059 0.604950 0.586887
0.575059 0.604950 0.586887
0.594732 0.614048 0.589464
0.591290 0.606086 0.582209
0.583040 0.594978 0.556078
0.582033 0.579104 0.510057
0.570490 0.531118 0.413500
0.561007 0.489557 0.327471
0.616529 0.527601 0.338629
0.614941 0.473088 0.260211
0.586043 0.402444 0.232715
0.587014 0.379344 0.237292
0.630718 0.403276 0.258203
0.700046 0.459673 0.295718
0.746192 0.505829 0.324215
0.632832 0.649111 0.632411
0.632832 0.649111 0.632411
0.632832 0.649111 0.632411
0.641907 0.655691 0.633985
0.652262 0.658367 0.634891
0.637634 0.644447 0.618873
0.632284 0.639524 0.590960
0.638334 0.616775 0.537588
0.626554 0.580389 0.445322
0.622860 0.547589 0.377528
0.664688 0.578357 0.383821
0.678927 0.547861 0.315339
0.679710 0.508452 0.274542
0.700212 0.500922 0.282115
0.758300 0.554046 0.317982
0.793924 0.589403 0.347705
0.691809 0.701658 0.686551
0.691809 0.701658 0.686552
0.691809 0.701658 0.686552
0.701302 0.706239 0.689861
0.716803 0.713793 0.696792
0.701428 0.697964 0.675175
0.697818 0.694314 0.663620
0.699391 0.689413 0.632277
0.695073 0.665644 0.578930
0.687635 0.633269 0.495581
0.684748 0.614604 0.439155
0.719406 0.636596 0.443821
0.751548 0.643035 0.416535
0.780586 0.644036 0.392199
0.812420 0.666803 0.406806
0.838611 0.689405 0.430592
0.753077 0.755419 0.740810
0.753077 0.755419 0.740810
0.753077 0.755419 0.740810
0.761769 0.759193 0.744588
0.778249 0.766759 0.752205
0.765674 0.750503 0.731887
0.761221 0.747645 0.726953
0.763252 0.744631 0.705793
0.767123 0.730350 0.672896
0.756646 0.712451 0.615523
0.752468 0.692306 0.556330
0.750017 0.675915 0.503188
0.774375 0.692345 0.507832
0.815778 0.720075 0.527256
0.849674 0.743179 0.548739
0.870130 0.762574 0.571553
0.837710 0.821436 0.810133
0.837710 0.821436 0.810133
0.837710 0.821436 0.810133
0.843569 0.825623 0.811786
0.855285 0.830890 0.814912
0.847213 0.823345 0.807139
0.843567 0.819769 0.803625
0.841035 0.816324 0.789665
0.845240 0.809535 0.768576
0.842914 0.794835 0.730725
0.831688 0.777406 0.691195
0.820947 0.757970 0.640688
0.818360 0.746688 0.598282
0.827472 0.747299 0.585338
0.857437 0.782467 0.633907
0.874152 0.795899 0.646941
0.895614 0.870217 0.859877
0.895613 0.870217 0.859877
0.895613 0.870217 0.859877
0.898837 0.873567 0.861911
0.905228 0.876552 0.864147
0.905209 0.875643 0.861918
0.899558 0.870122 0.856233
0.898748 0.868768 0.855905
0.900212 0.866399 0.847369
0.903368 0.864230 0.832239
0.904489 0.853701 0.808103
0.893286 0.837294 0.766593
0.880930 0.820298 0.728088
0.868204 0.808028 0.686084
0.868624 0.798578 0.658420
0.889951 0.817015 0.689439
0.934842 0.899628 0.884941
0.934842 0.899628 0.884941
0.934842 0.899628 0.884941
0.937067 0.902431 0.884774
0.938743 0.903567 0.888921
0.941577 0.903882 0.889202
0.934902 0.899578 0.885015
0.936269 0.899294 0.881178
0.936110 0.899193 0.881178
0.937158 0.898485 0.876826
0.933560 0.890589 0.865233
0.938062 0.886366 0.849557
0.934584 0.877551 0.827586
0.919897 0.861076 0.783805
0.904519 0.841809 0.748076
0.900801 0.833982 0.718295
0.023712 0.030663 0.063659
0.023712 0.030663 0.063659
0.023787 0.030599 0.064974
0.053544 0.025769 0.051104
0.095066 0.049845 0.049897
0.144677 0.075284 0.067083
0.198129 0.099716 0.083659
0.238110 0.116808 0.095491
0.267798 0.129936 0.104549
0.292847 0.139705 0.111922
0.325865 0.154155 0.124151
0.369941 0.176575 0.140007
0.417091 0.198567 0.157107
0.463363 0.220706 0.173960
0.498601 0.235334 0.184820
0.513286 0.240366 0.189026
0.023712 0.030663 0.063659
0.023712 0.030663 0.063659
0.023787 0.030599 0.064974
0.054448 0.026412 0.046847
0.096525 0.050557 0.050200
0.145287 0.075822 0.067297
0.197530 0.099370 0.083219
0.237120 0.116263 0.095141
0.267343 0.129678 0.104348
0.293098 0.139819 0.112000
0.326154 0.154287 0.124246
0.369148 0.176058 0.139746
0.416846 0.198364 0.157023
0.463908 0.220983 0.174133
0.499149 0.235739 0.185055
0.513287 0.240366 0.189026
0.023230 0.033350 0.065713
0.023230 0.033350 0.065713
0.024377 0.033026 0.066524
0.063210 0.034035 0.051612
0.102361 0.056248 0.053311
0.154316 0.081598 0.070680
0.204216 0.103542 0.086366
0.254146 0.126338 0.102128
0.293367 0.144663 0.114991
0.327538 0.160383 0.126857
0.361706 0.176129 0.139729
0.402553 0.196030 0.154459
0.442782 0.215771 0.169952
0.489230 0.238448 0.187901
0.529754 0.259485 0.203750
0.549827 0.271204 0.212464
0.000163 0.078486 0.081750
0.000867 0.078401 0.088086
0.005207 0.077084 0.111868
0.069180 0.075119 0.067032
0.138327 0.091128 0.072338
0.193261 0.111865 0.086627
0.238750 0.130306 0.099433
0.280454 0.147934 0.111082
0.313768 0.161250 0.122353
0.344058 0.174224 0.133854
0.374461 0.187197 0.144972
0.410600 0.204108 0.158206
0.451951 0.224367 0.174140
0.499361 0.247551 0.192297
0.547253 0.274699 0.213839
0.564370 0.284733 0.220557
0.056618 0.150866 0.184042
0.062361 0.153454 0.189893
0.086818 0.173935 0.202992
0.109949 0.166237 0.167285
0.154447 0.137105 0.099423
0.206800 0.129476 0.094393
0.251303 0.144358 0.106198
0.292238 0.159627 0.117669
0.325617 0.172642 0.127394
0.358659 0.187659 0.138925
0.395687 0.205243 0.153161
0.438358 0.225971 0.170099
0.484075 0.251238 0.189086
0.538009 0.281447 0.213460
0.587964 0.313401 0.235864
0.610668 0.329443 0.247142
0.144209 0.266359 0.291177
0.151162 0.270561 0.293129
0.183650 0.287338 0.304403
0.215095 0.291774 0.296146
0.211276 0.238141 0.194667
0.276335 0.222113 0.144243
0.279236 0.177340 0.122921
0.310211 0.178409 0.128997
0.343185 0.189821 0.138064
0.371964 0.200330 0.146481
0.402622 0.213246 0.156127
0.442185 0.232672 0.169630
0.488985 0.257666 0.187981
0.548703 0.292720 0.214606
0.599969 0.326898 0.239026
0.627906 0.347892 0.252654
0.275433 0.378673 0.376763
0.280238 0.379917 0.378050
0.304691 0.392534 0.391164
0.339492 0.405446 0.393925
0.328395 0.379267 0.346909
0.321379 0.304550 0.213620
0.388640 0.313397 0.191562
0.357442 0.229962 0.151933
0.366463 0.215547 0.150516
0.390553 0.220954 0.157728
0.420634 0.233498 0.167177
0.459557 0.251139 0.179592
0.499408 0.270609 0.192936
0.556539 0.304063 0.215877
0.613041 0.342599 0.242526
0.647983 0.369622 0.258481
0.413690 0.482937 0.475317
0.415621 0.484008 0.476058
0.430519 0.491550 0.478959
0.467966 0.504650 0.487793
0.449923 0.490585 0.467044
0.439748 0.460631 0.391162
0.426722 0.385818 0.267749
0.491535 0.400352 0.246393
0.445348 0.300524 0.188784
0.425548 0.259492 0.174891
0.440679 0.256573 0.178236
0.475083 0.271572 0.190687
0.521740 0.296624 0.208318
0.578620 0.333403 0.232683
0.641797 0.380372 0.262388
0.682110 0.411784 0.286996
0.500036 0.543725 0.527435
0.500681 0.543878 0.527589
0.504833 0.550489 0.531130
0.534964 0.566250 0.545197
0.527791 0.553037 0.526885
0.517565 0.542764 0.499642
0.514459 0.501686 0.408721
0.498583 0.443600 0.307442
0.561779 0.468706 0.294506
0.540825 0.395864 0.225367
0.499227 0.326006 0.205921
0.506399 0.310948 0.206968
0.545851 0.329764 0.222895
0.604587 0.368680 0.249906
0.672417 0.422338 0.285237
0.717579 0.462163 0.311955
0.568513 0.602077 0.583658
0.568293 0.601983 0.583519
0.567398 0.600811 0.583903
0.596464 0.614748 0.593542
0.592611 0.610109 0.584907
0.586019 0.601662 0.570164
0.584682 0.586033 0.519522
0.578084 0.542643 0.429752
0.563623 0.498379 0.340647
0.615526 0.528257 0.342051
0.609997 0.474292 0.263327
0.590044 0.410863 0.236206
0.593734 0.391325 0.242059
0.643799 0.421695 0.266656
0.710439 0.475146 0.302085
0.753536 0.517735 0.330196
0.626477 0.647275 0.628455
0.625913 0.646944 0.628455
0.625007 0.646913 0.630956
0.649596 0.659072 0.637799
0.652305 0.659598 0.635465
0.644274 0.647629 0.624974
0.638573 0.642092 0.598265
0.640362 0.626842 0.554951
0.629145 0.585564 0.459915
0.623441 0.554664 0.386581
0.663630 0.579903 0.388899
0.675278 0.549662 0.317407
0.677622 0.511620 0.275964
0.703867 0.512312 0.287698
0.766693 0.569283 0.326946
0.800150 0.602968 0.360928
0.689830 0.700922 0.684468
0.689418 0.700837 0.684468
0.688482 0.701445 0.686310
0.706957 0.709071 0.692479
0.714939 0.712608 0.694182
0.705371 0.701789 0.680320
0.701367 0.698098 0.668813
0.701298 0.694373 0.642734
0.699771 0.675555 0.597284
0.690630 0.641153 0.508202
0.687622 0.620966 0.450321
0.718233 0.638350 0.449183
0.747449 0.641794 0.420975
0.778639 0.646935 0.393103
0.813947 0.672685 0.411129
0.840017 0.692353 0.433844
0.751971 0.754143 0.740809
0.751492 0.753727 0.740809
0.752959 0.752968 0.739856
0.768210 0.761428 0.746048
0.777553 0.766571 0.750985
0.769994 0.755209 0.740450
0.764201 0.750334 0.731567
0.761071 0.748346 0.715592
0.769908 0.739215 0.687057
0.760702 0.714889 0.624986
0.754756 0.699545 0.568163
0.751739 0.680310 0.510167
0.773149 0.694763 0.512656
0.816305 0.720623 0.531337
0.849771 0.745250 0.550735
0.866781 0.765242 0.575700
0.836772 0.820502 0.807362
0.836474 0.820391 0.807222
0.836757 0.821222 0.807396
0.845250 0.826293 0.812005
0.854018 0.830111 0.815351
0.853010 0.827808 0.813622
0.844748 0.820130 0.805860
0.843650 0.819156 0.797600
0.846158 0.814912 0.779916
0.844719 0.799499 0.741937
0.833816 0.783110 0.702497
0.823445 0.762904 0.649667
0.820403 0.748732 0.605292
0.827472 0.749539 0.591360
0.857392 0.783255 0.634906
0.872212 0.793385 0.646935
0.895482 0.870139 0.859548
0.895426 0.870118 0.859571
0.895995 0.870748 0.859859
0.899804 0.873688 0.862155
0.903060 0.875527 0.864291
0.906741 0.876871 0.863443
0.899234 0.870248 0.857983
0.899891 0.870129 0.855928
0.899168 0.867239 0.851649
0.902990 0.865301 0.837184
0.904663 0.858954 0.813566
0.897051 0.843317 0.775289
0.883623 0.824572 0.737479
0.869997 0.808194 0.690949
0.867370 0.798600 0.661234
0.890118 0.820258 0.689881
0.934842 0.899628 0.884941
0.934842 0.899628 0.884941
0.934257 0.899407 0.883054
0.937734 0.902159 0.885756
0.938951 0.903616 0.888956
0.941406 0.903837 0.889186
0.936339 0.900649 0.885883
0.934783 0.899650 0.884964
0.935855 0.899381 0.882464
0.936218 0.898470 0.879972
0.935144 0.893679 0.869526
0.935515 0.886779 0.853239
0.935327 0.879490 0.832262
0.923347 0.864208 0.793531
0.908434 0.845628 0.753399
0.900922 0.834550 0.718485
0.026705 0.047169 0.106964
0.026705 0.047169 0.106964
0.028853 0.043852 0.109605
0.048054 0.023348 0.107958
0.100185 0.029345 0.081925
0.132657 0.067632 0.064881
0.204710 0.104657 0.086902
0.264691 0.132473 0.107223
0.306643 0.152543 0.122062
0.339020 0.168025 0.133081
0.370492 0.181675 0.143338
0.406467 0.198980 0.156301
0.444516 0.216508 0.170631
0.493323 0.240834 0.189197
0.542033 0.269507 0.211020
0.563829 0.282640 0.220376
0.026705 0.047169 0.106964
0.026705 0.047169 0.106964
0.028847 0.043852 0.109088
0.048055 0.023348 0.107958
0.099535 0.030382 0.079466
0.134001 0.068954 0.065051
0.204705 0.104661 0.086902
0.264187 0.132156 0.107004
0.306404 0.152450 0.121980
0.339136 0.168105 0.133155
0.371593 0.182322 0.143856
0.408188 0.200046 0.157081
0.446265 0.217694 0.171529
0.494694 0.241751 0.189943
0.542535 0.269951 0.211377
0.563829 0.282640 0.220377
0.025917 0.060089 0.109311
0.028136 0.058415 0.108751
0.027326 0.051521 0.108332
0.048748 0.025093 0.109551
0.101025 0.028459 0.085999
0.127480 0.061903 0.062920
0.193551 0.096916 0.082026
0.261158 0.130167 0.104838
0.310386 0.153830 0.122370
0.345737 0.170780 0.135597
0.379720 0.186594 0.148038
0.420327 0.206839 0.163077
0.462350 0.227906 0.179783
0.513294 0.256070 0.202439
0.554977 0.280965 0.219838
0.575131 0.293060 0.229633
0.005915 0.078977 0.118668
0.005915 0.078977 0.118668
0.005873 0.078992 0.118465
0.056755 0.078200 0.111904
0.131648 0.090785 0.093518
0.198122 0.119609 0.105215
0.260550 0.147815 0.121418
0.315657 0.173124 0.137184
0.360755 0.194529 0.150725
0.395456 0.210547 0.160768
0.426042 0.223915 0.169875
0.462655 0.241940 0.182388
0.499529 0.261194 0.196149
0.543003 0.282499 0.212336
0.579361 0.304935 0.231642
0.594558 0.312484 0.237598
0.050046 0.128514 0.090985
0.050553 0.128839 0.090027
0.051417 0.129868 0.114784
0.090074 0.156293 0.181864
0.159762 0.138637 0.116254
0.228862 0.149175 0.118029
0.280852 0.169429 0.131874
0.330202 0.189605 0.145440
0.373497 0.210138 0.159088
0.406867 0.225400 0.169787
0.437615 0.238958 0.179583
0.476190 0.257923 0.192084
0.516750 0.279458 0.205673
0.563495 0.303324 0.221780
0.608375 0.333523 0.244189
0.628405 0.345555 0.250737
0.097647 0.201986 0.170035
0.099355 0.203656 0.175709
0.105399 0.231449 0.238659
0.219423 0.309200 0.319350
0.203977 0.255629 0.232300
0.265346 0.220622 0.161103
0.291683 0.190446 0.139707
0.335389 0.204810 0.151119
0.375253 0.220359 0.162849
0.410601 0.236434 0.173133
0.441837 0.250402 0.183347
0.479124 0.268134 0.196445
0.525041 0.293169 0.214393
0.575279 0.322307 0.232036
0.622416 0.351041 0.250769
0.647742 0.367867 0.259841
0.173426 0.318244 0.329150
0.176086 0.320400 0.332519
0.217319 0.350688 0.361294
0.350462 0.417884 0.406631
0.342859 0.402014 0.383338
0.332493 0.345042 0.265651
0.377111 0.311077 0.208750
0.364971 0.244764 0.171340
0.386259 0.239888 0.172736
0.416620 0.250445 0.182106
0.448232 0.262713 0.191418
0.485604 0.281951 0.204344
0.535141 0.308716 0.221495
0.587728 0.340019 0.243092
0.641252 0.378203 0.268238
0.676382 0.404899 0.285482
0.326550 0.444332 0.440673
0.328229 0.445037 0.441809
0.361827 0.459114 0.462009
0.477084 0.513374 0.495827
0.472359 0.507956 0.487629
0.449048 0.479599 0.422168
0.441353 0.423547 0.318422
0.481948 0.408181 0.272602
