luts/film_Glass-bdb50149.cube
TITLE "AB_film_Glass"
LUT_3D_SIZE 8
DOMAIN_MIN 0.000000 0.000000 0.000000
DOMAIN_MAX 0.903226 0.903226 0.903226
0.015686 0.027451 0.027451
0.031373 0.031373 0.031373
0.086275 0.035294 0.039216
0.184314 0.035294 0.043137
0.333333 0.007843 0.058824
0.450980 0.000000 0.074510
0.576471 0.000000 0.094118
0.721569 0.000000 0.113725
0.003922 0.070588 0.027451
0.039216 0.070588 0.027451
0.082353 0.066667 0.039216
0.192157 0.070588 0.050980
0.333333 0.058824 0.066667
0.450980 0.027451 0.078431
0.576471 0.000000 0.094118
0.721569 0.000000 0.117647
0.000000 0.196078 0.015686
0.050980 0.200000 0.015686
0.196078 0.176471 0.023529
0.227451 0.133333 0.050980
0.337255 0.133333 0.078431
0.450980 0.129412 0.090196
0.576471 0.117647 0.101961
0.721569 0.109804 0.121569
0.000000 0.407843 0.000000
0.074510 0.407843 0.000000
0.298039 0.400000 0.000000
0.407843 0.333333 0.000000
0.411765 0.227451 0.058824
0.466667 0.219608 0.098039
0.580392 0.223529 0.113725
0.721569 0.239216 0.133333
0.000000 0.619608 0.000000
0.133333 0.631373 0.000000
0.341176 0.627451 0.000000
0.521569 0.615686 0.000000
0.631373 0.533333 0.000000
0.635294 0.407843 0.011765
0.643137 0.360784 0.105882
0.733333 0.376471 0.149020
0.164706 0.749020 0.000000
0.258824 0.756863 0.000000
0.396078 0.756863 0.000000
0.556863 0.756863 0.000000
0.709804 0.733333 0.000000
0.772549 0.666667 0.000000
0.792157 0.560784 0.000000
0.803922 0.509804 0.117647
0.388235 0.862745 0.054902
0.435294 0.866667 0.070588
0.521569 0.866667 0.082353
0.639216 0.862745 0.098039
0.776471 0.858824 0.105882
0.854902 0.835294 0.043137
0.898039 0.784314 0.000000
0.921569 0.705882 0.000000
0.619608 0.956863 0.250980
0.647059 0.956863 0.262745
0.694118 0.952941 0.266667
0.764706 0.952941 0.274510
0.858824 0.949020 0.282353
0.925490 0.941176 0.270588
0.968627 0.925490 0.207843
1.000000 0.898039 0.082353
0.011765 0.035294 0.050980
0.027451 0.035294 0.054902
0.094118 0.047059 0.062745
0.203922 0.039216 0.070588
0.341176 0.011765 0.082353
0.454902 0.000000 0.090196
0.580392 0.000000 0.105882
0.721569 0.000000 0.125490
0.011765 0.062745 0.054902
0.031373 0.070588 0.062745
0.101961 0.074510 0.066667
0.211765 0.074510 0.074510
0.345098 0.058824 0.086275
0.458824 0.027451 0.094118
0.580392 0.000000 0.109804
0.725490 0.000000 0.125490
0.000000 0.180392 0.070588
0.027451 0.188235 0.062745
0.180392 0.168627 0.066667
0.227451 0.141176 0.082353
0.349020 0.141176 0.098039
0.458824 0.129412 0.105882
0.584314 0.113725 0.113725
0.725490 0.105882 0.133333
0.000000 0.388235 0.047059
0.031373 0.388235 0.039216
0.274510 0.384314 0.043137
0.392157 0.321569 0.054902
0.407843 0.231373 0.090196
0.470588 0.223529 0.117647
0.584314 0.227451 0.129412
0.725490 0.239216 0.145098
0.000000 0.607843 0.000000
0.117647 0.619608 0.000000
0.329412 0.619608 0.000000
0.513726 0.611765 0.000000
0.623529 0.529412 0.007843
0.627451 0.403922 0.062745
0.639216 0.364706 0.129412
0.733333 0.376471 0.160784
0.184314 0.745098 0.003922
0.270588 0.752941 0.015686
0.403922 0.752941 0.015686
0.556863 0.752941 0.031373
0.709804 0.729412 0.027451
0.772549 0.662745 0.000000
0.788235 0.556863 0.019608
0.803922 0.509804 0.141176
0.411765 0.862745 0.145098
0.454902 0.866667 0.156863
0.537255 0.866667 0.160784
0.647059 0.862745 0.172549
0.780392 0.858824 0.176471
0.854902 0.835294 0.129412
0.898039 0.784314 0.027451
0.921569 0.705882 0.000000
0.627451 0.956863 0.286275
0.654902 0.956863 0.298039
0.701961 0.952941 0.298039
0.768627 0.952941 0.305882
0.858824 0.949020 0.313726
0.925490 0.941176 0.305882
0.968627 0.929412 0.250980
1.000000 0.898039 0.145098
0.011765 0.050980 0.101961
0.031373 0.054902 0.109804
0.101961 0.054902 0.113725
0.247059 0.054902 0.121569
0.380392 0.023529 0.129412
0.478431 0.000000 0.133333
0.596078 0.000000 0.141176
0.733333 0.000000 0.156863
0.015686 0.078431 0.105882
0.047059 0.086275 0.109804
0.125490 0.090196 0.121569
0.258824 0.090196 0.129412
0.376471 0.062745 0.129412
0.482353 0.019608 0.133333
0.600000 0.000000 0.141176
0.737255 0.000000 0.156863
0.015686 0.137255 0.117647
0.062745 0.145098 0.121569
0.172549 0.164706 0.133333
0.262745 0.156863 0.133333
0.384314 0.145098 0.137255
0.490196 0.129412 0.141176
0.603922 0.109804 0.149020
0.737255 0.094118 0.160784
0.019608 0.317647 0.160784
0.094118 0.333333 0.156863
0.231373 0.349020 0.141176
0.376471 0.309804 0.133333
0.403922 0.243137 0.149020
0.494118 0.239216 0.156863
0.607843 0.231373 0.160784
0.737255 0.235294 0.172549
0.000000 0.576471 0.152941
0.125490 0.592157 0.156863
0.305882 0.596078 0.145098
0.490196 0.592157 0.145098
0.611765 0.517647 0.129412
0.611765 0.396078 0.137255
0.639216 0.372549 0.176471
0.741176 0.384314 0.192157
0.231373 0.729412 0.184314
0.301961 0.737255 0.192157
0.411765 0.741176 0.192157
0.552941 0.741176 0.192157
0.701961 0.721569 0.184314
0.764706 0.654902 0.137255
0.780392 0.552941 0.125490
0.796078 0.513726 0.192157
0.443137 0.858824 0.258824
0.482353 0.858824 0.266667
0.556863 0.858824 0.270588
0.658824 0.858824 0.278431
0.780392 0.854902 0.282353
0.854902 0.835294 0.247059
0.894118 0.780392 0.172549
0.917647 0.701961 0.125490
0.631373 0.952941 0.352941
0.654902 0.956863 0.356863
0.701961 0.952941 0.360784
0.768627 0.952941 0.368627
0.858824 0.949020 0.372549
0.921569 0.941176 0.372549
0.968627 0.929412 0.333333
1.000000 0.898039 0.243137
0.023529 0.074510 0.168627
0.062745 0.078431 0.180392
0.152941 0.086275 0.200000
0.278431 0.070588 0.207843
0.450980 0.058824 0.211765
0.560784 0.027451 0.211765
0.647059 0.000000 0.207843
0.756863 0.000000 0.211765
0.047059 0.098039 0.172549
0.086275 0.105882 0.180392
0.172549 0.121569 0.203922
0.290196 0.113725 0.211765
0.454902 0.105882 0.215686
0.552941 0.078431 0.211765
0.643137 0.000000 0.207843
0.752941 0.000000 0.211765
0.074510 0.149020 0.176471
0.113725 0.156863 0.180392
0.203922 0.176471 0.200000
0.317647 0.188235 0.219608
0.454902 0.180392 0.219608
0.537255 0.145098 0.207843
0.635294 0.105882 0.203922
0.756863 0.062745 0.211765
0.101961 0.235294 0.192157
0.141176 0.243137 0.196078
0.231373 0.262745 0.211765
0.356863 0.294118 0.227451
0.447059 0.266667 0.219608
0.537255 0.250980 0.211765
0.643137 0.235294 0.211765
0.760784 0.227451 0.215686
0.192157 0.494118 0.262745
0.239216 0.513726 0.270588
0.321569 0.533333 0.274510
0.454902 0.556863 0.262745
0.592157 0.498039 0.235294
0.592157 0.400000 0.227451
0.650980 0.388235 0.235294
0.756863 0.388235 0.239216
0.321569 0.690196 0.309804
0.364706 0.701961 0.317647
0.435294 0.713726 0.317647
0.549020 0.717647 0.313726
0.694118 0.709804 0.309804
0.752941 0.647059 0.254902
0.760784 0.545098 0.227451
0.788235 0.521569 0.262745
0.474510 0.839216 0.364706
0.505882 0.847059 0.368627
0.568627 0.850980 0.372549
0.658824 0.850980 0.376471
0.776471 0.850980 0.376471
0.850980 0.831373 0.356863
0.886275 0.780392 0.290196
0.905882 0.694118 0.235294
0.623529 0.949020 0.423529
0.650980 0.952941 0.431373
0.694118 0.952941 0.435294
0.760784 0.952941 0.439216
0.850980 0.949020 0.443137
0.917647 0.945098 0.443137
0.964706 0.929412 0.415686
0.996078 0.898039 0.341176
0.113725 0.109804 0.270588
0.149020 0.117647 0.282353
0.231373 0.129412 0.305882
0.341176 0.133333 0.333333
0.486275 0.101961 0.337255
0.631373 0.094118 0.333333
0.749020 0.152941 0.337255
0.831373 0.152941 0.337255
0.129412 0.133333 0.270588
0.164706 0.137255 0.282353
0.243137 0.152941 0.305882
0.352941 0.168627 0.337255
0.494118 0.149020 0.341176
0.635294 0.149020 0.337255
0.745098 0.192157 0.341176
0.827451 0.176471 0.337255
0.149020 0.172549 0.258824
0.184314 0.180392 0.270588
0.262745 0.203922 0.294118
0.372549 0.235294 0.333333
0.509804 0.231373 0.345098
0.639216 0.243137 0.341176
0.737255 0.258824 0.341176
0.815686 0.211765 0.329412
0.172549 0.239216 0.266667
0.203922 0.247059 0.270588
0.270588 0.262745 0.282353
0.384314 0.305882 0.317647
0.529412 0.337255 0.349020
0.639216 0.349020 0.345098
0.709804 0.301961 0.325490
0.796078 0.243137 0.309804
0.207843 0.368627 0.286275
0.243137 0.380392 0.298039
0.309804 0.396078 0.309804
0.415686 0.431373 0.329412
0.560784 0.470588 0.352941
0.607843 0.427451 0.329412
0.690196 0.400000 0.313726
0.788235 0.376471 0.305882
0.376471 0.596078 0.380392
0.411765 0.607843 0.388235
0.466667 0.623529 0.400000
0.541176 0.647059 0.411765
0.654902 0.678431 0.411765
0.733333 0.631373 0.372549
0.729412 0.545098 0.341176
0.788235 0.525490 0.337255
0.529412 0.784314 0.462745
0.552941 0.792157 0.466667
0.584314 0.803922 0.470588
0.639216 0.823529 0.470588
0.741176 0.835294 0.466667
0.843137 0.827451 0.462745
0.878431 0.772549 0.407843
0.886275 0.686275 0.352941
0.635294 0.929412 0.525490
0.650980 0.937255 0.529412
0.682353 0.941176 0.529412
0.733333 0.945098 0.525490
0.827451 0.949020 0.525490
0.905882 0.945098 0.529412
0.960784 0.937255 0.513726
0.988235 0.901961 0.443137
0.207843 0.149020 0.376471
0.235294 0.152941 0.384314
0.301961 0.168627 0.403922
0.400000 0.188235 0.431373
0.529412 0.196078 0.450980
0.658824 0.180392 0.454902
0.784314 0.219608 0.450980
0.874510 0.309804 0.450980
0.215686 0.168627 0.372549
0.243137 0.172549 0.380392
0.309804 0.192157 0.400000
0.407843 0.215686 0.427451
0.541176 0.235294 0.454902
0.662745 0.223529 0.454902
0.784314 0.258824 0.450980
0.874510 0.337255 0.454902
0.227451 0.203922 0.356863
0.254902 0.211765 0.364706
0.321569 0.235294 0.388235
0.423529 0.274510 0.419608
0.556863 0.313726 0.454902
0.670588 0.309804 0.454902
0.780392 0.341176 0.450980
0.874510 0.396078 0.458824
0.231373 0.254902 0.345098
0.254902 0.258824 0.349020
0.313726 0.278431 0.364706
0.423529 0.329412 0.400000
0.576471 0.403922 0.450980
0.678431 0.407843 0.454902
0.780392 0.435294 0.454902
0.866667 0.443137 0.458824
0.250980 0.356863 0.349020
0.274510 0.364706 0.356863
0.329412 0.376471 0.364706
0.415686 0.400000 0.380392
0.564706 0.470588 0.423529
0.686275 0.513726 0.454902
0.772549 0.517647 0.450980
0.835294 0.447059 0.419608
0.301961 0.494118 0.380392
0.329412 0.505882 0.388235
0.384314 0.517647 0.392157
0.466667 0.533333 0.407843
0.592157 0.572549 0.435294
0.705882 0.607843 0.458824
0.737255 0.556863 0.427451
0.815686 0.517647 0.400000
0.517647 0.701961 0.478431
0.541176 0.709804 0.486275
0.576471 0.717647 0.494118
0.631373 0.737255 0.509804
0.709804 0.776471 0.529412
0.803922 0.811765 0.537255
0.862745 0.764706 0.490196
0.858824 0.670588 0.439216
0.650980 0.890196 0.592157
0.666667 0.894118 0.600000
0.690196 0.901961 0.603922
0.725490 0.913725 0.607843
0.792157 0.933333 0.607843
0.878431 0.945098 0.615686
0.949020 0.941176 0.611765
0.984314 0.901961 0.529412
0.313726 0.203922 0.478431
0.337255 0.211765 0.486275
0.392157 0.231373 0.498039
0.478431 0.266667 0.521569
0.600000 0.313726 0.549020
0.698039 0.325490 0.560784
0.803922 0.325490 0.560784
0.898039 0.372549 0.556863
0.321569 0.223529 0.474510
0.341176 0.231373 0.482353
0.400000 0.250980 0.494118
0.486275 0.286275 0.517647
0.607843 0.341176 0.549020
0.701961 0.356863 0.560784
0.803922 0.356863 0.560784
0.894118 0.400000 0.560784
0.321569 0.254902 0.462745
0.345098 0.262745 0.470588
0.403922 0.286275 0.486275
0.494118 0.333333 0.509804
0.619608 0.396078 0.545098
0.713726 0.423529 0.564706
0.803922 0.419608 0.564706
0.894118 0.450980 0.560784
0.309804 0.294118 0.443137
0.329412 0.301961 0.447059
0.392157 0.325490 0.462745
0.486275 0.372549 0.490196
0.627451 0.454902 0.537255
0.725490 0.498039 0.564706
0.807843 0.498039 0.564706
0.894118 0.513726 0.564706
0.301961 0.368627 0.431373
0.321569 0.376471 0.435294
0.364706 0.384314 0.439216
0.439216 0.403922 0.450980
0.596078 0.490196 0.501961
0.733333 0.572549 0.560784
0.811765 0.580392 0.564706
0.894118 0.588235 0.564706
0.313726 0.470588 0.435294
0.337255 0.478431 0.443137
0.380392 0.486275 0.447059
0.447059 0.498039 0.454902
0.560784 0.529412 0.474510
0.701961 0.600000 0.525490
0.815686 0.650980 0.568627
0.894118 0.643137 0.560784
0.392157 0.611765 0.466667
0.415686 0.619608 0.474510
0.454902 0.623529 0.478431
0.517647 0.635294 0.486275
0.619608 0.658824 0.505882
0.721569 0.694118 0.541176
0.831373 0.733333 0.572549
0.862745 0.666667 0.513726
0.615686 0.815686 0.592157
0.635294 0.819608 0.600000
0.658824 0.827451 0.607843
0.701961 0.843137 0.623529
0.768627 0.870588 0.654902
0.839216 0.905882 0.690196
0.921569 0.937255 0.713726
0.972549 0.898039 0.635294
0.490196 0.341176 0.619608
0.505882 0.349020 0.623529
0.549020 0.368627 0.631373
0.607843 0.400000 0.647059
0.698039 0.443137 0.670588
0.776471 0.470588 0.690196
0.843137 0.474510 0.694118
0.925490 0.478431 0.694118
0.494118 0.352941 0.615686
0.509804 0.360784 0.619608
0.549020 0.380392 0.631373
0.611765 0.411765 0.647059
0.698039 0.454902 0.670588
0.776471 0.486275 0.690196
0.847059 0.490196 0.694118
0.925490 0.498039 0.698039
0.490196 0.380392 0.607843
0.505882 0.388235 0.611765
0.549020 0.407843 0.623529
0.611765 0.439216 0.639216
0.701961 0.486275 0.666667
0.780392 0.521569 0.690196
0.850980 0.529412 0.698039
0.925490 0.533333 0.698039
0.470588 0.407843 0.592157
0.490196 0.415686 0.596078
0.533333 0.435294 0.603922
0.600000 0.466667 0.623529
0.698039 0.521569 0.658824
0.784314 0.564706 0.690196
0.854902 0.580392 0.701961
0.925490 0.584314 0.701961
0.419608 0.439216 0.560784
0.439216 0.447059 0.564706
0.478431 0.454902 0.572549
0.545098 0.482353 0.588235
0.666667 0.545098 0.627451
0.772549 0.607843 0.678431
0.858824 0.647059 0.713726
0.929412 0.650980 0.709804
0.400000 0.517647 0.552941
0.419608 0.521569 0.556863
0.450980 0.525490 0.560784
0.501961 0.529412 0.564706
0.592157 0.545098 0.580392
0.733333 0.619608 0.639216
0.858824 0.705882 0.713726
0.929412 0.717647 0.725490
0.407843 0.615686 0.552941
0.427451 0.619608 0.556863
0.454902 0.623529 0.560784
0.505882 0.627451 0.564706
0.584314 0.635294 0.576471
0.674510 0.647059 0.592157
0.819608 0.721569 0.666667
0.933333 0.792157 0.741176
0.513726 0.756863 0.600000
0.529412 0.764706 0.607843
0.552941 0.764706 0.607843
0.596078 0.772549 0.615686
0.658824 0.784314 0.627451
0.737255 0.800000 0.647059
0.835294 0.831373 0.690196
0.941176 0.882353 0.764706
