luts/film_Watts-24462829.cube
TITLE "AB_film_Watts"
LUT_3D_SIZE 32
0.007843 0.007843 0.019608
0.007843 0.007843 0.019608
0.007843 0.007843 0.019608
0.011765 0.007843 0.019608
0.015686 0.007843 0.019608
0.015686 0.007843 0.023529
0.015686 0.011765 0.023529
0.015686 0.011765 0.027451
0.019608 0.011765 0.027451
0.023529 0.015686 0.031373
0.027451 0.015686 0.031373
0.031373 0.015686 0.031373
0.043137 0.019608 0.035294
0.050980 0.023529 0.039216
0.066667 0.027451 0.039216
0.078431 0.027451 0.039216
0.101961 0.027451 0.039216
0.117647 0.027451 0.043137
0.133333 0.027451 0.043137
0.145098 0.027451 0.043137
0.160784 0.027451 0.043137
0.172549 0.023529 0.043137
0.188235 0.023529 0.043137
0.203922 0.023529 0.043137
0.219608 0.019608 0.047059
0.235294 0.015686 0.047059
0.254902 0.011765 0.047059
0.274510 0.011765 0.047059
0.294118 0.003922 0.047059
0.317647 0.000000 0.050980
0.345098 0.000000 0.050980
0.392157 0.000000 0.054902
0.007843 0.007843 0.019608
0.007843 0.007843 0.019608
0.007843 0.007843 0.019608
0.011765 0.007843 0.019608
0.015686 0.007843 0.019608
0.015686 0.007843 0.023529
0.015686 0.011765 0.023529
0.015686 0.011765 0.027451
0.019608 0.011765 0.027451
0.023529 0.015686 0.031373
0.027451 0.015686 0.031373
0.035294 0.019608 0.035294
0.043137 0.023529 0.035294
0.054902 0.027451 0.039216
0.066667 0.027451 0.039216
0.082353 0.027451 0.039216
0.105882 0.031373 0.039216
0.121569 0.031373 0.043137
0.133333 0.027451 0.043137
0.149020 0.027451 0.043137
0.160784 0.027451 0.043137
0.176471 0.027451 0.043137
0.192157 0.023529 0.043137
0.203922 0.023529 0.043137
0.219608 0.019608 0.047059
0.239216 0.019608 0.047059
0.258824 0.015686 0.047059
0.278431 0.011765 0.047059
0.298039 0.007843 0.050980
0.317647 0.000000 0.050980
0.349020 0.000000 0.050980
0.396078 0.000000 0.054902
0.007843 0.007843 0.019608
0.007843 0.007843 0.019608
0.007843 0.007843 0.019608
0.011765 0.007843 0.019608
0.015686 0.007843 0.019608
0.015686 0.007843 0.023529
0.015686 0.011765 0.023529
0.015686 0.011765 0.027451
0.019608 0.015686 0.027451
0.023529 0.015686 0.031373
0.027451 0.019608 0.031373
0.035294 0.023529 0.035294
0.047059 0.027451 0.035294
0.058824 0.027451 0.039216
0.070588 0.031373 0.039216
0.086275 0.031373 0.039216
0.109804 0.031373 0.039216
0.125490 0.031373 0.043137
0.137255 0.031373 0.043137
0.152941 0.031373 0.043137
0.164706 0.027451 0.043137
0.180392 0.027451 0.043137
0.196078 0.027451 0.043137
0.207843 0.023529 0.043137
0.223529 0.019608 0.047059
0.243137 0.019608 0.047059
0.262745 0.015686 0.047059
0.278431 0.011765 0.047059
0.298039 0.007843 0.050980
0.317647 0.003922 0.050980
0.349020 0.000000 0.050980
0.396078 0.000000 0.054902
0.007843 0.011765 0.019608
0.007843 0.015686 0.019608
0.007843 0.015686 0.019608
0.011765 0.015686 0.019608
0.011765 0.015686 0.023529
0.011765 0.015686 0.023529
0.015686 0.015686 0.027451
0.015686 0.015686 0.027451
0.019608 0.019608 0.031373
0.023529 0.019608 0.031373
0.031373 0.023529 0.035294
0.039216 0.027451 0.035294
0.050980 0.031373 0.039216
0.062745 0.031373 0.039216
0.078431 0.031373 0.039216
0.094118 0.035294 0.039216
0.117647 0.035294 0.043137
0.133333 0.031373 0.043137
0.145098 0.031373 0.043137
0.160784 0.031373 0.043137
0.172549 0.031373 0.043137
0.188235 0.027451 0.043137
0.200000 0.027451 0.043137
0.215686 0.023529 0.047059
0.231373 0.023529 0.047059
0.247059 0.019608 0.047059
0.266667 0.015686 0.047059
0.282353 0.015686 0.047059
0.301961 0.011765 0.050980
0.321569 0.003922 0.050980
0.349020 0.000000 0.050980
0.396078 0.000000 0.054902
0.003922 0.027451 0.019608
0.003922 0.027451 0.019608
0.003922 0.027451 0.019608
0.007843 0.031373 0.019608
0.007843 0.027451 0.023529
0.011765 0.023529 0.027451
0.011765 0.023529 0.031373
0.015686 0.027451 0.031373
0.023529 0.027451 0.035294
0.031373 0.031373 0.035294
0.043137 0.035294 0.039216
0.054902 0.035294 0.039216
0.070588 0.039216 0.039216
0.086275 0.039216 0.039216
0.101961 0.039216 0.039216
0.117647 0.039216 0.043137
0.141176 0.039216 0.043137
0.156863 0.035294 0.043137
0.168627 0.035294 0.043137
0.180392 0.035294 0.043137
0.192157 0.031373 0.043137
0.203922 0.031373 0.043137
0.219608 0.027451 0.047059
0.231373 0.027451 0.047059
0.247059 0.023529 0.047059
0.258824 0.023529 0.047059
0.278431 0.019608 0.047059
0.298039 0.015686 0.050980
0.313726 0.011765 0.050980
0.337255 0.007843 0.050980
0.360784 0.003922 0.054902
0.403922 0.000000 0.054902
0.000000 0.039216 0.019608
0.000000 0.039216 0.019608
0.000000 0.039216 0.019608
0.003922 0.043137 0.019608
0.003922 0.043137 0.019608
0.007843 0.035294 0.027451
0.011765 0.035294 0.031373
0.015686 0.039216 0.031373
0.023529 0.039216 0.035294
0.035294 0.043137 0.035294
0.050980 0.043137 0.039216
0.066667 0.047059 0.039216
0.082353 0.047059 0.039216
0.101961 0.047059 0.039216
0.117647 0.047059 0.043137
0.133333 0.043137 0.043137
0.156863 0.043137 0.043137
0.168627 0.043137 0.043137
0.184314 0.039216 0.043137
0.196078 0.039216 0.043137
0.207843 0.035294 0.047059
0.219608 0.035294 0.047059
0.231373 0.031373 0.047059
0.243137 0.031373 0.047059
0.254902 0.027451 0.047059
0.270588 0.027451 0.047059
0.290196 0.023529 0.050980
0.305882 0.019608 0.050980
0.325490 0.015686 0.050980
0.345098 0.011765 0.050980
0.372549 0.007843 0.054902
0.415686 0.003922 0.058824
0.000000 0.050980 0.019608
0.000000 0.054902 0.019608
0.000000 0.054902 0.019608
0.000000 0.058824 0.019608
0.000000 0.062745 0.019608
0.003922 0.058824 0.019608
0.007843 0.050980 0.031373
0.011765 0.050980 0.035294
0.023529 0.050980 0.035294
0.039216 0.054902 0.039216
0.058824 0.054902 0.039216
0.078431 0.058824 0.039216
0.098039 0.058824 0.039216
0.117647 0.058824 0.039216
0.137255 0.054902 0.043137
0.152941 0.054902 0.043137
0.176471 0.050980 0.043137
0.192157 0.050980 0.043137
0.203922 0.047059 0.043137
0.215686 0.047059 0.047059
0.223529 0.043137 0.047059
0.235294 0.043137 0.047059
0.247059 0.039216 0.047059
0.258824 0.039216 0.047059
0.270588 0.035294 0.050980
0.286275 0.031373 0.050980
0.301961 0.031373 0.050980
0.317647 0.027451 0.050980
0.337255 0.023529 0.050980
0.356863 0.019608 0.054902
0.380392 0.015686 0.054902
0.423529 0.015686 0.058824
0.000000 0.074510 0.019608
0.000000 0.078431 0.019608
0.000000 0.082353 0.019608
0.000000 0.082353 0.019608
0.000000 0.082353 0.019608
0.000000 0.082353 0.019608
0.007843 0.074510 0.023529
0.011765 0.062745 0.035294
0.015686 0.062745 0.039216
0.031373 0.066667 0.039216
0.054902 0.066667 0.039216
0.082353 0.070588 0.039216
0.109804 0.070588 0.039216
0.133333 0.070588 0.043137
0.156863 0.070588 0.043137
0.172549 0.066667 0.043137
0.200000 0.062745 0.043137
0.211765 0.062745 0.043137
0.223529 0.058824 0.047059
0.231373 0.054902 0.047059
0.243137 0.054902 0.047059
0.254902 0.050980 0.047059
0.262745 0.050980 0.050980
0.274510 0.047059 0.050980
0.290196 0.043137 0.050980
0.301961 0.043137 0.050980
0.317647 0.039216 0.050980
0.333333 0.035294 0.054902
0.345098 0.031373 0.054902
0.364706 0.027451 0.054902
0.392157 0.027451 0.054902
0.431373 0.027451 0.058824
0.000000 0.129412 0.011765
0.000000 0.129412 0.011765
0.000000 0.129412 0.011765
0.000000 0.129412 0.011765
0.000000 0.129412 0.011765
0.000000 0.129412 0.015686
0.003922 0.121569 0.019608
0.015686 0.105882 0.027451
0.023529 0.086275 0.039216
0.031373 0.082353 0.043137
0.058824 0.086275 0.043137
0.086275 0.090196 0.043137
0.117647 0.090196 0.043137
0.149020 0.090196 0.043137
0.176471 0.090196 0.043137
0.200000 0.086275 0.043137
0.227451 0.082353 0.047059
0.239216 0.078431 0.047059
0.250980 0.074510 0.047059
0.262745 0.070588 0.050980
0.270588 0.070588 0.050980
0.278431 0.066667 0.050980
0.290196 0.062745 0.050980
0.298039 0.058824 0.050980
0.309804 0.058824 0.054902
0.321569 0.054902 0.054902
0.337255 0.050980 0.054902
0.352941 0.050980 0.054902
0.368627 0.047059 0.054902
0.388235 0.043137 0.058824
0.411765 0.043137 0.058824
0.447059 0.047059 0.062745
0.000000 0.149020 0.011765
0.000000 0.168627 0.007843
0.000000 0.176471 0.003922
0.000000 0.172549 0.003922
0.000000 0.172549 0.003922
0.000000 0.164706 0.007843
0.000000 0.156863 0.011765
0.019608 0.145098 0.015686
0.031373 0.121569 0.031373
0.035294 0.101961 0.039216
0.047059 0.094118 0.043137
0.074510 0.098039 0.043137
0.105882 0.101961 0.043137
0.141176 0.101961 0.043137
0.172549 0.105882 0.043137
0.200000 0.101961 0.043137
0.239216 0.101961 0.047059
0.254902 0.098039 0.047059
0.266667 0.094118 0.050980
0.278431 0.090196 0.050980
0.286275 0.086275 0.050980
0.298039 0.082353 0.054902
0.305882 0.078431 0.054902
0.317647 0.074510 0.054902
0.329412 0.074510 0.054902
0.341176 0.070588 0.058824
0.356863 0.070588 0.058824
0.372549 0.066667 0.058824
0.384314 0.062745 0.058824
0.403922 0.062745 0.058824
0.427451 0.062745 0.062745
0.458824 0.066667 0.062745
0.000000 0.180392 0.003922
0.000000 0.203922 0.000000
0.000000 0.207843 0.000000
0.000000 0.207843 0.000000
0.000000 0.203922 0.000000
0.000000 0.200000 0.000000
0.000000 0.192157 0.003922
0.019608 0.180392 0.007843
0.047059 0.160784 0.015686
0.050980 0.137255 0.031373
0.054902 0.117647 0.043137
0.062745 0.109804 0.047059
0.090196 0.109804 0.047059
0.125490 0.113725 0.043137
0.160784 0.117647 0.043137
0.192157 0.117647 0.043137
0.239216 0.117647 0.047059
0.262745 0.117647 0.047059
0.278431 0.113725 0.050980
0.294118 0.109804 0.050980
0.305882 0.105882 0.054902
0.313726 0.101961 0.054902
0.325490 0.098039 0.054902
0.337255 0.094118 0.058824
0.349020 0.094118 0.058824
0.360784 0.090196 0.058824
0.376471 0.090196 0.062745
0.388235 0.086275 0.062745
0.403922 0.086275 0.062745
0.419608 0.082353 0.062745
0.443137 0.082353 0.062745
0.474510 0.090196 0.066667
0.000000 0.207843 0.000000
0.000000 0.231373 0.000000
0.000000 0.239216 0.000000
0.000000 0.239216 0.000000
0.000000 0.235294 0.000000
0.000000 0.231373 0.000000
0.000000 0.223529 0.000000
0.019608 0.215686 0.000000
0.058824 0.200000 0.007843
0.078431 0.180392 0.019608
0.078431 0.156863 0.031373
0.078431 0.133333 0.043137
0.086275 0.125490 0.047059
0.113725 0.125490 0.047059
0.149020 0.129412 0.047059
0.184314 0.133333 0.047059
0.231373 0.137255 0.047059
0.258824 0.133333 0.047059
0.282353 0.133333 0.050980
0.301961 0.129412 0.050980
0.317647 0.129412 0.054902
0.329412 0.125490 0.058824
0.345098 0.121569 0.058824
0.356863 0.117647 0.058824
0.368627 0.117647 0.062745
0.380392 0.113725 0.062745
0.396078 0.109804 0.066667
0.407843 0.109804 0.066667
0.419608 0.105882 0.066667
0.435294 0.105882 0.066667
0.458824 0.105882 0.066667
0.486275 0.113725 0.070588
0.000000 0.274510 0.000000
0.000000 0.274510 0.000000
0.000000 0.274510 0.000000
0.000000 0.274510 0.000000
0.000000 0.274510 0.000000
0.000000 0.270588 0.000000
0.000000 0.266667 0.000000
0.023529 0.258824 0.000000
0.074510 0.247059 0.000000
0.101961 0.231373 0.007843
0.113725 0.207843 0.019608
0.109804 0.180392 0.031373
0.105882 0.156863 0.043137
0.113725 0.145098 0.047059
0.137255 0.145098 0.047059
0.172549 0.145098 0.047059
0.227451 0.152941 0.047059
0.258824 0.152941 0.047059
0.286275 0.156863 0.050980
0.309804 0.156863 0.054902
0.329412 0.152941 0.058824
0.349020 0.152941 0.058824
0.364706 0.149020 0.062745
0.376471 0.145098 0.062745
0.388235 0.145098 0.066667
0.403922 0.141176 0.066667
0.419608 0.141176 0.070588
0.431373 0.137255 0.070588
0.447059 0.137255 0.070588
0.462745 0.133333 0.070588
0.482353 0.137255 0.074510
0.505882 0.145098 0.078431
0.000000 0.278431 0.000000
0.000000 0.309804 0.000000
0.000000 0.317647 0.000000
0.000000 0.317647 0.000000
0.000000 0.313726 0.000000
0.000000 0.305882 0.000000
0.000000 0.301961 0.000000
0.019608 0.294118 0.000000
0.078431 0.282353 0.000000
0.113725 0.270588 0.000000
0.133333 0.250980 0.003922
0.137255 0.223529 0.019608
0.133333 0.196078 0.035294
0.129412 0.172549 0.043137
0.133333 0.156863 0.047059
0.156863 0.156863 0.050980
0.211765 0.164706 0.050980
0.243137 0.168627 0.050980
0.274510 0.168627 0.050980
0.301961 0.172549 0.054902
0.325490 0.172549 0.054902
0.349020 0.172549 0.058824
0.368627 0.172549 0.062745
0.388235 0.172549 0.066667
0.403922 0.168627 0.066667
0.419608 0.168627 0.070588
0.435294 0.168627 0.074510
0.450980 0.164706 0.074510
0.466667 0.164706 0.078431
0.478431 0.164706 0.078431
0.498039 0.164706 0.078431
0.521569 0.172549 0.082353
0.000000 0.309804 0.000000
0.000000 0.337255 0.000000
0.000000 0.349020 0.000000
0.000000 0.345098 0.000000
0.000000 0.341176 0.000000
0.000000 0.337255 0.000000
0.000000 0.329412 0.000000
0.007843 0.325490 0.000000
0.078431 0.317647 0.000000
0.117647 0.305882 0.000000
0.145098 0.290196 0.000000
0.160784 0.270588 0.003922
0.164706 0.243137 0.019608
0.156863 0.211765 0.035294
0.152941 0.188235 0.043137
0.156863 0.172549 0.050980
0.196078 0.172549 0.050980
0.227451 0.176471 0.050980
0.258824 0.180392 0.054902
0.290196 0.184314 0.054902
0.317647 0.188235 0.054902
0.341176 0.188235 0.058824
0.368627 0.192157 0.062745
0.392157 0.192157 0.066667
0.411765 0.196078 0.070588
0.431373 0.196078 0.074510
0.450980 0.196078 0.078431
0.466667 0.196078 0.078431
0.482353 0.192157 0.082353
0.498039 0.192157 0.082353
0.513726 0.196078 0.086275
0.537255 0.200000 0.090196
0.000000 0.333333 0.000000
0.000000 0.360784 0.000000
0.000000 0.372549 0.000000
0.000000 0.372549 0.000000
0.000000 0.364706 0.000000
0.000000 0.360784 0.000000
0.000000 0.356863 0.000000
0.000000 0.352941 0.000000
0.074510 0.349020 0.000000
0.121569 0.341176 0.000000
0.152941 0.329412 0.000000
0.176471 0.313726 0.000000
0.188235 0.290196 0.003922
0.188235 0.262745 0.023529
0.184314 0.231373 0.035294
0.176471 0.203922 0.047059
0.188235 0.188235 0.050980
0.215686 0.188235 0.054902
0.243137 0.192157 0.054902
0.274510 0.196078 0.054902
0.305882 0.200000 0.058824
0.333333 0.203922 0.058824
0.360784 0.207843 0.062745
0.388235 0.211765 0.066667
0.415686 0.215686 0.070588
0.439216 0.219608 0.074510
0.458824 0.223529 0.078431
0.478431 0.219608 0.082353
0.494118 0.219608 0.086275
0.509804 0.223529 0.086275
0.525490 0.223529 0.090196
0.549020 0.231373 0.094118
0.000000 0.372549 0.000000
0.000000 0.396078 0.000000
0.000000 0.407843 0.000000
0.000000 0.407843 0.000000
0.000000 0.403922 0.000000
0.000000 0.403922 0.000000
0.000000 0.400000 0.000000
0.000000 0.400000 0.000000
0.066667 0.396078 0.000000
0.121569 0.392157 0.000000
0.160784 0.384314 0.000000
0.188235 0.372549 0.000000
0.211765 0.360784 0.000000
0.227451 0.341176 0.000000
0.231373 0.313726 0.011765
0.227451 0.282353 0.031373
0.215686 0.239216 0.050980
0.215686 0.219608 0.054902
0.235294 0.215686 0.058824
0.262745 0.219608 0.058824
0.290196 0.227451 0.062745
0.321569 0.231373 0.062745
0.352941 0.239216 0.066667
0.380392 0.243137 0.066667
0.411765 0.250980 0.070588
0.439216 0.254902 0.074510
0.466667 0.262745 0.082353
0.490196 0.266667 0.090196
0.513726 0.270588 0.094118
0.533333 0.274510 0.098039
0.552941 0.278431 0.105882
0.576471 0.286275 0.109804
0.000000 0.403922 0.000000
0.000000 0.427451 0.000000
0.000000 0.435294 0.000000
0.000000 0.435294 0.000000
0.000000 0.431373 0.000000
0.000000 0.431373 0.000000
0.000000 0.427451 0.000000
0.000000 0.423529 0.000000
0.058824 0.423529 0.000000
0.117647 0.419608 0.000000
0.156863 0.411765 0.000000
0.192157 0.403922 0.000000
0.215686 0.392157 0.000000
0.235294 0.380392 0.000000
0.247059 0.356863 0.000000
0.250980 0.329412 0.011765
0.243137 0.282353 0.043137
0.235294 0.254902 0.050980
0.235294 0.235294 0.058824
0.250980 0.231373 0.062745
0.278431 0.235294 0.062745
0.305882 0.239216 0.062745
0.337255 0.247059 0.066667
0.368627 0.254902 0.070588
0.400000 0.266667 0.070588
0.431373 0.274510 0.074510
0.462745 0.282353 0.082353
0.490196 0.290196 0.086275
0.513726 0.294118 0.094118
0.537255 0.301961 0.101961
0.556863 0.305882 0.109804
0.580392 0.317647 0.117647
0.000000 0.431373 0.000000
0.000000 0.450980 0.000000
0.000000 0.458824 0.000000
0.000000 0.458824 0.000000
0.000000 0.454902 0.000000
0.000000 0.450980 0.000000
0.000000 0.450980 0.000000
0.000000 0.447059 0.000000
0.050980 0.447059 0.000000
0.113725 0.447059 0.000000
0.156863 0.443137 0.000000
0.192157 0.435294 0.000000
0.219608 0.427451 0.000000
0.243137 0.415686 0.000000
0.262745 0.400000 0.000000
0.270588 0.380392 0.000000
0.266667 0.329412 0.023529
0.262745 0.298039 0.043137
0.254902 0.270588 0.054902
0.254902 0.250980 0.062745
0.266667 0.247059 0.062745
0.294118 0.250980 0.066667
0.321569 0.258824 0.066667
0.352941 0.266667 0.070588
0.388235 0.278431 0.074510
0.419608 0.286275 0.078431
0.454902 0.298039 0.082353
0.482353 0.305882 0.090196
0.509804 0.313726 0.094118
0.533333 0.321569 0.101961
0.556863 0.329412 0.109804
0.584314 0.341176 0.121569
0.000000 0.458824 0.000000
0.000000 0.474510 0.000000
0.000000 0.482353 0.000000
0.000000 0.482353 0.000000
0.000000 0.478431 0.000000
0.000000 0.478431 0.000000
0.000000 0.474510 0.000000
0.000000 0.474510 0.000000
0.047059 0.474510 0.000000
0.113725 0.474510 0.000000
0.156863 0.470588 0.000000
0.196078 0.466667 0.000000
0.223529 0.458824 0.000000
0.250980 0.450980 0.000000
0.270588 0.435294 0.000000
0.282353 0.419608 0.000000
0.290196 0.376471 0.003922
0.286275 0.345098 0.027451
0.278431 0.313726 0.047059
0.270588 0.286275 0.058824
0.270588 0.266667 0.062745
0.286275 0.262745 0.066667
0.309804 0.266667 0.070588
0.341176 0.274510 0.070588
0.372549 0.286275 0.074510
0.407843 0.298039 0.078431
0.443137 0.309804 0.082353
0.474510 0.321569 0.090196
0.501961 0.329412 0.094118
0.529412 0.341176 0.101961
0.556863 0.349020 0.113725
0.584314 0.360784 0.121569
0.000000 0.486275 0.000000
0.000000 0.498039 0.000000
0.000000 0.501961 0.000000
0.000000 0.501961 0.000000
0.000000 0.501961 0.000000
0.000000 0.501961 0.000000
0.000000 0.501961 0.000000
0.000000 0.501961 0.000000
0.058824 0.505882 0.000000
0.121569 0.505882 0.000000
0.168627 0.505882 0.000000
0.203922 0.501961 0.000000
0.235294 0.498039 0.000000
0.266667 0.494118 0.000000
0.286275 0.482353 0.000000
0.305882 0.470588 0.000000
0.325490 0.443137 0.000000
0.329412 0.415686 0.003922
0.325490 0.384314 0.031373
0.317647 0.352941 0.050980
0.309804 0.325490 0.062745
0.309804 0.305882 0.070588
0.321569 0.298039 0.074510
0.345098 0.301961 0.078431
0.372549 0.309804 0.082353
0.403922 0.321569 0.086275
0.443137 0.333333 0.090196
0.470588 0.345098 0.094118
0.501961 0.356863 0.101961
0.529412 0.364706 0.109804
0.560784 0.376471 0.117647
0.592157 0.392157 0.133333
0.000000 0.517647 0.000000
0.000000 0.525490 0.000000
0.000000 0.529412 0.000000
0.000000 0.529412 0.000000
0.000000 0.529412 0.000000
0.000000 0.529412 0.000000
0.000000 0.529412 0.000000
0.000000 0.529412 0.000000
0.062745 0.529412 0.000000
0.121569 0.525490 0.000000
0.164706 0.525490 0.000000
0.203922 0.525490 0.000000
0.239216 0.525490 0.000000
0.266667 0.517647 0.000000
0.290196 0.513726 0.000000
0.313726 0.501961 0.000000
0.337255 0.482353 0.000000
0.345098 0.458824 0.000000
0.349020 0.431373 0.003922
0.341176 0.400000 0.031373
0.337255 0.372549 0.054902
0.329412 0.345098 0.066667
0.329412 0.325490 0.074510
0.341176 0.317647 0.078431
0.364706 0.321569 0.082353
0.396078 0.333333 0.086275
0.431373 0.345098 0.094118
0.462745 0.356863 0.098039
0.494118 0.368627 0.105882
0.521569 0.380392 0.113725
0.552941 0.392157 0.121569
0.584314 0.411765 0.133333
0.000000 0.541176 0.000000
0.000000 0.549020 0.000000
0.000000 0.552941 0.000000
0.000000 0.552941 0.000000
0.000000 0.549020 0.000000
0.000000 0.549020 0.000000
0.000000 0.549020 0.000000
0.000000 0.549020 0.000000
0.066667 0.549020 0.000000
0.121569 0.549020 0.000000
0.168627 0.549020 0.000000
0.207843 0.549020 0.000000
0.239216 0.549020 0.000000
0.270588 0.545098 0.000000
0.298039 0.541176 0.000000
0.317647 0.533333 0.000000
0.345098 0.513726 0.000000
0.360784 0.498039 0.000000
0.364706 0.478431 0.000000
0.364706 0.450980 0.007843
0.360784 0.419608 0.035294
0.356863 0.392157 0.058824
0.352941 0.364706 0.070588
0.352941 0.349020 0.078431
0.364706 0.341176 0.086275
0.388235 0.349020 0.090196
0.423529 0.360784 0.094118
0.450980 0.372549 0.101961
0.482353 0.384314 0.109804
0.513726 0.396078 0.113725
0.545098 0.407843 0.125490
0.576471 0.427451 0.137255
0.000000 0.564706 0.000000
0.000000 0.572549 0.000000
0.000000 0.572549 0.000000
0.000000 0.572549 0.000000
0.000000 0.572549 0.000000
0.000000 0.572549 0.000000
0.000000 0.572549 0.000000
0.000000 0.572549 0.000000
0.082353 0.572549 0.000000
0.133333 0.572549 0.000000
0.176471 0.572549 0.000000
0.211765 0.572549 0.000000
0.243137 0.572549 0.000000
0.274510 0.572549 0.000000
0.301961 0.568627 0.000000
0.325490 0.560784 0.000000
0.356863 0.545098 0.000000
0.368627 0.533333 0.000000
0.380392 0.517647 0.000000
0.384314 0.494118 0.000000
0.384314 0.470588 0.011765
0.384314 0.443137 0.043137
0.380392 0.415686 0.062745
0.376471 0.392157 0.078431
0.376471 0.376471 0.086275
0.388235 0.368627 0.094118
0.415686 0.372549 0.098039
0.443137 0.384314 0.105882
0.474510 0.396078 0.113725
0.505882 0.407843 0.121569
0.537255 0.423529 0.129412
0.568627 0.443137 0.141176
0.000000 0.603922 0.000000
0.000000 0.607843 0.000000
0.000000 0.611765 0.000000
0.000000 0.607843 0.000000
0.000000 0.607843 0.000000
0.000000 0.607843 0.000000
0.007843 0.607843 0.000000
0.082353 0.607843 0.000000
0.129412 0.611765 0.000000
0.168627 0.611765 0.000000
0.207843 0.611765 0.000000
0.239216 0.615686 0.000000
0.274510 0.615686 0.000000
0.301961 0.615686 0.000000
0.329412 0.611765 0.000000
0.356863 0.611765 0.000000
0.388235 0.600000 0.000000
0.403922 0.588235 0.000000
0.415686 0.576471 0.000000
0.427451 0.560784 0.000000
0.427451 0.537255 0.000000
0.427451 0.509804 0.035294
0.423529 0.482353 0.062745
0.415686 0.454902 0.082353
0.411765 0.431373 0.094118
0.415686 0.415686 0.101961
0.427451 0.407843 0.109804
0.450980 0.411765 0.113725
0.478431 0.419608 0.121569
0.505882 0.431373 0.129412
0.537255 0.447059 0.141176
0.572549 0.470588 0.156863
0.000000 0.631373 0.000000
0.000000 0.635294 0.000000
0.000000 0.635294 0.000000
0.000000 0.635294 0.000000
0.000000 0.635294 0.000000
0.000000 0.635294 0.000000
0.062745 0.635294 0.000000
0.109804 0.635294 0.000000
0.149020 0.635294 0.000000
0.184314 0.635294 0.000000
0.219608 0.635294 0.000000
0.250980 0.639216 0.000000
0.278431 0.639216 0.000000
0.309804 0.639216 0.000000
0.337255 0.639216 0.000000
0.364706 0.635294 0.000000
0.396078 0.627451 0.000000
0.415686 0.619608 0.000000
0.427451 0.607843 0.000000
0.439216 0.596078 0.000000
0.447059 0.576471 0.000000
0.447059 0.552941 0.003922
0.447059 0.529412 0.047059
0.443137 0.505882 0.074510
0.439216 0.478431 0.090196
0.439216 0.458824 0.105882
0.443137 0.443137 0.113725
0.454902 0.435294 0.121569
0.474510 0.439216 0.129412
0.501961 0.450980 0.137255
0.533333 0.466667 0.149020
0.568627 0.486275 0.164706
0.000000 0.662745 0.000000
0.000000 0.666667 0.000000
0.000000 0.666667 0.000000
0.000000 0.666667 0.000000
0.019608 0.666667 0.000000
0.062745 0.666667 0.000000
0.109804 0.666667 0.000000
0.145098 0.666667 0.000000
0.176471 0.666667 0.000000
0.207843 0.666667 0.000000
0.239216 0.670588 0.000000
0.266667 0.670588 0.000000
0.298039 0.670588 0.000000
0.325490 0.670588 0.000000
0.352941 0.670588 0.000000
0.376471 0.670588 0.000000
0.411765 0.662745 0.000000
0.431373 0.658824 0.000000
0.447059 0.647059 0.000000
0.458824 0.639216 0.000000
0.470588 0.623529 0.000000
0.474510 0.607843 0.000000
0.478431 0.584314 0.015686
0.474510 0.560784 0.062745
0.474510 0.537255 0.086275
0.470588 0.513726 0.105882
0.466667 0.490196 0.121569
0.470588 0.474510 0.133333
0.482353 0.470588 0.141176
0.501961 0.474510 0.149020
0.529412 0.486275 0.160784
0.564706 0.505882 0.172549
0.000000 0.694118 0.000000
0.015686 0.694118 0.000000
0.039216 0.698039 0.000000
0.062745 0.694118 0.000000
0.086275 0.694118 0.000000
0.113725 0.694118 0.000000
0.145098 0.694118 0.000000
0.172549 0.694118 0.000000
0.203922 0.698039 0.000000
0.231373 0.698039 0.000000
0.258824 0.698039 0.000000
0.286275 0.698039 0.000000
0.313726 0.701961 0.000000
0.341176 0.701961 0.000000
0.368627 0.701961 0.000000
0.392157 0.701961 0.000000
0.427451 0.694118 0.000000
0.447059 0.690196 0.000000
0.462745 0.682353 0.000000
0.478431 0.674510 0.000000
0.490196 0.662745 0.000000
0.498039 0.650980 0.000000
0.505882 0.635294 0.000000
