luts/film_Glass-bdb50149.cube
TITLE "AB_film_Glass"
LUT_3D_SIZE 5
DOMAIN_MIN 0.000000 0.000000 0.000000
DOMAIN_MAX 0.903226 0.903226 0.903226
0.015686 0.027451 0.027451
0.070588 0.035294 0.035294
0.250980 0.027451 0.050980
0.482353 0.000000 0.078431
0.721569 0.000000 0.113725
0.000000 0.149020 0.019608
0.137255 0.141176 0.023529
0.254902 0.113725 0.062745
0.478431 0.101961 0.090196
0.717647 0.070588 0.117647
0.000000 0.505882 0.000000
0.270588 0.517647 0.000000
0.509804 0.423529 0.000000
0.521569 0.274510 0.098039
0.721569 0.298039 0.141176
0.223529 0.780392 0.000000
0.388235 0.784314 0.000000
0.643137 0.780392 0.000000
0.803922 0.694118 0.000000
0.831373 0.549020 0.090196
0.619608 0.956863 0.250980
0.678431 0.952941 0.262745
0.803922 0.949020 0.278431
0.937255 0.937255 0.262745
1.000000 0.898039 0.082353
0.011765 0.043137 0.086275
0.074510 0.050980 0.094118
0.294118 0.039216 0.109804
0.498039 0.000000 0.121569
0.729412 0.000000 0.145098
0.007843 0.109804 0.098039
0.121569 0.137255 0.113725
0.301961 0.125490 0.117647
0.505882 0.098039 0.129412
0.725490 0.043137 0.149020
0.000000 0.454902 0.125490
0.219608 0.478431 0.113725
0.486275 0.403922 0.109804
0.525490 0.286275 0.149020
0.729412 0.298039 0.168627
0.274510 0.768627 0.164706
0.411765 0.772549 0.172549
0.643137 0.772549 0.176471
0.796078 0.686275 0.109804
0.823529 0.549020 0.164706
0.631373 0.956863 0.333333
0.690196 0.956863 0.341176
0.807843 0.952941 0.352941
0.937255 0.941176 0.345098
1.000000 0.898039 0.215686
0.054902 0.086275 0.211765
0.160784 0.101961 0.239216
0.368627 0.082353 0.262745
0.631373 0.070588 0.262745
0.784314 0.000000 0.258824
0.094118 0.141176 0.207843
0.196078 0.168627 0.235294
0.388235 0.180392 0.266667
0.615686 0.168627 0.262745
0.760784 0.039216 0.247059
0.149020 0.286275 0.227451
0.243137 0.313726 0.247059
0.447059 0.368627 0.278431
0.588235 0.317647 0.254902
0.764706 0.286275 0.247059
0.396078 0.698039 0.368627
0.466667 0.717647 0.376471
0.623529 0.737255 0.372549
0.780392 0.674510 0.317647
0.803922 0.556863 0.298039
0.623529 0.945098 0.466667
0.674510 0.949020 0.470588
0.792157 0.949020 0.474510
0.929412 0.945098 0.478431
0.992157 0.901961 0.388235
0.231373 0.160784 0.400000
0.301961 0.176471 0.419608
0.470588 0.219608 0.466667
0.698039 0.211765 0.482353
0.882353 0.325490 0.478431
0.239216 0.200000 0.380392
0.313726 0.223529 0.403922
0.490196 0.290196 0.458824
0.701961 0.309804 0.482353
0.870588 0.376471 0.470588
0.247059 0.294118 0.360784
0.305882 0.309804 0.372549
0.490196 0.392157 0.427451
0.713726 0.474510 0.482353
0.866667 0.486275 0.478431
0.317647 0.521569 0.400000
0.384314 0.537255 0.411765
0.525490 0.568627 0.435294
0.737255 0.639216 0.482353
0.823529 0.549020 0.419608
0.650980 0.874510 0.596078
0.682353 0.886275 0.607843
0.749020 0.909804 0.623529
0.890196 0.941176 0.639216
0.980392 0.901961 0.552941
0.490196 0.341176 0.619608
0.537255 0.360784 0.627451
0.647059 0.415686 0.658824
0.792157 0.474510 0.694118
0.925490 0.478431 0.694118
0.486275 0.368627 0.607843
0.537255 0.392157 0.619608
0.643137 0.447059 0.647059
0.792157 0.509804 0.686275
0.921569 0.517647 0.694118
0.447059 0.411765 0.572549
0.498039 0.435294 0.588235
0.627451 0.498039 0.623529
0.800000 0.592157 0.690196
0.925490 0.607843 0.701961
0.396078 0.537255 0.549020
0.439216 0.545098 0.556863
0.533333 0.552941 0.568627
0.749020 0.639216 0.639216
0.929412 0.733333 0.725490
0.513726 0.756863 0.600000
0.545098 0.764706 0.607843
0.619608 0.776471 0.619608
0.756863 0.803922 0.654902
0.941176 0.882353 0.764706
