luts/film_Watts-24462829.cube
TITLE "AB_film_Watts"
LUT_3D_SIZE 8
DOMAIN_MIN 0.000000 0.000000 0.000000
DOMAIN_MAX 0.903226 0.903226 0.903226
0.007843 0.007843 0.019608
0.015686 0.007843 0.019608
0.019608 0.011765 0.027451
0.043137 0.019608 0.035294
0.101961 0.027451 0.039216
0.160784 0.027451 0.043137
0.219608 0.019608 0.047059
0.294118 0.003922 0.047059
0.003922 0.027451 0.019608
0.007843 0.027451 0.023529
0.023529 0.027451 0.035294
0.070588 0.039216 0.039216
0.141176 0.039216 0.043137
0.192157 0.031373 0.043137
0.247059 0.023529 0.047059
0.313726 0.011765 0.050980
0.000000 0.129412 0.011765
0.000000 0.129412 0.011765
0.023529 0.086275 0.039216
0.117647 0.090196 0.043137
0.227451 0.082353 0.047059
0.270588 0.070588 0.050980
0.309804 0.058824 0.054902
0.368627 0.047059 0.054902
0.000000 0.274510 0.000000
0.000000 0.274510 0.000000
0.074510 0.247059 0.000000
0.105882 0.156863 0.043137
0.227451 0.152941 0.047059
0.329412 0.152941 0.058824
0.388235 0.145098 0.066667
0.447059 0.137255 0.070588
0.000000 0.372549 0.000000
0.000000 0.403922 0.000000
0.066667 0.396078 0.000000
0.211765 0.360784 0.000000
0.215686 0.239216 0.050980
0.290196 0.227451 0.062745
0.411765 0.250980 0.070588
0.513726 0.270588 0.094118
0.000000 0.486275 0.000000
0.000000 0.501961 0.000000
0.058824 0.505882 0.000000
0.235294 0.498039 0.000000
0.325490 0.443137 0.000000
0.309804 0.325490 0.062745
0.372549 0.309804 0.082353
0.501961 0.356863 0.101961
0.000000 0.603922 0.000000
0.000000 0.607843 0.000000
0.129412 0.611765 0.000000
0.274510 0.615686 0.000000
0.388235 0.600000 0.000000
0.427451 0.537255 0.000000
0.411765 0.431373 0.094118
0.478431 0.419608 0.121569
0.145098 0.745098 0.000000
0.203922 0.752941 0.000000
0.270588 0.749020 0.000000
0.360784 0.749020 0.000000
0.470588 0.749020 0.000000
0.533333 0.725490 0.003922
0.549020 0.654902 0.082353
0.537255 0.564706 0.168627
0.007843 0.007843 0.027451
0.011765 0.007843 0.031373
0.019608 0.015686 0.035294
0.043137 0.027451 0.043137
0.098039 0.031373 0.047059
0.145098 0.031373 0.047059
0.200000 0.023529 0.050980
0.274510 0.007843 0.050980
0.003922 0.023529 0.039216
0.003922 0.027451 0.043137
0.019608 0.035294 0.047059
0.062745 0.043137 0.050980
0.125490 0.039216 0.050980
0.176471 0.035294 0.050980
0.227451 0.027451 0.050980
0.298039 0.015686 0.054902
0.000000 0.121569 0.047059
0.000000 0.121569 0.043137
0.019608 0.082353 0.054902
0.109804 0.090196 0.058824
0.207843 0.082353 0.058824
0.250980 0.070588 0.062745
0.290196 0.058824 0.062745
0.352941 0.047059 0.062745
0.000000 0.262745 0.023529
0.000000 0.258824 0.019608
0.074510 0.235294 0.031373
0.101961 0.152941 0.058824
0.227451 0.152941 0.066667
0.321569 0.152941 0.074510
0.380392 0.141176 0.078431
0.439216 0.133333 0.078431
0.000000 0.372549 0.000000
0.000000 0.400000 0.000000
0.082353 0.392157 0.000000
0.211765 0.356863 0.011765
0.215686 0.239216 0.070588
0.290196 0.227451 0.078431
0.411765 0.250980 0.086275
0.509804 0.274510 0.109804
0.000000 0.486275 0.000000
0.000000 0.505882 0.000000
0.098039 0.505882 0.000000
0.247059 0.501961 0.000000
0.329412 0.443137 0.007843
0.309804 0.325490 0.082353
0.376471 0.309804 0.094118
0.505882 0.356863 0.117647
0.000000 0.603922 0.000000
0.000000 0.611765 0.000000
0.160784 0.615686 0.000000
0.286275 0.619608 0.000000
0.396078 0.603922 0.000000
0.431373 0.537255 0.043137
0.411765 0.431373 0.109804
0.478431 0.423529 0.137255
0.160784 0.749020 0.023529
0.219608 0.760784 0.062745
0.282353 0.752941 0.050980
0.368627 0.752941 0.054902
0.478431 0.752941 0.082353
0.537255 0.725490 0.078431
0.552941 0.654902 0.109804
0.541176 0.564706 0.180392
0.000000 0.015686 0.058824
0.000000 0.019608 0.066667
0.011765 0.015686 0.066667
0.062745 0.031373 0.070588
0.094118 0.031373 0.062745
0.129412 0.031373 0.062745
0.180392 0.027451 0.058824
0.250980 0.011765 0.058824
0.000000 0.027451 0.066667
0.000000 0.035294 0.074510
0.011765 0.043137 0.082353
0.058824 0.043137 0.074510
0.101961 0.043137 0.066667
0.145098 0.039216 0.066667
0.200000 0.031373 0.062745
0.270588 0.015686 0.062745
0.000000 0.086275 0.098039
0.000000 0.094118 0.101961
0.011765 0.086275 0.094118
0.105882 0.090196 0.094118
0.172549 0.078431 0.086275
0.215686 0.066667 0.078431
0.262745 0.058824 0.074510
0.325490 0.043137 0.074510
0.000000 0.231373 0.109804
0.000000 0.231373 0.098039
0.054902 0.219608 0.094118
0.101961 0.152941 0.098039
0.235294 0.160784 0.105882
0.309804 0.152941 0.109804
0.360784 0.137255 0.101961
0.415686 0.125490 0.098039
0.000000 0.352941 0.078431
0.000000 0.376471 0.090196
0.082353 0.372549 0.082353
0.215686 0.349020 0.090196
0.215686 0.235294 0.105882
0.298039 0.235294 0.113725
0.415686 0.258824 0.129412
0.505882 0.274510 0.145098
0.000000 0.474510 0.070588
0.000000 0.494118 0.082353
0.113725 0.494118 0.078431
0.254902 0.494118 0.086275
0.333333 0.443137 0.094118
0.309804 0.321569 0.117647
0.384314 0.317647 0.129412
0.509804 0.364706 0.156863
0.000000 0.596078 0.086275
0.039216 0.607843 0.101961
0.180392 0.611765 0.101961
0.294118 0.615686 0.109804
0.400000 0.600000 0.121569
0.431373 0.537255 0.121569
0.415686 0.431373 0.145098
0.482353 0.427451 0.168627
0.156863 0.745098 0.156863
0.211765 0.756863 0.176471
0.278431 0.752941 0.168627
0.368627 0.756863 0.172549
0.478431 0.756863 0.184314
0.537255 0.725490 0.168627
0.556863 0.658824 0.168627
0.541176 0.568627 0.211765
0.000000 0.023529 0.094118
0.000000 0.027451 0.105882
0.000000 0.031373 0.133333
0.074510 0.031373 0.133333
0.176471 0.031373 0.117647
0.176471 0.031373 0.094118
0.188235 0.027451 0.082353
0.235294 0.011765 0.074510
0.000000 0.039216 0.101961
0.000000 0.043137 0.117647
0.000000 0.050980 0.141176
0.086275 0.050980 0.137255
0.168627 0.050980 0.117647
0.164706 0.043137 0.094118
0.188235 0.031373 0.082353
0.243137 0.015686 0.074510
0.000000 0.066667 0.117647
0.000000 0.074510 0.121569
0.000000 0.098039 0.149020
0.101961 0.098039 0.145098
0.133333 0.074510 0.109804
0.168627 0.062745 0.094118
0.215686 0.050980 0.090196
0.278431 0.031373 0.082353
0.000000 0.160784 0.164706
0.000000 0.168627 0.168627
0.000000 0.188235 0.168627
0.113725 0.160784 0.156863
0.227451 0.160784 0.156863
0.270588 0.141176 0.141176
0.313726 0.117647 0.125490
0.364706 0.098039 0.109804
0.000000 0.321569 0.180392
0.000000 0.349020 0.188235
0.050980 0.345098 0.176471
0.207843 0.337255 0.176471
0.215686 0.235294 0.156863
0.309804 0.247059 0.164706
0.419608 0.266667 0.184314
0.490196 0.262745 0.180392
0.000000 0.458824 0.188235
0.000000 0.474510 0.200000
0.109804 0.478431 0.192157
0.247059 0.482353 0.192157
0.329412 0.435294 0.180392
0.309804 0.321569 0.168627
0.396078 0.333333 0.180392
0.517647 0.376471 0.207843
0.000000 0.588235 0.215686
0.047059 0.600000 0.227451
0.180392 0.603922 0.227451
0.290196 0.611765 0.227451
0.396078 0.600000 0.223529
0.431373 0.537255 0.200000
0.415686 0.435294 0.196078
0.490196 0.439216 0.211765
0.117647 0.741176 0.266667
0.180392 0.752941 0.278431
0.258824 0.752941 0.278431
0.356863 0.756863 0.278431
0.470588 0.756863 0.278431
0.541176 0.733333 0.262745
0.560784 0.666667 0.243137
0.541176 0.568627 0.254902
0.000000 0.039216 0.149020
0.000000 0.043137 0.164706
0.000000 0.050980 0.203922
0.050980 0.050980 0.223529
0.196078 0.035294 0.207843
0.290196 0.039216 0.192157
0.317647 0.039216 0.168627
0.325490 0.007843 0.133333
0.000000 0.047059 0.149020
0.000000 0.054902 0.164706
0.000000 0.066667 0.203922
0.066667 0.070588 0.227451
0.203922 0.058824 0.211765
0.290196 0.066667 0.196078
0.309804 0.054902 0.164706
0.317647 0.015686 0.129412
0.000000 0.066667 0.141176
0.000000 0.070588 0.156863
0.000000 0.098039 0.196078
0.098039 0.117647 0.231373
0.215686 0.109804 0.215686
0.270588 0.105882 0.192157
0.274510 0.070588 0.152941
0.290196 0.031373 0.117647
0.000000 0.105882 0.164706
0.000000 0.113725 0.168627
0.000000 0.129412 0.188235
0.125490 0.176471 0.239216
0.207843 0.164706 0.215686
0.215686 0.117647 0.164706
0.243137 0.090196 0.137255
0.286275 0.058824 0.113725
0.000000 0.239216 0.235294
0.000000 0.262745 0.254902
0.070588 0.278431 0.266667
0.160784 0.298039 0.258824
0.223529 0.243137 0.231373
0.325490 0.258824 0.243137
0.384314 0.235294 0.219608
0.427451 0.192157 0.184314
0.000000 0.415686 0.301961
0.000000 0.435294 0.317647
0.090196 0.443137 0.309804
0.203922 0.450980 0.294118
0.321569 0.431373 0.278431
0.309804 0.321569 0.239216
0.419608 0.352941 0.258824
0.525490 0.380392 0.282353
0.000000 0.568627 0.345098
0.054902 0.584314 0.360784
0.152941 0.592157 0.352941
0.254902 0.592157 0.345098
0.372549 0.592157 0.329412
0.435294 0.549020 0.301961
0.415686 0.435294 0.262745
0.505882 0.454902 0.282353
0.000000 0.737255 0.392157
0.074510 0.752941 0.403922
0.192157 0.756863 0.400000
0.301961 0.760784 0.392157
0.431373 0.756863 0.380392
0.533333 0.745098 0.376471
0.572549 0.686275 0.333333
0.545098 0.572549 0.309804
0.000000 0.050980 0.196078
0.000000 0.054902 0.211765
0.000000 0.062745 0.247059
0.039216 0.074510 0.290196
0.192157 0.066667 0.298039
0.305882 0.054902 0.290196
0.396078 0.078431 0.278431
0.454902 0.086275 0.262745
0.000000 0.054902 0.192157
0.000000 0.062745 0.207843
0.000000 0.074510 0.243137
0.058824 0.094118 0.290196
0.200000 0.086275 0.301961
0.309804 0.082353 0.294118
0.400000 0.101961 0.282353
0.447059 0.098039 0.262745
0.000000 0.066667 0.176471
0.000000 0.074510 0.192157
0.000000 0.098039 0.231373
0.086275 0.129412 0.290196
0.215686 0.133333 0.305882
0.317647 0.133333 0.298039
0.400000 0.152941 0.290196
0.427451 0.113725 0.250980
0.000000 0.090196 0.172549
0.000000 0.094118 0.176471
0.000000 0.109804 0.200000
0.090196 0.164706 0.270588
0.231373 0.192157 0.313726
0.321569 0.200000 0.301961
0.372549 0.184314 0.278431
0.388235 0.117647 0.215686
0.000000 0.160784 0.207843
0.000000 0.172549 0.219608
0.000000 0.184314 0.231373
0.090196 0.203922 0.254902
0.239216 0.262745 0.313726
0.278431 0.227451 0.270588
0.290196 0.168627 0.211765
0.325490 0.109804 0.164706
0.000000 0.325490 0.313726
0.039216 0.345098 0.333333
0.117647 0.356863 0.341176
0.188235 0.380392 0.356863
0.278431 0.403922 0.352941
0.321569 0.341176 0.317647
0.431373 0.364706 0.341176
0.482353 0.313726 0.290196
0.086275 0.513726 0.415686
0.141176 0.529412 0.431373
0.180392 0.537255 0.431373
0.235294 0.549020 0.427451
0.329412 0.564706 0.415686
0.431373 0.560784 0.407843
0.415686 0.439216 0.333333
0.529412 0.474510 0.360784
0.082353 0.698039 0.494118
0.125490 0.713726 0.501961
0.168627 0.721569 0.498039
0.231373 0.733333 0.486275
0.364706 0.749020 0.470588
0.501961 0.756863 0.466667
0.580392 0.709804 0.439216
0.545098 0.576471 0.372549
0.000000 0.058824 0.243137
0.000000 0.062745 0.258824
0.000000 0.074510 0.294118
0.031373 0.094118 0.349020
0.215686 0.113725 0.407843
0.321569 0.105882 0.407843
0.419608 0.105882 0.396078
0.501961 0.141176 0.380392
0.000000 0.062745 0.235294
0.000000 0.066667 0.250980
0.000000 0.082353 0.286275
0.043137 0.105882 0.349020
0.223529 0.133333 0.411765
0.325490 0.125490 0.411765
0.423529 0.129412 0.396078
0.501961 0.160784 0.380392
0.000000 0.070588 0.215686
0.000000 0.074510 0.231373
0.000000 0.094118 0.270588
0.054902 0.129412 0.337255
0.235294 0.172549 0.411765
0.333333 0.172549 0.415686
0.427451 0.176471 0.400000
0.501961 0.203922 0.388235
0.000000 0.074510 0.180392
0.000000 0.078431 0.192157
0.000000 0.098039 0.227451
0.031373 0.145098 0.301961
0.239216 0.223529 0.407843
0.341176 0.231373 0.419608
0.427451 0.235294 0.403922
0.501961 0.258824 0.396078
0.000000 0.113725 0.196078
0.000000 0.117647 0.203922
0.000000 0.121569 0.211765
0.000000 0.137255 0.231373
0.203922 0.247059 0.360784
0.345098 0.305882 0.427451
0.427451 0.313726 0.411765
0.478431 0.282353 0.376471
0.000000 0.203922 0.254902
0.000000 0.211765 0.258824
0.000000 0.219608 0.266667
0.011765 0.235294 0.286275
0.168627 0.270588 0.325490
0.341176 0.380392 0.431373
0.388235 0.329412 0.376471
0.400000 0.219608 0.274510
0.000000 0.419608 0.400000
0.054902 0.427451 0.411765
0.129412 0.439216 0.419608
0.211765 0.462745 0.443137
0.309804 0.498039 0.474510
0.388235 0.533333 0.486275
0.423529 0.458824 0.431373
0.541176 0.474510 0.447059
0.188235 0.631373 0.537255
0.203922 0.639216 0.541176
0.231373 0.647059 0.549020
0.274510 0.666667 0.556863
0.341176 0.701961 0.564706
0.435294 0.741176 0.560784
0.580392 0.749020 0.552941
0.541176 0.584314 0.450980
0.000000 0.078431 0.337255
0.000000 0.082353 0.349020
0.000000 0.094118 0.384314
0.062745 0.117647 0.439216
0.243137 0.160784 0.505882
0.352941 0.176471 0.533333
0.450980 0.176471 0.533333
0.541176 0.200000 0.517647
0.000000 0.082353 0.329412
0.000000 0.086275 0.341176
0.000000 0.098039 0.376471
0.062745 0.125490 0.435294
0.247059 0.172549 0.505882
0.356863 0.192157 0.537255
0.450980 0.192157 0.533333
0.541176 0.215686 0.521569
0.000000 0.082353 0.301961
0.000000 0.090196 0.313726
0.000000 0.105882 0.352941
0.039216 0.137255 0.415686
0.243137 0.200000 0.498039
0.360784 0.231373 0.537255
0.454902 0.231373 0.537255
0.545098 0.250980 0.521569
0.000000 0.078431 0.247059
0.000000 0.082353 0.258824
0.000000 0.101961 0.298039
0.000000 0.141176 0.372549
0.227451 0.223529 0.482353
0.364706 0.286275 0.541176
0.458824 0.286275 0.541176
0.545098 0.305882 0.529412
0.000000 0.078431 0.200000
0.000000 0.078431 0.203922
0.000000 0.082353 0.215686
0.000000 0.105882 0.262745
0.141176 0.207843 0.407843
0.352941 0.341176 0.529412
0.458824 0.360784 0.549020
0.549020 0.372549 0.537255
0.000000 0.125490 0.227451
0.000000 0.129412 0.231373
0.000000 0.129412 0.235294
0.000000 0.133333 0.243137
0.000000 0.145098 0.270588
0.274510 0.317647 0.462745
0.458824 0.435294 0.560784
0.552941 0.439216 0.545098
0.000000 0.258824 0.317647
0.000000 0.262745 0.321569
0.000000 0.266667 0.325490
0.000000 0.270588 0.329412
0.000000 0.278431 0.345098
0.160784 0.301961 0.376471
0.439216 0.498039 0.556863
0.545098 0.498039 0.549020
0.003922 0.533333 0.509804
0.062745 0.541176 0.513726
0.133333 0.545098 0.521569
0.207843 0.560784 0.537255
0.301961 0.588235 0.564706
0.400000 0.631373 0.600000
0.505882 0.694118 0.639216
0.560784 0.611765 0.576471
