luts/film_Watts-24462829.cube
TITLE "AB_film_Watts"
LUT_3D_SIZE 5
DOMAIN_MIN 0.000000 0.000000 0.000000
DOMAIN_MAX 0.903226 0.903226 0.903226
0.007843 0.007843 0.019608
0.015686 0.011765 0.027451
0.066667 0.027451 0.039216
0.172549 0.023529 0.043137
0.294118 0.003922 0.047059
0.000000 0.074510 0.019608
0.011765 0.062745 0.035294
0.156863 0.070588 0.043137
0.254902 0.050980 0.047059
0.345098 0.031373 0.054902
0.000000 0.309804 0.000000
0.007843 0.325490 0.000000
0.152941 0.188235 0.043137
0.341176 0.188235 0.058824
0.482353 0.192157 0.082353
0.000000 0.517647 0.000000
0.000000 0.529412 0.000000
0.290196 0.513726 0.000000
0.329412 0.345098 0.066667
0.494118 0.368627 0.105882
0.145098 0.745098 0.000000
0.250980 0.749020 0.000000
0.407843 0.749020 0.000000
0.545098 0.709804 0.000000
0.537255 0.564706 0.168627
0.003922 0.011765 0.054902
0.007843 0.015686 0.058824
0.066667 0.031373 0.058824
0.145098 0.031373 0.058824
0.258824 0.011765 0.058824
0.000000 0.054902 0.074510
0.003922 0.066667 0.078431
0.117647 0.070588 0.074510
0.207843 0.054902 0.066667
0.309804 0.031373 0.066667
0.000000 0.278431 0.066667
0.011765 0.294118 0.070588
0.152941 0.184314 0.090196
0.337255 0.192157 0.101961
0.462745 0.188235 0.109804
0.000000 0.505882 0.027451
0.074510 0.521569 0.039216
0.305882 0.513726 0.062745
0.329412 0.341176 0.109804
0.498039 0.376471 0.145098
0.156863 0.745098 0.129412
0.262745 0.752941 0.141176
0.419608 0.756863 0.149020
0.549020 0.713726 0.141176
0.541176 0.568627 0.203922
0.000000 0.031373 0.117647
0.000000 0.039216 0.156863
0.129412 0.035294 0.164706
0.231373 0.031373 0.125490
0.258824 0.007843 0.090196
0.000000 0.054902 0.117647
0.000000 0.078431 0.160784
0.141176 0.086275 0.164706
0.196078 0.058824 0.113725
0.247059 0.023529 0.086275
0.000000 0.184314 0.188235
0.000000 0.219608 0.211765
0.160784 0.192157 0.184314
0.305882 0.180392 0.176471
0.388235 0.133333 0.133333
0.000000 0.478431 0.243137
0.062745 0.494118 0.250980
0.290196 0.494118 0.235294
0.329412 0.345098 0.200000
0.513726 0.396078 0.239216
0.070588 0.741176 0.325490
0.215686 0.756863 0.333333
0.392157 0.760784 0.325490
0.552941 0.725490 0.301961
0.541176 0.572549 0.278431
0.000000 0.050980 0.207843
0.000000 0.062745 0.247059
0.117647 0.082353 0.321569
0.337255 0.066667 0.317647
0.474510 0.109804 0.298039
0.000000 0.062745 0.180392
0.000000 0.082353 0.223529
0.141176 0.129412 0.321569
0.337255 0.125490 0.313726
0.454902 0.133333 0.286275
0.000000 0.101961 0.180392
0.000000 0.113725 0.196078
0.149020 0.200000 0.298039
0.345098 0.235294 0.325490
0.392157 0.141176 0.235294
0.000000 0.345098 0.329412
0.094118 0.364706 0.352941
0.227451 0.407843 0.380392
0.345098 0.368627 0.341176
0.494118 0.345098 0.321569
0.121569 0.682353 0.509804
0.172549 0.701961 0.517647
0.274510 0.733333 0.501961
0.521569 0.756863 0.486275
0.545098 0.580392 0.392157
0.000000 0.078431 0.337255
0.000000 0.090196 0.372549
0.152941 0.137255 0.470588
0.376471 0.172549 0.533333
0.541176 0.200000 0.517647
0.000000 0.082353 0.305882
0.000000 0.098039 0.349020
0.141176 0.156863 0.454902
0.376471 0.211765 0.529412
0.541176 0.239216 0.517647
0.000000 0.070588 0.215686
0.000000 0.086275 0.247059
0.047059 0.164706 0.384314
0.384314 0.313726 0.541176
0.545098 0.329412 0.529412
0.000000 0.149020 0.243137
0.000000 0.152941 0.247059
0.000000 0.156863 0.262745
0.309804 0.356863 0.478431
0.552941 0.454902 0.549020
0.003922 0.533333 0.509804
0.113725 0.545098 0.521569
0.247059 0.572549 0.545098
0.423529 0.647059 0.611765
0.560784 0.611765 0.576471
