luts/film_Glass-bdb50149.cube
TITLE "AB_film_Glass"
LUT_3D_SIZE 32
0.015686 0.027451 0.027451
0.015686 0.027451 0.027451
0.019608 0.027451 0.027451
0.023529 0.031373 0.031373
0.031373 0.031373 0.031373
0.043137 0.031373 0.031373
0.054902 0.035294 0.035294
0.070588 0.035294 0.035294
0.086275 0.035294 0.039216
0.105882 0.039216 0.039216
0.129412 0.039216 0.039216
0.156863 0.035294 0.043137
0.184314 0.035294 0.043137
0.215686 0.031373 0.047059
0.250980 0.027451 0.050980
0.282353 0.019608 0.054902
0.333333 0.007843 0.058824
0.360784 0.000000 0.062745
0.392157 0.000000 0.066667
0.419608 0.000000 0.070588
0.450980 0.000000 0.074510
0.482353 0.000000 0.078431
0.513726 0.000000 0.082353
0.545098 0.000000 0.090196
0.576471 0.000000 0.094118
0.611765 0.000000 0.098039
0.650980 0.000000 0.101961
0.686275 0.000000 0.109804
0.721569 0.000000 0.113725
0.760784 0.000000 0.121569
0.800000 0.000000 0.129412
0.843137 0.000000 0.141176
0.015686 0.031373 0.027451
0.015686 0.031373 0.027451
0.019608 0.031373 0.027451
0.023529 0.035294 0.031373
0.031373 0.035294 0.031373
0.039216 0.039216 0.035294
0.054902 0.039216 0.035294
0.066667 0.043137 0.035294
0.086275 0.043137 0.039216
0.105882 0.043137 0.039216
0.129412 0.043137 0.039216
0.156863 0.043137 0.043137
0.184314 0.043137 0.043137
0.215686 0.039216 0.047059
0.250980 0.035294 0.050980
0.282353 0.027451 0.054902
0.329412 0.015686 0.062745
0.360784 0.007843 0.066667
0.392157 0.000000 0.070588
0.419608 0.000000 0.074510
0.447059 0.000000 0.074510
0.478431 0.000000 0.078431
0.509804 0.000000 0.086275
0.545098 0.000000 0.090196
0.576471 0.000000 0.094118
0.611765 0.000000 0.098039
0.650980 0.000000 0.101961
0.686275 0.000000 0.109804
0.721569 0.000000 0.113725
0.760784 0.000000 0.121569
0.800000 0.000000 0.129412
0.843137 0.000000 0.141176
0.011765 0.039216 0.027451
0.015686 0.043137 0.027451
0.019608 0.043137 0.027451
0.023529 0.039216 0.031373
0.027451 0.043137 0.035294
0.039216 0.047059 0.035294
0.050980 0.047059 0.035294
0.066667 0.047059 0.035294
0.082353 0.050980 0.039216
0.101961 0.050980 0.039216
0.125490 0.050980 0.039216
0.152941 0.050980 0.043137
0.184314 0.050980 0.047059
0.215686 0.047059 0.047059
0.250980 0.043137 0.050980
0.282353 0.039216 0.054902
0.329412 0.027451 0.062745
0.360784 0.019608 0.066667
0.388235 0.011765 0.070588
0.419608 0.003922 0.074510
0.447059 0.000000 0.078431
0.478431 0.000000 0.082353
0.509804 0.000000 0.086275
0.541176 0.000000 0.090196
0.576471 0.000000 0.094118
0.611765 0.000000 0.098039
0.650980 0.000000 0.101961
0.686275 0.000000 0.109804
0.721569 0.000000 0.113725
0.756863 0.000000 0.121569
0.796078 0.000000 0.129412
0.843137 0.000000 0.141176
0.007843 0.054902 0.027451
0.011765 0.054902 0.027451
0.019608 0.054902 0.027451
0.027451 0.054902 0.027451
0.031373 0.050980 0.031373
0.035294 0.050980 0.035294
0.047059 0.054902 0.035294
0.062745 0.054902 0.039216
0.078431 0.058824 0.039216
0.101961 0.058824 0.039216
0.125490 0.058824 0.043137
0.152941 0.058824 0.043137
0.184314 0.058824 0.047059
0.215686 0.058824 0.050980
0.250980 0.054902 0.054902
0.278431 0.050980 0.058824
0.329412 0.043137 0.062745
0.360784 0.035294 0.066667
0.388235 0.027451 0.070588
0.415686 0.015686 0.074510
0.447059 0.007843 0.078431
0.478431 0.000000 0.082353
0.509804 0.000000 0.086275
0.541176 0.000000 0.090196
0.576471 0.000000 0.094118
0.611765 0.000000 0.098039
0.650980 0.000000 0.105882
0.686275 0.000000 0.109804
0.721569 0.000000 0.113725
0.756863 0.000000 0.121569
0.796078 0.000000 0.129412
0.839216 0.000000 0.141176
0.003922 0.070588 0.027451
0.011765 0.074510 0.027451
0.015686 0.074510 0.027451
0.027451 0.074510 0.027451
0.039216 0.070588 0.027451
0.050980 0.066667 0.027451
0.054902 0.062745 0.035294
0.062745 0.066667 0.039216
0.082353 0.066667 0.039216
0.101961 0.070588 0.043137
0.129412 0.070588 0.043137
0.156863 0.070588 0.047059
0.192157 0.070588 0.050980
0.223529 0.070588 0.054902
0.254902 0.066667 0.058824
0.286275 0.062745 0.058824
0.333333 0.058824 0.066667
0.364706 0.050980 0.070588
0.392157 0.047059 0.070588
0.419608 0.039216 0.074510
0.450980 0.027451 0.078431
0.482353 0.015686 0.082353
0.513726 0.003922 0.086275
0.545098 0.000000 0.090196
0.576471 0.000000 0.094118
0.611765 0.000000 0.098039
0.650980 0.000000 0.105882
0.686275 0.000000 0.109804
0.721569 0.000000 0.117647
0.760784 0.000000 0.121569
0.796078 0.000000 0.129412
0.839216 0.000000 0.141176
0.000000 0.094118 0.027451
0.003922 0.094118 0.023529
0.011765 0.094118 0.023529
0.027451 0.094118 0.027451
0.043137 0.094118 0.027451
0.058824 0.090196 0.027451
0.074510 0.082353 0.027451
0.078431 0.078431 0.035294
0.086275 0.078431 0.039216
0.105882 0.078431 0.043137
0.129412 0.082353 0.047059
0.160784 0.082353 0.050980
0.192157 0.082353 0.054902
0.223529 0.082353 0.054902
0.254902 0.082353 0.058824
0.282353 0.078431 0.062745
0.333333 0.074510 0.066667
0.360784 0.070588 0.070588
0.392157 0.066667 0.074510
0.419608 0.062745 0.078431
0.447059 0.054902 0.082353
0.478431 0.047059 0.086275
0.509804 0.035294 0.090196
0.545098 0.023529 0.094118
0.576471 0.007843 0.098039
0.611765 0.000000 0.101961
0.650980 0.000000 0.105882
0.686275 0.000000 0.109804
0.721569 0.000000 0.117647
0.756863 0.000000 0.121569
0.796078 0.000000 0.133333
0.843137 0.007843 0.141176
0.000000 0.121569 0.023529
0.000000 0.121569 0.023529
0.007843 0.121569 0.023529
0.023529 0.125490 0.023529
0.047059 0.121569 0.023529
0.070588 0.121569 0.023529
0.094118 0.113725 0.027451
0.109804 0.105882 0.027451
0.117647 0.098039 0.031373
0.125490 0.094118 0.039216
0.141176 0.094118 0.047059
0.164706 0.098039 0.050980
0.192157 0.098039 0.054902
0.223529 0.098039 0.058824
0.254902 0.098039 0.062745
0.282353 0.098039 0.066667
0.333333 0.094118 0.070588
0.360784 0.094118 0.074510
0.388235 0.090196 0.078431
0.419608 0.086275 0.078431
0.447059 0.082353 0.082353
0.478431 0.074510 0.086275
0.509804 0.070588 0.090196
0.541176 0.062745 0.094118
0.576471 0.054902 0.098039
0.611765 0.043137 0.101961
0.650980 0.031373 0.105882
0.686275 0.023529 0.113725
0.721569 0.019608 0.117647
0.756863 0.023529 0.125490
0.796078 0.035294 0.133333
0.839216 0.070588 0.145098
0.000000 0.149020 0.019608
0.000000 0.152941 0.019608
0.000000 0.152941 0.019608
0.015686 0.152941 0.019608
0.047059 0.152941 0.019608
0.078431 0.152941 0.023529
0.113725 0.149020 0.023529
0.137255 0.141176 0.023529
0.156863 0.133333 0.023529
0.160784 0.117647 0.031373
0.168627 0.113725 0.039216
0.180392 0.113725 0.047059
0.200000 0.113725 0.054902
0.227451 0.113725 0.062745
0.254902 0.113725 0.062745
0.282353 0.113725 0.066667
0.333333 0.113725 0.074510
0.360784 0.113725 0.078431
0.388235 0.109804 0.078431
0.415686 0.105882 0.082353
0.447059 0.105882 0.086275
0.478431 0.101961 0.090196
0.509804 0.098039 0.094118
0.541176 0.090196 0.098039
0.576471 0.086275 0.101961
0.611765 0.082353 0.105882
0.650980 0.074510 0.109804
0.682353 0.070588 0.113725
0.717647 0.070588 0.117647
0.752941 0.074510 0.125490
0.792157 0.086275 0.133333
0.839216 0.109804 0.145098
0.000000 0.196078 0.015686
0.000000 0.196078 0.015686
0.000000 0.196078 0.015686
0.007843 0.200000 0.015686
0.050980 0.200000 0.015686
0.098039 0.200000 0.015686
0.141176 0.196078 0.019608
0.172549 0.188235 0.019608
0.196078 0.176471 0.023529
0.211765 0.164706 0.023529
0.219608 0.145098 0.027451
0.219608 0.137255 0.039216
0.227451 0.133333 0.050980
0.243137 0.133333 0.058824
0.266667 0.133333 0.066667
0.290196 0.133333 0.070588
0.337255 0.133333 0.078431
0.364706 0.133333 0.078431
0.392157 0.133333 0.082353
0.419608 0.129412 0.086275
0.450980 0.129412 0.090196
0.478431 0.125490 0.094118
0.509804 0.121569 0.094118
0.545098 0.117647 0.098039
0.576471 0.117647 0.101961
0.611765 0.113725 0.105882
0.650980 0.109804 0.109804
0.686275 0.109804 0.117647
0.721569 0.109804 0.121569
0.756863 0.117647 0.129412
0.796078 0.125490 0.137255
0.835294 0.145098 0.145098
0.000000 0.235294 0.007843
0.000000 0.243137 0.007843
0.000000 0.247059 0.007843
0.000000 0.247059 0.007843
0.054902 0.247059 0.007843
0.109804 0.243137 0.007843
0.160784 0.243137 0.011765
0.196078 0.235294 0.015686
0.227451 0.227451 0.019608
0.247059 0.211765 0.019608
0.258824 0.192157 0.019608
0.266667 0.172549 0.027451
0.266667 0.160784 0.039216
0.270588 0.152941 0.050980
0.282353 0.152941 0.062745
0.301961 0.152941 0.070588
0.341176 0.152941 0.078431
0.364706 0.152941 0.082353
0.392157 0.152941 0.086275
0.419608 0.149020 0.090196
0.450980 0.149020 0.094118
0.478431 0.149020 0.094118
0.509804 0.145098 0.098039
0.541176 0.145098 0.101961
0.576471 0.145098 0.105882
0.611765 0.141176 0.109804
0.650980 0.141176 0.113725
0.686275 0.145098 0.117647
0.721569 0.145098 0.125490
0.756863 0.149020 0.129412
0.796078 0.160784 0.137255
0.835294 0.176471 0.149020
0.000000 0.282353 0.000000
0.000000 0.294118 0.000000
0.000000 0.294118 0.000000
0.000000 0.294118 0.000000
0.062745 0.294118 0.000000
0.117647 0.294118 0.000000
0.172549 0.290196 0.000000
0.215686 0.286275 0.003922
0.250980 0.278431 0.007843
0.278431 0.266667 0.011765
0.298039 0.247059 0.015686
0.309804 0.227451 0.015686
0.317647 0.203922 0.023529
0.313726 0.184314 0.035294
0.313726 0.176471 0.050980
0.321569 0.172549 0.062745
0.349020 0.172549 0.078431
0.372549 0.172549 0.082353
0.396078 0.172549 0.086275
0.423529 0.172549 0.090196
0.450980 0.172549 0.094118
0.478431 0.172549 0.098039
0.509804 0.172549 0.101961
0.541176 0.172549 0.105882
0.576471 0.172549 0.109804
0.611765 0.172549 0.113725
0.650980 0.172549 0.117647
0.682353 0.172549 0.121569
0.717647 0.176471 0.125490
0.752941 0.184314 0.133333
0.792157 0.192157 0.141176
0.835294 0.207843 0.149020
0.000000 0.333333 0.000000
0.000000 0.345098 0.000000
0.000000 0.349020 0.000000
0.000000 0.349020 0.000000
0.066667 0.345098 0.000000
0.129412 0.345098 0.000000
0.188235 0.345098 0.000000
0.231373 0.341176 0.000000
0.274510 0.333333 0.000000
0.305882 0.325490 0.000000
0.333333 0.309804 0.003922
0.349020 0.290196 0.007843
0.360784 0.266667 0.011765
0.368627 0.239216 0.019608
0.364706 0.215686 0.035294
0.360784 0.203922 0.050980
0.372549 0.196078 0.070588
0.384314 0.196078 0.082353
0.403922 0.196078 0.090196
0.427451 0.196078 0.094118
0.454902 0.196078 0.098039
0.482353 0.196078 0.101961
0.513726 0.196078 0.105882
0.545098 0.196078 0.105882
0.576471 0.196078 0.109804
0.611765 0.200000 0.113725
0.650980 0.200000 0.117647
0.682353 0.203922 0.125490
0.717647 0.207843 0.129412
0.752941 0.211765 0.133333
0.788235 0.219608 0.141176
0.831373 0.239216 0.152941
0.000000 0.407843 0.000000
0.000000 0.407843 0.000000
0.000000 0.407843 0.000000
0.000000 0.407843 0.000000
0.074510 0.407843 0.000000
0.141176 0.407843 0.000000
0.200000 0.407843 0.000000
0.250980 0.403922 0.000000
0.298039 0.400000 0.000000
0.337255 0.392157 0.000000
0.368627 0.376471 0.000000
0.392157 0.356863 0.000000
0.407843 0.333333 0.000000
0.415686 0.309804 0.003922
0.419608 0.278431 0.011765
0.415686 0.250980 0.031373
0.411765 0.227451 0.058824
0.415686 0.223529 0.074510
0.427451 0.219608 0.086275
0.443137 0.219608 0.094118
0.466667 0.219608 0.098039
0.490196 0.219608 0.101961
0.517647 0.219608 0.105882
0.549020 0.223529 0.109804
0.580392 0.223529 0.113725
0.611765 0.227451 0.117647
0.650980 0.231373 0.121569
0.686275 0.235294 0.125490
0.721569 0.239216 0.133333
0.752941 0.243137 0.137255
0.792157 0.254902 0.145098
0.831373 0.270588 0.156863
0.000000 0.450980 0.000000
0.000000 0.466667 0.000000
0.000000 0.470588 0.000000
0.000000 0.470588 0.000000
0.082353 0.470588 0.000000
0.149020 0.466667 0.000000
0.211765 0.466667 0.000000
0.262745 0.462745 0.000000
0.309804 0.458824 0.000000
0.356863 0.454902 0.000000
0.392157 0.443137 0.000000
0.423529 0.427451 0.000000
0.447059 0.403922 0.000000
0.458824 0.380392 0.000000
0.466667 0.352941 0.000000
0.470588 0.321569 0.003922
0.462745 0.274510 0.035294
0.458824 0.258824 0.058824
0.458824 0.250980 0.074510
0.466667 0.247059 0.086275
0.482353 0.247059 0.094118
0.501961 0.247059 0.101961
0.525490 0.247059 0.109804
0.552941 0.247059 0.113725
0.584314 0.250980 0.117647
0.615686 0.254902 0.121569
0.650980 0.258824 0.125490
0.686275 0.262745 0.129412
0.721569 0.266667 0.137255
0.752941 0.274510 0.141176
0.788235 0.282353 0.149020
0.827451 0.301961 0.160784
0.000000 0.505882 0.000000
0.000000 0.517647 0.000000
0.000000 0.525490 0.000000
0.000000 0.525490 0.000000
0.090196 0.521569 0.000000
0.156863 0.521569 0.000000
0.219608 0.517647 0.000000
0.270588 0.517647 0.000000
0.321569 0.513726 0.000000
0.368627 0.509804 0.000000
0.411765 0.501961 0.000000
0.447059 0.490196 0.000000
0.474510 0.474510 0.000000
0.498039 0.450980 0.000000
0.509804 0.423529 0.000000
0.517647 0.396078 0.000000
0.517647 0.341176 0.003922
0.509804 0.313726 0.031373
0.505882 0.294118 0.054902
0.505882 0.282353 0.070588
0.509804 0.274510 0.086275
0.521569 0.274510 0.098039
0.541176 0.274510 0.105882
0.560784 0.274510 0.113725
0.588235 0.278431 0.117647
0.619608 0.282353 0.125490
0.654902 0.286275 0.129412
0.686275 0.290196 0.133333
0.721569 0.298039 0.141176
0.752941 0.301961 0.145098
0.784314 0.309804 0.152941
0.823529 0.329412 0.160784
0.000000 0.552941 0.000000
0.000000 0.564706 0.000000
0.000000 0.568627 0.000000
0.003922 0.568627 0.000000
0.098039 0.568627 0.000000
0.164706 0.564706 0.000000
0.227451 0.564706 0.000000
0.278431 0.564706 0.000000
0.329412 0.564706 0.000000
0.380392 0.560784 0.000000
0.423529 0.556863 0.000000
0.462745 0.549020 0.000000
0.498039 0.537255 0.000000
0.525490 0.517647 0.000000
0.545098 0.498039 0.000000
0.556863 0.470588 0.000000
0.564706 0.415686 0.000000
0.564706 0.380392 0.000000
0.556863 0.349020 0.019608
0.552941 0.329412 0.047059
0.549020 0.313726 0.070588
0.552941 0.305882 0.086275
0.564706 0.305882 0.098039
0.580392 0.305882 0.109804
0.603922 0.305882 0.117647
0.627451 0.309804 0.125490
0.658824 0.313726 0.133333
0.690196 0.317647 0.137255
0.717647 0.321569 0.141176
0.749020 0.329412 0.149020
0.780392 0.337255 0.152941
0.819608 0.352941 0.164706
0.000000 0.619608 0.000000
0.000000 0.627451 0.000000
0.000000 0.631373 0.000000
0.066667 0.631373 0.000000
0.133333 0.631373 0.000000
0.184314 0.631373 0.000000
0.243137 0.627451 0.000000
0.290196 0.627451 0.000000
0.341176 0.627451 0.000000
0.388235 0.627451 0.000000
0.435294 0.627451 0.000000
0.482353 0.623529 0.000000
0.521569 0.615686 0.000000
0.556863 0.603922 0.000000
0.584314 0.592157 0.000000
0.607843 0.572549 0.000000
0.631373 0.533333 0.000000
0.635294 0.505882 0.000000
0.639216 0.470588 0.000000
0.639216 0.435294 0.000000
0.635294 0.407843 0.011765
0.627451 0.384314 0.047059
0.627451 0.372549 0.070588
0.631373 0.364706 0.090196
0.643137 0.360784 0.105882
0.658824 0.360784 0.121569
0.682353 0.364706 0.133333
0.705882 0.368627 0.141176
0.733333 0.376471 0.149020
0.760784 0.380392 0.156863
0.792157 0.392157 0.164706
0.827451 0.407843 0.176471
0.000000 0.654902 0.000000
0.000000 0.662745 0.000000
0.058824 0.666667 0.000000
0.113725 0.666667 0.000000
0.160784 0.666667 0.000000
0.207843 0.662745 0.000000
0.258824 0.662745 0.000000
0.301961 0.662745 0.000000
0.349020 0.662745 0.000000
0.396078 0.662745 0.000000
0.443137 0.662745 0.000000
0.486275 0.658824 0.000000
0.525490 0.654902 0.000000
0.564706 0.647059 0.000000
0.596078 0.635294 0.000000
0.623529 0.623529 0.000000
0.654902 0.592157 0.000000
0.666667 0.568627 0.000000
0.670588 0.537255 0.000000
0.674510 0.505882 0.000000
0.678431 0.474510 0.000000
0.674510 0.443137 0.000000
0.670588 0.423529 0.039216
0.670588 0.407843 0.066667
0.674510 0.400000 0.090196
0.686275 0.396078 0.109804
0.701961 0.396078 0.125490
0.717647 0.400000 0.137255
0.741176 0.403922 0.149020
0.764706 0.411765 0.156863
0.792157 0.419608 0.168627
0.827451 0.435294 0.180392
0.000000 0.686275 0.000000
0.074510 0.694118 0.000000
0.117647 0.698039 0.000000
0.152941 0.698039 0.000000
0.188235 0.698039 0.000000
0.227451 0.694118 0.000000
0.274510 0.694118 0.000000
0.317647 0.694118 0.000000
0.360784 0.694118 0.000000
0.403922 0.694118 0.000000
0.447059 0.694118 0.000000
0.494118 0.694118 0.000000
0.533333 0.690196 0.000000
0.572549 0.686275 0.000000
0.607843 0.678431 0.000000
0.639216 0.666667 0.000000
0.674510 0.643137 0.000000
0.690196 0.623529 0.000000
0.701961 0.600000 0.000000
0.705882 0.572549 0.000000
0.709804 0.541176 0.000000
0.717647 0.509804 0.000000
0.713726 0.482353 0.000000
0.709804 0.458824 0.027451
0.713726 0.447059 0.062745
0.717647 0.435294 0.090196
0.725490 0.431373 0.109804
0.737255 0.431373 0.129412
0.752941 0.435294 0.141176
0.772549 0.439216 0.156863
0.796078 0.447059 0.168627
0.823529 0.458824 0.180392
0.098039 0.717647 0.000000
0.137255 0.725490 0.000000
0.164706 0.725490 0.000000
0.192157 0.725490 0.000000
0.223529 0.725490 0.000000
0.254902 0.725490 0.000000
0.298039 0.725490 0.000000
0.337255 0.725490 0.000000
0.376471 0.725490 0.000000
0.415686 0.725490 0.000000
0.458824 0.725490 0.000000
0.501961 0.725490 0.000000
0.541176 0.721569 0.000000
0.580392 0.717647 0.000000
0.615686 0.713726 0.000000
0.647059 0.705882 0.000000
0.690196 0.686275 0.000000
0.709804 0.670588 0.000000
0.725490 0.650980 0.000000
0.733333 0.627451 0.000000
0.741176 0.603922 0.000000
0.745098 0.576471 0.000000
0.749020 0.545098 0.000000
0.749020 0.517647 0.000000
0.749020 0.494118 0.015686
0.749020 0.478431 0.054902
0.752941 0.470588 0.090196
0.760784 0.462745 0.109804
0.768627 0.462745 0.129412
0.784314 0.466667 0.149020
0.803922 0.474510 0.164706
0.831373 0.486275 0.180392
0.164706 0.749020 0.000000
0.188235 0.752941 0.000000
0.211765 0.756863 0.000000
0.231373 0.756863 0.000000
0.258824 0.756863 0.000000
0.286275 0.756863 0.000000
0.325490 0.756863 0.000000
0.360784 0.756863 0.000000
0.396078 0.756863 0.000000
0.435294 0.756863 0.000000
0.474510 0.756863 0.000000
0.517647 0.756863 0.000000
0.556863 0.756863 0.000000
0.596078 0.752941 0.000000
0.631373 0.749020 0.000000
0.662745 0.745098 0.000000
0.709804 0.733333 0.000000
0.733333 0.721569 0.000000
0.752941 0.705882 0.000000
0.764706 0.686275 0.000000
0.772549 0.666667 0.000000
0.780392 0.643137 0.000000
0.784314 0.615686 0.000000
0.792157 0.588235 0.000000
0.792157 0.560784 0.000000
0.792157 0.537255 0.003922
0.792157 0.521569 0.058824
0.800000 0.513726 0.090196
0.803922 0.509804 0.117647
0.815686 0.509804 0.141176
0.831373 0.513726 0.160784
0.854902 0.529412 0.188235
0.223529 0.780392 0.000000
0.243137 0.784314 0.000000
0.258824 0.784314 0.000000
0.278431 0.784314 0.000000
0.298039 0.784314 0.000000
0.325490 0.784314 0.000000
0.356863 0.784314 0.000000
0.388235 0.784314 0.000000
0.419608 0.784314 0.000000
0.454902 0.784314 0.000000
0.494118 0.784314 0.000000
0.529412 0.784314 0.000000
0.568627 0.784314 0.000000
0.607843 0.780392 0.000000
0.643137 0.780392 0.000000
0.674510 0.776471 0.000000
0.721569 0.764706 0.000000
0.745098 0.756863 0.000000
0.764706 0.745098 0.000000
0.784314 0.729412 0.000000
0.796078 0.713726 0.000000
0.803922 0.694118 0.000000
0.811765 0.670588 0.000000
0.815686 0.647059 0.000000
0.823529 0.619608 0.000000
0.823529 0.596078 0.000000
0.827451 0.572549 0.000000
0.827451 0.556863 0.050980
0.831373 0.549020 0.090196
0.839216 0.545098 0.117647
0.850980 0.545098 0.145098
0.870588 0.556863 0.176471
0.274510 0.807843 0.000000
0.294118 0.811765 0.000000
0.305882 0.811765 0.000000
0.321569 0.811765 0.000000
0.337255 0.811765 0.000000
0.360784 0.811765 0.000000
0.388235 0.811765 0.000000
0.415686 0.811765 0.000000
0.447059 0.811765 0.000000
0.478431 0.811765 0.000000
0.513726 0.811765 0.000000
0.549020 0.811765 0.000000
0.584314 0.807843 0.000000
0.619608 0.807843 0.000000
0.654902 0.807843 0.000000
0.686275 0.803922 0.000000
0.733333 0.796078 0.000000
0.760784 0.792157 0.000000
0.780392 0.780392 0.000000
0.800000 0.768627 0.000000
0.811765 0.756863 0.000000
0.823529 0.741176 0.000000
0.831373 0.721569 0.000000
0.839216 0.698039 0.000000
0.843137 0.678431 0.000000
0.850980 0.650980 0.000000
0.854902 0.627451 0.000000
0.854902 0.607843 0.000000
0.858824 0.592157 0.043137
0.862745 0.580392 0.086275
0.870588 0.580392 0.121569
0.886275 0.588235 0.156863
0.317647 0.831373 0.000000
0.337255 0.835294 0.000000
0.352941 0.835294 0.000000
0.360784 0.835294 0.000000
0.376471 0.835294 0.000000
0.396078 0.835294 0.000000
0.419608 0.835294 0.000000
0.447059 0.835294 0.000000
0.474510 0.835294 0.000000
0.505882 0.835294 0.000000
0.537255 0.835294 0.007843
0.568627 0.835294 0.011765
0.603922 0.835294 0.019608
0.639216 0.835294 0.023529
0.670588 0.831373 0.031373
0.701961 0.831373 0.031373
0.745098 0.823529 0.019608
0.768627 0.819608 0.007843
0.792157 0.811765 0.000000
0.811765 0.800000 0.000000
0.827451 0.792157 0.000000
0.839216 0.776471 0.000000
0.850980 0.764706 0.000000
0.858824 0.745098 0.000000
0.866667 0.725490 0.000000
0.870588 0.705882 0.000000
0.878431 0.678431 0.000000
0.882353 0.658824 0.000000
0.886275 0.639216 0.000000
0.890196 0.627451 0.039216
0.894118 0.619608 0.090196
0.905882 0.623529 0.129412
0.388235 0.862745 0.054902
0.403922 0.866667 0.066667
0.411765 0.866667 0.070588
0.423529 0.866667 0.070588
0.435294 0.866667 0.070588
0.450980 0.866667 0.070588
0.474510 0.866667 0.074510
0.498039 0.866667 0.078431
0.521569 0.866667 0.082353
0.549020 0.866667 0.086275
0.580392 0.866667 0.090196
0.607843 0.862745 0.094118
0.639216 0.862745 0.098039
0.670588 0.862745 0.101961
0.701961 0.862745 0.105882
0.729412 0.862745 0.109804
0.776471 0.858824 0.105882
0.800000 0.854902 0.098039
0.819608 0.850980 0.086275
0.839216 0.843137 0.066667
0.854902 0.835294 0.043137
0.870588 0.827451 0.011765
0.882353 0.815686 0.000000
0.890196 0.800000 0.000000
0.898039 0.784314 0.000000
0.901961 0.768627 0.000000
0.909804 0.745098 0.000000
0.913725 0.725490 0.000000
0.921569 0.705882 0.000000
0.925490 0.686275 0.000000
0.929412 0.678431 0.043137
0.941176 0.678431 0.105882
0.439216 0.886275 0.101961
0.454902 0.890196 0.113725
0.462745 0.890196 0.117647
0.470588 0.890196 0.117647
0.482353 0.890196 0.117647
0.494118 0.886275 0.117647
0.513726 0.886275 0.117647
0.533333 0.886275 0.121569
0.556863 0.886275 0.125490
0.584314 0.886275 0.129412
0.607843 0.886275 0.133333
0.635294 0.886275 0.137255
0.666667 0.886275 0.141176
0.694118 0.886275 0.145098
0.721569 0.886275 0.149020
0.749020 0.886275 0.149020
0.792157 0.882353 0.149020
0.815686 0.878431 0.145098
0.835294 0.874510 0.133333
0.854902 0.870588 0.121569
0.870588 0.866667 0.105882
0.886275 0.858824 0.082353
0.898039 0.850980 0.050980
0.909804 0.839216 0.011765
0.917647 0.827451 0.000000
0.925490 0.811765 0.000000
0.929412 0.796078 0.000000
0.933333 0.776471 0.000000
0.941176 0.756863 0.000000
0.949020 0.741176 0.000000
0.952941 0.725490 0.000000
0.964706 0.725490 0.047059
0.490196 0.909804 0.149020
0.501961 0.909804 0.152941
0.509804 0.909804 0.156863
0.517647 0.909804 0.152941
0.525490 0.909804 0.152941
0.537255 0.909804 0.152941
0.552941 0.909804 0.156863
0.572549 0.909804 0.156863
0.592157 0.909804 0.160784
0.615686 0.909804 0.168627
0.643137 0.909804 0.172549
0.666667 0.909804 0.176471
0.694118 0.909804 0.180392
0.721569 0.909804 0.184314
0.745098 0.905882 0.188235
0.772549 0.905882 0.192157
0.811765 0.905882 0.192157
0.835294 0.901961 0.188235
0.854902 0.901961 0.184314
0.870588 0.898039 0.172549
0.886275 0.894118 0.156863
0.901961 0.886275 0.141176
0.913725 0.882353 0.117647
0.925490 0.874510 0.094118
0.937255 0.866667 0.062745
0.945098 0.854902 0.019608
0.952941 0.843137 0.000000
0.956863 0.827451 0.000000
0.960784 0.811765 0.000000
0.968627 0.796078 0.000000
0.976471 0.784314 0.000000
0.984314 0.776471 0.000000
0.533333 0.929412 0.180392
0.545098 0.929412 0.184314
0.549020 0.929412 0.184314
0.552941 0.929412 0.184314
0.560784 0.925490 0.184314
0.572549 0.925490 0.184314
0.588235 0.925490 0.188235
0.607843 0.925490 0.192157
0.627451 0.925490 0.196078
0.647059 0.925490 0.200000
0.670588 0.925490 0.203922
0.694118 0.925490 0.207843
0.717647 0.925490 0.211765
0.741176 0.925490 0.215686
0.764706 0.925490 0.219608
0.788235 0.925490 0.219608
0.823529 0.921569 0.223529
0.847059 0.921569 0.219608
0.866667 0.917647 0.215686
0.882353 0.917647 0.207843
0.898039 0.913725 0.200000
0.913725 0.909804 0.184314
0.925490 0.905882 0.168627
