luts/test_warm.cube
TITLE "TEST Warm"
LUT_3D_SIZE 9
DOMAIN_MIN 0.0 0.0 0.0
DOMAIN_MAX 1.0 1.0 1.0
0.120000 0.000000 0.000000
0.245000 0.000000 0.000000
0.370000 0.000000 0.000000
0.495000 0.000000 0.000000
0.620000 0.000000 0.000000
0.745000 0.000000 0.000000
0.870000 0.000000 0.000000
0.995000 0.000000 0.000000
1.000000 0.000000 0.000000
0.120000 0.118750 0.000000
0.245000 0.118750 0.000000
0.370000 0.118750 0.000000
0.495000 0.118750 0.000000
0.620000 0.118750 0.000000
0.745000 0.118750 0.000000
0.870000 0.118750 0.000000
0.995000 0.118750 0.000000
1.000000 0.118750 0.000000
0.120000 0.237500 0.000000
0.245000 0.237500 0.000000
0.370000 0.237500 0.000000
0.495000 0.237500 0.000000
0.620000 0.237500 0.000000
0.745000 0.237500 0.000000
0.870000 0.237500 0.000000
0.995000 0.237500 0.000000
1.000000 0.237500 0.000000
0.120000 0.356250 0.000000
0.245000 0.356250 0.000000
0.370000 0.356250 0.000000
0.495000 0.356250 0.000000
0.620000 0.356250 0.000000
0.745000 0.356250 0.000000
0.870000 0.356250 0.000000
0.995000 0.356250 0.000000
1.000000 0.356250 0.000000
0.120000 0.475000 0.000000
0.245000 0.475000 0.000000
0.370000 0.475000 0.000000
0.495000 0.475000 0.000000
0.620000 0.475000 0.000000
0.745000 0.475000 0.000000
0.870000 0.475000 0.000000
0.995000 0.475000 0.000000
1.000000 0.475000 0.000000
0.120000 0.593750 0.000000
0.245000 0.593750 0.000000
0.370000 0.593750 0.000000
0.495000 0.593750 0.000000
0.620000 0.593750 0.000000
0.745000 0.593750 0.000000
0.870000 0.593750 0.000000
0.995000 0.593750 0.000000
1.000000 0.593750 0.000000
0.120000 0.712500 0.000000
0.245000 0.712500 0.000000
0.370000 0.712500 0.000000
0.495000 0.712500 0.000000
0.620000 0.712500 0.000000
0.745000 0.712500 0.000000
0.870000 0.712500 0.000000
0.995000 0.712500 0.000000
1.000000 0.712500 0.000000
0.120000 0.831250 0.000000
0.245000 0.831250 0.000000
0.370000 0.831250 0.000000
0.495000 0.831250 0.000000
0.620000 0.831250 0.000000
0.745000 0.831250 0.000000
0.870000 0.831250 0.000000
0.995000 0.831250 0.000000
1.000000 0.831250 0.000000
0.120000 0.950000 0.000000
0.245000 0.950000 0.000000
0.370000 0.950000 0.000000
0.495000 0.950000 0.000000
0.620000 0.950000 0.000000
0.745000 0.950000 0.000000
0.870000 0.950000 0.000000
0.995000 0.950000 0.000000
1.000000 0.950000 0.000000
0.120000 0.000000 0.090000
0.245000 0.000000 0.090000
0.370000 0.000000 0.090000
0.495000 0.000000 0.090000
0.620000 0.000000 0.090000
0.745000 0.000000 0.090000
0.870000 0.000000 0.090000
0.995000 0.000000 0.090000
1.000000 0.000000 0.090000
0.120000 0.118750 0.090000
0.245000 0.118750 0.090000
0.370000 0.118750 0.090000
0.495000 0.118750 0.090000
0.620000 0.118750 0.090000
0.745000 0.118750 0.090000
0.870000 0.118750 0.090000
0.995000 0.118750 0.090000
1.000000 0.118750 0.090000
0.120000 0.237500 0.090000
0.245000 0.237500 0.090000
0.370000 0.237500 0.090000
0.495000 0.237500 0.090000
0.620000 0.237500 0.090000
0.745000 0.237500 0.090000
0.870000 0.237500 0.090000
0.995000 0.237500 0.090000
1.000000 0.237500 0.090000
0.120000 0.356250 0.090000
0.245000 0.356250 0.090000
0.370000 0.356250 0.090000
0.495000 0.356250 0.090000
0.620000 0.356250 0.090000
0.745000 0.356250 0.090000
0.870000 0.356250 0.090000
0.995000 0.356250 0.090000
1.000000 0.356250 0.090000
0.120000 0.475000 0.090000
0.245000 0.475000 0.090000
0.370000 0.475000 0.090000
0.495000 0.475000 0.090000
0.620000 0.475000 0.090000
0.745000 0.475000 0.090000
0.870000 0.475000 0.090000
0.995000 0.475000 0.090000
1.000000 0.475000 0.090000
0.120000 0.593750 0.090000
0.245000 0.593750 0.090000
0.370000 0.593750 0.090000
0.495000 0.593750 0.090000
0.620000 0.593750 0.090000
0.745000 0.593750 0.090000
0.870000 0.593750 0.090000
0.995000 0.593750 0.090000
1.000000 0.593750 0.090000
0.120000 0.712500 0.090000
0.245000 0.712500 0.090000
0.370000 0.712500 0.090000
0.495000 0.712500 0.090000
0.620000 0.712500 0.090000
0.745000 0.712500 0.090000
0.870000 0.712500 0.090000
0.995000 0.712500 0.090000
1.000000 0.712500 0.090000
0.120000 0.831250 0.090000
0.245000 0.831250 0.090000
0.370000 0.831250 0.090000
0.495000 0.831250 0.090000
0.620000 0.831250 0.090000
0.745000 0.831250 0.090000
0.870000 0.831250 0.090000
0.995000 0.831250 0.090000
1.000000 0.831250 0.090000
0.120000 0.950000 0.090000
0.245000 0.950000 0.090000
0.370000 0.950000 0.090000
0.495000 0.950000 0.090000
0.620000 0.950000 0.090000
0.745000 0.950000 0.090000
0.870000 0.950000 0.090000
0.995000 0.950000 0.090000
1.000000 0.950000 0.090000
0.120000 0.000000 0.180000
0.245000 0.000000 0.180000
0.370000 0.000000 0.180000
0.495000 0.000000 0.180000
0.620000 0.000000 0.180000
0.745000 0.000000 0.180000
0.870000 0.000000 0.180000
0.995000 0.000000 0.180000
1.000000 0.000000 0.180000
0.120000 0.118750 0.180000
0.245000 0.118750 0.180000
0.370000 0.118750 0.180000
0.495000 0.118750 0.180000
0.620000 0.118750 0.180000
0.745000 0.118750 0.180000
0.870000 0.118750 0.180000
0.995000 0.118750 0.180000
1.000000 0.118750 0.180000
0.120000 0.237500 0.180000
0.245000 0.237500 0.180000
0.370000 0.237500 0.180000
0.495000 0.237500 0.180000
0.620000 0.237500 0.180000
0.745000 0.237500 0.180000
0.870000 0.237500 0.180000
0.995000 0.237500 0.180000
1.000000 0.237500 0.180000
0.120000 0.356250 0.180000
0.245000 0.356250 0.180000
0.370000 0.356250 0.180000
0.495000 0.356250 0.180000
0.620000 0.356250 0.180000
0.745000 0.356250 0.180000
0.870000 0.356250 0.180000
0.995000 0.356250 0.180000
1.000000 0.356250 0.180000
0.120000 0.475000 0.180000
0.245000 0.475000 0.180000
0.370000 0.475000 0.180000
0.495000 0.475000 0.180000
0.620000 0.475000 0.180000
0.745000 0.475000 0.180000
0.870000 0.475000 0.180000
0.995000 0.475000 0.180000
1.000000 0.475000 0.180000
0.120000 0.593750 0.180000
0.245000 0.593750 0.180000
0.370000 0.593750 0.180000
0.495000 0.593750 0.180000
0.620000 0.593750 0.180000
0.745000 0.593750 0.180000
0.870000 0.593750 0.180000
0.995000 0.593750 0.180000
1.000000 0.593750 0.180000
0.120000 0.712500 0.180000
0.245000 0.712500 0.180000
0.370000 0.712500 0.180000
0.495000 0.712500 0.180000
0.620000 0.712500 0.180000
0.745000 0.712500 0.180000
0.870000 0.712500 0.180000
0.995000 0.712500 0.180000
1.000000 0.712500 0.180000
0.120000 0.831250 0.180000
0.245000 0.831250 0.180000
0.370000 0.831250 0.180000
0.495000 0.831250 0.180000
0.620000 0.831250 0.180000
0.745000 0.831250 0.180000
0.870000 0.831250 0.180000
0.995000 0.831250 0.180000
1.000000 0.831250 0.180000
0.120000 0.950000 0.180000
0.245000 0.950000 0.180000
0.370000 0.950000 0.180000
0.495000 0.950000 0.180000
0.620000 0.950000 0.180000
0.745000 0.950000 0.180000
0.870000 0.950000 0.180000
0.995000 0.950000 0.180000
1.000000 0.950000 0.180000
0.120000 0.000000 0.270000
0.245000 0.000000 0.270000
0.370000 0.000000 0.270000
0.495000 0.000000 0.270000
0.620000 0.000000 0.270000
0.745000 0.000000 0.270000
0.870000 0.000000 0.270000
0.995000 0.000000 0.270000
1.000000 0.000000 0.270000
0.120000 0.118750 0.270000
0.245000 0.118750 0.270000
0.370000 0.118750 0.270000
0.495000 0.118750 0.270000
0.620000 0.118750 0.270000
0.745000 0.118750 0.270000
0.870000 0.118750 0.270000
0.995000 0.118750 0.270000
1.000000 0.118750 0.270000
0.120000 0.237500 0.270000
0.245000 0.237500 0.270000
0.370000 0.237500 0.270000
0.495000 0.237500 0.270000
0.620000 0.237500 0.270000
0.745000 0.237500 0.270000
0.870000 0.237500 0.270000
0.995000 0.237500 0.270000
1.000000 0.237500 0.270000
0.120000 0.356250 0.270000
0.245000 0.356250 0.270000
0.370000 0.356250 0.270000
0.495000 0.356250 0.270000
0.620000 0.356250 0.270000
0.745000 0.356250 0.270000
0.870000 0.356250 0.270000
0.995000 0.356250 0.270000
1.000000 0.356250 0.270000
0.120000 0.475000 0.270000
0.245000 0.475000 0.270000
0.370000 0.475000 0.270000
0.495000 0.475000 0.270000
0.620000 0.475000 0.270000
0.745000 0.475000 0.270000
0.870000 0.475000 0.270000
0.995000 0.475000 0.270000
1.000000 0.475000 0.270000
0.120000 0.593750 0.270000
0.245000 0.593750 0.270000
0.370000 0.593750 0.270000
0.495000 0.593750 0.270000
0.620000 0.593750 0.270000
0.745000 0.593750 0.270000
0.870000 0.593750 0.270000
0.995000 0.593750 0.270000
1.000000 0.593750 0.270000
0.120000 0.712500 0.270000
0.245000 0.712500 0.270000
0.370000 0.712500 0.270000
0.495000 0.712500 0.270000
0.620000 0.712500 0.270000
0.745000 0.712500 0.270000
0.870000 0.712500 0.270000
0.995000 0.712500 0.270000
1.000000 0.712500 0.270000
0.120000 0.831250 0.270000
0.245000 0.831250 0.270000
0.370000 0.831250 0.270000
0.495000 0.831250 0.270000
0.620000 0.831250 0.270000
0.745000 0.831250 0.270000
0.870000 0.831250 0.270000
0.995000 0.831250 0.270000
1.000000 0.831250 0.270000
0.120000 0.950000 0.270000
0.245000 0.950000 0.270000
0.370000 0.950000 0.270000
0.495000 0.950000 0.270000
0.620000 0.950000 0.270000
0.745000 0.950000 0.270000
0.870000 0.950000 0.270000
0.995000 0.950000 0.270000
1.000000 0.950000 0.270000
0.120000 0.000000 0.360000
0.245000 0.000000 0.360000
0.370000 0.000000 0.360000
0.495000 0.000000 0.360000
0.620000 0.000000 0.360000
0.745000 0.000000 0.360000
0.870000 0.000000 0.360000
0.995000 0.000000 0.360000
1.000000 0.000000 0.360000
0.120000 0.118750 0.360000
0.245000 0.118750 0.360000
0.370000 0.118750 0.360000
0.495000 0.118750 0.360000
0.620000 0.118750 0.360000
0.745000 0.118750 0.360000
0.870000 0.118750 0.360000
0.995000 0.118750 0.360000
1.000000 0.118750 0.360000
0.120000 0.237500 0.360000
0.245000 0.237500 0.360000
0.370000 0.237500 0.360000
0.495000 0.237500 0.360000
0.620000 0.237500 0.360000
0.745000 0.237500 0.360000
0.870000 0.237500 0.360000
0.995000 0.237500 0.360000
1.000000 0.237500 0.360000
0.120000 0.356250 0.360000
0.245000 0.356250 0.360000
0.370000 0.356250 0.360000
0.495000 0.356250 0.360000
0.620000 0.356250 0.360000
0.745000 0.356250 0.360000
0.870000 0.356250 0.360000
0.995000 0.356250 0.360000
1.000000 0.356250 0.360000
0.120000 0.475000 0.360000
0.245000 0.475000 0.360000
0.370000 0.475000 0.360000
0.495000 0.475000 0.360000
0.620000 0.475000 0.360000
0.745000 0.475000 0.360000
0.870000 0.475000 0.360000
0.995000 0.475000 0.360000
1.000000 0.475000 0.360000
0.120000 0.593750 0.360000
0.245000 0.593750 0.360000
0.370000 0.593750 0.360000
0.495000 0.593750 0.360000
0.620000 0.593750 0.360000
0.745000 0.593750 0.360000
0.870000 0.593750 0.360000
0.995000 0.593750 0.360000
1.000000 0.593750 0.360000
0.120000 0.712500 0.360000
0.245000 0.712500 0.360000
0.370000 0.712500 0.360000
0.495000 0.712500 0.360000
0.620000 0.712500 0.360000
0.745000 0.712500 0.360000
0.870000 0.712500 0.360000
0.995000 0.712500 0.360000
1.000000 0.712500 0.360000
0.120000 0.831250 0.360000
0.245000 0.831250 0.360000
0.370000 0.831250 0.360000
0.495000 0.831250 0.360000
0.620000 0.831250 0.360000
0.745000 0.831250 0.360000
0.870000 0.831250 0.360000
0.995000 0.831250 0.360000
1.000000 0.831250 0.360000
0.120000 0.950000 0.360000
0.245000 0.950000 0.360000
0.370000 0.950000 0.360000
0.495000 0.950000 0.360000
0.620000 0.950000 0.360000
0.745000 0.950000 0.360000
0.870000 0.950000 0.360000
0.995000 0.950000 0.360000
1.000000 0.950000 0.360000
0.120000 0.000000 0.450000
0.245000 0.000000 0.450000
0.370000 0.000000 0.450000
0.495000 0.000000 0.450000
0.620000 0.000000 0.450000
0.745000 0.000000 0.450000
0.870000 0.000000 0.450000
0.995000 0.000000 0.450000
1.000000 0.000000 0.450000
0.120000 0.118750 0.450000
0.245000 0.118750 0.450000
0.370000 0.118750 0.450000
0.495000 0.118750 0.450000
0.620000 0.118750 0.450000
0.745000 0.118750 0.450000
0.870000 0.118750 0.450000
0.995000 0.118750 0.450000
1.000000 0.118750 0.450000
0.120000 0.237500 0.450000
0.245000 0.237500 0.450000
0.370000 0.237500 0.450000
0.495000 0.237500 0.450000
0.620000 0.237500 0.450000
0.745000 0.237500 0.450000
0.870000 0.237500 0.450000
0.995000 0.237500 0.450000
1.000000 0.237500 0.450000
0.120000 0.356250 0.450000
0.245000 0.356250 0.450000
0.370000 0.356250 0.450000
0.495000 0.356250 0.450000
0.620000 0.356250 0.450000
0.745000 0.356250 0.450000
0.870000 0.356250 0.450000
0.995000 0.356250 0.450000
1.000000 0.356250 0.450000
0.120000 0.475000 0.450000
0.245000 0.475000 0.450000
0.370000 0.475000 0.450000
0.495000 0.475000 0.450000
0.620000 0.475000 0.450000
0.745000 0.475000 0.450000
0.870000 0.475000 0.450000
0.995000 0.475000 0.450000
1.000000 0.475000 0.450000
0.120000 0.593750 0.450000
0.245000 0.593750 0.450000
0.370000 0.593750 0.450000
0.495000 0.593750 0.450000
0.620000 0.593750 0.450000
0.745000 0.593750 0.450000
0.870000 0.593750 0.450000
0.995000 0.593750 0.450000
1.000000 0.593750 0.450000
0.120000 0.712500 0.450000
0.245000 0.712500 0.450000
0.370000 0.712500 0.450000
0.495000 0.712500 0.450000
0.620000 0.712500 0.450000
0.745000 0.712500 0.450000
0.870000 0.712500 0.450000
0.995000 0.712500 0.450000
1.000000 0.712500 0.450000
0.120000 0.831250 0.450000
0.245000 0.831250 0.450000
0.370000 0.831250 0.450000
0.495000 0.831250 0.450000
0.620000 0.831250 0.450000
0.745000 0.831250 0.450000
0.870000 0.831250 0.450000
0.995000 0.831250 0.450000
1.000000 0.831250 0.450000
0.120000 0.950000 0.450000
0.245000 0.950000 0.450000
0.370000 0.950000 0.450000
0.495000 0.950000 0.450000
0.620000 0.950000 0.450000
0.745000 0.950000 0.450000
0.870000 0.950000 0.450000
0.995000 0.950000 0.450000
1.000000 0.950000 0.450000
0.120000 0.000000 0.540000
0.245000 0.000000 0.540000
0.370000 0.000000 0.540000
0.495000 0.000000 0.540000
0.620000 0.000000 0.540000
0.745000 0.000000 0.540000
0.870000 0.000000 0.540000
0.995000 0.000000 0.540000
1.000000 0.000000 0.540000
0.120000 0.118750 0.540000
0.245000 0.118750 0.540000
0.370000 0.118750 0.540000
0.495000 0.118750 0.540000
0.620000 0.118750 0.540000
0.745000 0.118750 0.540000
0.870000 0.118750 0.540000
0.995000 0.118750 0.540000
1.000000 0.118750 0.540000
0.120000 0.237500 0.540000
0.245000 0.237500 0.540000
0.370000 0.237500 0.540000
0.495000 0.237500 0.540000
0.620000 0.237500 0.540000
0.745000 0.237500 0.540000
0.870000 0.237500 0.540000
0.995000 0.237500 0.540000
1.000000 0.237500 0.540000
0.120000 0.356250 0.540000
0.245000 0.356250 0.540000
0.370000 0.356250 0.540000
0.495000 0.356250 0.540000
0.620000 0.356250 0.540000
0.745000 0.356250 0.540000
0.870000 0.356250 0.540000
0.995000 0.356250 0.540000
1.000000 0.356250 0.540000
0.120000 0.475000 0.540000
0.245000 0.475000 0.540000
0.370000 0.475000 0.540000
0.495000 0.475000 0.540000
0.620000 0.475000 0.540000
0.745000 0.475000 0.540000
0.870000 0.475000 0.540000
0.995000 0.475000 0.540000
1.000000 0.475000 0.540000
0.120000 0.593750 0.540000
0.245000 0.593750 0.540000
0.370000 0.593750 0.540000
0.495000 0.593750 0.540000
0.620000 0.593750 0.540000
0.745000 0.593750 0.540000
0.870000 0.593750 0.540000
0.995000 0.593750 0.540000
1.000000 0.593750 0.540000
0.120000 0.712500 0.540000
0.245000 0.712500 0.540000
0.370000 0.712500 0.540000
0.495000 0.712500 0.540000
0.620000 0.712500 0.540000
0.745000 0.712500 0.540000
0.870000 0.712500 0.540000
0.995000 0.712500 0.540000
1.000000 0.712500 0.540000
0.120000 0.831250 0.540000
0.245000 0.831250 0.540000
0.370000 0.831250 0.540000
0.495000 0.831250 0.540000
0.620000 0.831250 0.540000
0.745000 0.831250 0.540000
0.870000 0.831250 0.540000
0.995000 0.831250 0.540000
1.000000 0.831250 0.540000
0.120000 0.950000 0.540000
0.245000 0.950000 0.540000
0.370000 0.950000 0.540000
0.495000 0.950000 0.540000
0.620000 0.950000 0.540000
0.745000 0.950000 0.540000
0.870000 0.950000 0.540000
0.995000 0.950000 0.540000
1.000000 0.950000 0.540000
0.120000 0.000000 0.630000
0.245000 0.000000 0.630000
0.370000 0.000000 0.630000
0.495000 0.000000 0.630000
0.620000 0.000000 0.630000
0.745000 0.000000 0.630000
0.870000 0.000000 0.630000
0.995000 0.000000 0.630000
1.000000 0.000000 0.630000
0.120000 0.118750 0.630000
0.245000 0.118750 0.630000
0.370000 0.118750 0.630000
0.495000 0.118750 0.630000
0.620000 0.118750 0.630000
0.745000 0.118750 0.630000
0.870000 0.118750 0.630000
0.995000 0.118750 0.630000
1.000000 0.118750 0.630000
0.120000 0.237500 0.630000
0.245000 0.237500 0.630000
0.370000 0.237500 0.630000
0.495000 0.237500 0.630000
0.620000 0.237500 0.630000
0.745000 0.237500 0.630000
0.870000 0.237500 0.630000
0.995000 0.237500 0.630000
1.000000 0.237500 0.630000
0.120000 0.356250 0.630000
0.245000 0.356250 0.630000
0.370000 0.356250 0.630000
0.495000 0.356250 0.630000
0.620000 0.356250 0.630000
0.745000 0.356250 0.630000
0.870000 0.356250 0.630000
0.995000 0.356250 0.630000
1.000000 0.356250 0.630000
0.120000 0.475000 0.630000
0.245000 0.475000 0.630000
0.370000 0.475000 0.630000
0.495000 0.475000 0.630000
0.620000 0.475000 0.630000
0.745000 0.475000 0.630000
0.870000 0.475000 0.630000
0.995000 0.475000 0.630000
1.000000 0.475000 0.630000
0.120000 0.593750 0.630000
0.245000 0.593750 0.630000
0.370000 0.593750 0.630000
0.495000 0.593750 0.630000
0.620000 0.593750 0.630000
0.745000 0.593750 0.630000
0.870000 0.593750 0.630000
0.995000 0.593750 0.630000
1.000000 0.593750 0.630000
0.120000 0.712500 0.630000
0.245000 0.712500 0.630000
0.370000 0.712500 0.630000
0.495000 0.712500 0.630000
0.620000 0.712500 0.630000
0.745000 0.712500 0.630000
0.870000 0.712500 0.630000
0.995000 0.712500 0.630000
1.000000 0.712500 0.630000
0.120000 0.831250 0.630000
0.245000 0.831250 0.630000
0.370000 0.831250 0.630000
0.495000 0.831250 0.630000
0.620000 0.831250 0.630000
0.745000 0.831250 0.630000
0.870000 0.831250 0.630000
0.995000 0.831250 0.630000
1.000000 0.831250 0.630000
0.120000 0.950000 0.630000
0.245000 0.950000 0.630000
0.370000 0.950000 0.630000
0.495000 0.950000 0.630000
0.620000 0.950000 0.630000
0.745000 0.950000 0.630000
0.870000 0.950000 0.630000
0.995000 0.950000 0.630000
1.000000 0.950000 0.630000
0.120000 0.000000 0.720000
0.245000 0.000000 0.720000
0.370000 0.000000 0.720000
0.495000 0.000000 0.720000
0.620000 0.000000 0.720000
0.745000 0.000000 0.720000
0.870000 0.000000 0.720000
0.995000 0.000000 0.720000
1.000000 0.000000 0.720000
0.120000 0.118750 0.720000
0.245000 0.118750 0.720000
0.370000 0.118750 0.720000
0.495000 0.118750 0.720000
0.620000 0.118750 0.720000
0.745000 0.118750 0.720000
0.870000 0.118750 0.720000
0.995000 0.118750 0.720000
1.000000 0.118750 0.720000
0.120000 0.237500 0.720000
0.245000 0.237500 0.720000
0.370000 0.237500 0.720000
0.495000 0.237500 0.720000
0.620000 0.237500 0.720000
0.745000 0.237500 0.720000
0.870000 0.237500 0.720000
0.995000 0.237500 0.720000
1.000000 0.237500 0.720000
0.120000 0.356250 0.720000
0.245000 0.356250 0.720000
0.370000 0.356250 0.720000
0.495000 0.356250 0.720000
0.620000 0.356250 0.720000
0.745000 0.356250 0.720000
0.870000 0.356250 0.720000
0.995000 0.356250 0.720000
1.000000 0.356250 0.720000
0.120000 0.475000 0.720000
0.245000 0.475000 0.720000
0.370000 0.475000 0.720000
0.495000 0.475000 0.720000
0.620000 0.475000 0.720000
0.745000 0.475000 0.720000
0.870000 0.475000 0.720000
0.995000 0.475000 0.720000
1.000000 0.475000 0.720000
0.120000 0.593750 0.720000
0.245000 0.593750 0.720000
0.370000 0.593750 0.720000
0.495000 0.593750 0.720000
0.620000 0.593750 0.720000
0.745000 0.593750 0.720000
0.870000 0.593750 0.720000
0.995000 0.593750 0.720000
1.000000 0.593750 0.720000
0.120000 0.712500 0.720000
0.245000 0.712500 0.720000
0.370000 0.712500 0.720000
0.495000 0.712500 0.720000
0.620000 0.712500 0.720000
0.745000 0.712500 0.720000
0.870000 0.712500 0.720000
0.995000 0.712500 0.720000
1.000000 0.712500 0.720000
0.120000 0.831250 0.720000
0.245000 0.831250 0.720000
0.370000 0.831250 0.720000
0.495000 0.831250 0.720000
0.620000 0.831250 0.720000
0.745000 0.831250 0.720000
0.870000 0.831250 0.720000
0.995000 0.831250 0.720000
1.000000 0.831250 0.720000
0.120000 0.950000 0.720000
0.245000 0.950000 0.720000
0.370000 0.950000 0.720000
0.495000 0.950000 0.720000
0.620000 0.950000 0.720000
0.745000 0.950000 0.720000
0.870000 0.950000 0.720000
0.995000 0.950000 0.720000
1.000000 0.950000 0.720000
