luts/test_warm.cube
TITLE "TEST Warm"
LUT_3D_SIZE 17
DOMAIN_MIN 0.0 0.0 0.0
DOMAIN_MAX 1.0 1.0 1.0
0.120000 0.000000 0.000000
0.182500 0.000000 0.000000
0.245000 0.000000 0.000000
0.307500 0.000000 0.000000
0.370000 0.000000 0.000000
0.432500 0.000000 0.000000
0.495000 0.000000 0.000000
0.557500 0.000000 0.000000
0.620000 0.000000 0.000000
0.682500 0.000000 0.000000
0.745000 0.000000 0.000000
0.807500 0.000000 0.000000
0.870000 0.000000 0.000000
0.932500 0.000000 0.000000
0.995000 0.000000 0.000000
1.000000 0.000000 0.000000
1.000000 0.000000 0.000000
0.120000 0.059375 0.000000
0.182500 0.059375 0.000000
0.245000 0.059375 0.000000
0.307500 0.059375 0.000000
0.370000 0.059375 0.000000
0.432500 0.059375 0.000000
0.495000 0.059375 0.000000
0.557500 0.059375 0.000000
0.620000 0.059375 0.000000
0.682500 0.059375 0.000000
0.745000 0.059375 0.000000
0.807500 0.059375 0.000000
0.870000 0.059375 0.000000
0.932500 0.059375 0.000000
0.995000 0.059375 0.000000
1.000000 0.059375 0.000000
1.000000 0.059375 0.000000
0.120000 0.118750 0.000000
0.182500 0.118750 0.000000
0.245000 0.118750 0.000000
0.307500 0.118750 0.000000
0.370000 0.118750 0.000000
0.432500 0.118750 0.000000
0.495000 0.118750 0.000000
0.557500 0.118750 0.000000
0.620000 0.118750 0.000000
0.682500 0.118750 0.000000
0.745000 0.118750 0.000000
0.807500 0.118750 0.000000
0.870000 0.118750 0.000000
0.932500 0.118750 0.000000
0.995000 0.118750 0.000000
1.000000 0.118750 0.000000
1.000000 0.118750 0.000000
0.120000 0.178125 0.000000
0.182500 0.178125 0.000000
0.245000 0.178125 0.000000
0.307500 0.178125 0.000000
0.370000 0.178125 0.000000
0.432500 0.178125 0.000000
0.495000 0.178125 0.000000
0.557500 0.178125 0.000000
0.620000 0.178125 0.000000
0.682500 0.178125 0.000000
0.745000 0.178125 0.000000
0.807500 0.178125 0.000000
0.870000 0.178125 0.000000
0.932500 0.178125 0.000000
0.995000 0.178125 0.000000
1.000000 0.178125 0.000000
1.000000 0.178125 0.000000
0.120000 0.237500 0.000000
0.182500 0.237500 0.000000
0.245000 0.237500 0.000000
0.307500 0.237500 0.000000
0.370000 0.237500 0.000000
0.432500 0.237500 0.000000
0.495000 0.237500 0.000000
0.557500 0.237500 0.000000
0.620000 0.237500 0.000000
0.682500 0.237500 0.000000
0.745000 0.237500 0.000000
0.807500 0.237500 0.000000
0.870000 0.237500 0.000000
0.932500 0.237500 0.000000
0.995000 0.237500 0.000000
1.000000 0.237500 0.000000
1.000000 0.237500 0.000000
0.120000 0.296875 0.000000
0.182500 0.296875 0.000000
0.245000 0.296875 0.000000
0.307500 0.296875 0.000000
0.370000 0.296875 0.000000
0.432500 0.296875 0.000000
0.495000 0.296875 0.000000
0.557500 0.296875 0.000000
0.620000 0.296875 0.000000
0.682500 0.296875 0.000000
0.745000 0.296875 0.000000
0.807500 0.296875 0.000000
0.870000 0.296875 0.000000
0.932500 0.296875 0.000000
0.995000 0.296875 0.000000
1.000000 0.296875 0.000000
1.000000 0.296875 0.000000
0.120000 0.356250 0.000000
0.182500 0.356250 0.000000
0.245000 0.356250 0.000000
0.307500 0.356250 0.000000
0.370000 0.356250 0.000000
0.432500 0.356250 0.000000
0.495000 0.356250 0.000000
0.557500 0.356250 0.000000
0.620000 0.356250 0.000000
0.682500 0.356250 0.000000
0.745000 0.356250 0.000000
0.807500 0.356250 0.000000
0.870000 0.356250 0.000000
0.932500 0.356250 0.000000
0.995000 0.356250 0.000000
1.000000 0.356250 0.000000
1.000000 0.356250 0.000000
0.120000 0.415625 0.000000
0.182500 0.415625 0.000000
0.245000 0.415625 0.000000
0.307500 0.415625 0.000000
0.370000 0.415625 0.000000
0.432500 0.415625 0.000000
0.495000 0.415625 0.000000
0.557500 0.415625 0.000000
0.620000 0.415625 0.000000
0.682500 0.415625 0.000000
0.745000 0.415625 0.000000
0.807500 0.415625 0.000000
0.870000 0.415625 0.000000
0.932500 0.415625 0.000000
0.995000 0.415625 0.000000
1.000000 0.415625 0.000000
1.000000 0.415625 0.000000
0.120000 0.475000 0.000000
0.182500 0.475000 0.000000
0.245000 0.475000 0.000000
0.307500 0.475000 0.000000
0.370000 0.475000 0.000000
0.432500 0.475000 0.000000
0.495000 0.475000 0.000000
0.557500 0.475000 0.000000
0.620000 0.475000 0.000000
0.682500 0.475000 0.000000
0.745000 0.475000 0.000000
0.807500 0.475000 0.000000
0.870000 0.475000 0.000000
0.932500 0.475000 0.000000
0.995000 0.475000 0.000000
1.000000 0.475000 0.000000
1.000000 0.475000 0.000000
0.120000 0.534375 0.000000
0.182500 0.534375 0.000000
0.245000 0.534375 0.000000
0.307500 0.534375 0.000000
0.370000 0.534375 0.000000
0.432500 0.534375 0.000000
0.495000 0.534375 0.000000
0.557500 0.534375 0.000000
0.620000 0.534375 0.000000
0.682500 0.534375 0.000000
0.745000 0.534375 0.000000
0.807500 0.534375 0.000000
0.870000 0.534375 0.000000
0.932500 0.534375 0.000000
0.995000 0.534375 0.000000
1.000000 0.534375 0.000000
1.000000 0.534375 0.000000
0.120000 0.593750 0.000000
0.182500 0.593750 0.000000
0.245000 0.593750 0.000000
0.307500 0.593750 0.000000
0.370000 0.593750 0.000000
0.432500 0.593750 0.000000
0.495000 0.593750 0.000000
0.557500 0.593750 0.000000
0.620000 0.593750 0.000000
0.682500 0.593750 0.000000
0.745000 0.593750 0.000000
0.807500 0.593750 0.000000
0.870000 0.593750 0.000000
0.932500 0.593750 0.000000
0.995000 0.593750 0.000000
1.000000 0.593750 0.000000
1.000000 0.593750 0.000000
0.120000 0.653125 0.000000
0.182500 0.653125 0.000000
0.245000 0.653125 0.000000
0.307500 0.653125 0.000000
0.370000 0.653125 0.000000
0.432500 0.653125 0.000000
0.495000 0.653125 0.000000
0.557500 0.653125 0.000000
0.620000 0.653125 0.000000
0.682500 0.653125 0.000000
0.745000 0.653125 0.000000
0.807500 0.653125 0.000000
0.870000 0.653125 0.000000
0.932500 0.653125 0.000000
0.995000 0.653125 0.000000
1.000000 0.653125 0.000000
1.000000 0.653125 0.000000
0.120000 0.712500 0.000000
0.182500 0.712500 0.000000
0.245000 0.712500 0.000000
0.307500 0.712500 0.000000
0.370000 0.712500 0.000000
0.432500 0.712500 0.000000
0.495000 0.712500 0.000000
0.557500 0.712500 0.000000
0.620000 0.712500 0.000000
0.682500 0.712500 0.000000
0.745000 0.712500 0.000000
0.807500 0.712500 0.000000
0.870000 0.712500 0.000000
0.932500 0.712500 0.000000
0.995000 0.712500 0.000000
1.000000 0.712500 0.000000
1.000000 0.712500 0.000000
0.120000 0.771875 0.000000
0.182500 0.771875 0.000000
0.245000 0.771875 0.000000
0.307500 0.771875 0.000000
0.370000 0.771875 0.000000
0.432500 0.771875 0.000000
0.495000 0.771875 0.000000
0.557500 0.771875 0.000000
0.620000 0.771875 0.000000
0.682500 0.771875 0.000000
0.745000 0.771875 0.000000
0.807500 0.771875 0.000000
0.870000 0.771875 0.000000
0.932500 0.771875 0.000000
0.995000 0.771875 0.000000
1.000000 0.771875 0.000000
1.000000 0.771875 0.000000
0.120000 0.831250 0.000000
0.182500 0.831250 0.000000
0.245000 0.831250 0.000000
0.307500 0.831250 0.000000
0.370000 0.831250 0.000000
0.432500 0.831250 0.000000
0.495000 0.831250 0.000000
0.557500 0.831250 0.000000
0.620000 0.831250 0.000000
0.682500 0.831250 0.000000
0.745000 0.831250 0.000000
0.807500 0.831250 0.000000
0.870000 0.831250 0.000000
0.932500 0.831250 0.000000
0.995000 0.831250 0.000000
1.000000 0.831250 0.000000
1.000000 0.831250 0.000000
0.120000 0.890625 0.000000
0.182500 0.890625 0.000000
0.245000 0.890625 0.000000
0.307500 0.890625 0.000000
0.370000 0.890625 0.000000
0.432500 0.890625 0.000000
0.495000 0.890625 0.000000
0.557500 0.890625 0.000000
0.620000 0.890625 0.000000
0.682500 0.890625 0.000000
0.745000 0.890625 0.000000
0.807500 0.890625 0.000000
0.870000 0.890625 0.000000
0.932500 0.890625 0.000000
0.995000 0.890625 0.000000
1.000000 0.890625 0.000000
1.000000 0.890625 0.000000
0.120000 0.950000 0.000000
0.182500 0.950000 0.000000
0.245000 0.950000 0.000000
0.307500 0.950000 0.000000
0.370000 0.950000 0.000000
0.432500 0.950000 0.000000
0.495000 0.950000 0.000000
0.557500 0.950000 0.000000
0.620000 0.950000 0.000000
0.682500 0.950000 0.000000
0.745000 0.950000 0.000000
0.807500 0.950000 0.000000
0.870000 0.950000 0.000000
0.932500 0.950000 0.000000
0.995000 0.950000 0.000000
1.000000 0.950000 0.000000
1.000000 0.950000 0.000000
0.120000 0.000000 0.045000
0.182500 0.000000 0.045000
0.245000 0.000000 0.045000
0.307500 0.000000 0.045000
0.370000 0.000000 0.045000
0.432500 0.000000 0.045000
0.495000 0.000000 0.045000
0.557500 0.000000 0.045000
0.620000 0.000000 0.045000
0.682500 0.000000 0.045000
0.745000 0.000000 0.045000
0.807500 0.000000 0.045000
0.870000 0.000000 0.045000
0.932500 0.000000 0.045000
0.995000 0.000000 0.045000
1.000000 0.000000 0.045000
1.000000 0.000000 0.045000
0.120000 0.059375 0.045000
0.182500 0.059375 0.045000
0.245000 0.059375 0.045000
0.307500 0.059375 0.045000
0.370000 0.059375 0.045000
0.432500 0.059375 0.045000
0.495000 0.059375 0.045000
0.557500 0.059375 0.045000
0.620000 0.059375 0.045000
0.682500 0.059375 0.045000
0.745000 0.059375 0.045000
0.807500 0.059375 0.045000
0.870000 0.059375 0.045000
0.932500 0.059375 0.045000
0.995000 0.059375 0.045000
1.000000 0.059375 0.045000
1.000000 0.059375 0.045000
0.120000 0.118750 0.045000
0.182500 0.118750 0.045000
0.245000 0.118750 0.045000
0.307500 0.118750 0.045000
0.370000 0.118750 0.045000
0.432500 0.118750 0.045000
0.495000 0.118750 0.045000
0.557500 0.118750 0.045000
0.620000 0.118750 0.045000
0.682500 0.118750 0.045000
0.745000 0.118750 0.045000
0.807500 0.118750 0.045000
0.870000 0.118750 0.045000
0.932500 0.118750 0.045000
0.995000 0.118750 0.045000
1.000000 0.118750 0.045000
1.000000 0.118750 0.045000
0.120000 0.178125 0.045000
0.182500 0.178125 0.045000
0.245000 0.178125 0.045000
0.307500 0.178125 0.045000
0.370000 0.178125 0.045000
0.432500 0.178125 0.045000
0.495000 0.178125 0.045000
0.557500 0.178125 0.045000
0.620000 0.178125 0.045000
0.682500 0.178125 0.045000
0.745000 0.178125 0.045000
0.807500 0.178125 0.045000
0.870000 0.178125 0.045000
0.932500 0.178125 0.045000
0.995000 0.178125 0.045000
1.000000 0.178125 0.045000
1.000000 0.178125 0.045000
0.120000 0.237500 0.045000
0.182500 0.237500 0.045000
0.245000 0.237500 0.045000
0.307500 0.237500 0.045000
0.370000 0.237500 0.045000
0.432500 0.237500 0.045000
0.495000 0.237500 0.045000
0.557500 0.237500 0.045000
0.620000 0.237500 0.045000
0.682500 0.237500 0.045000
0.745000 0.237500 0.045000
0.807500 0.237500 0.045000
0.870000 0.237500 0.045000
0.932500 0.237500 0.045000
0.995000 0.237500 0.045000
1.000000 0.237500 0.045000
1.000000 0.237500 0.045000
0.120000 0.296875 0.045000
0.182500 0.296875 0.045000
0.245000 0.296875 0.045000
0.307500 0.296875 0.045000
0.370000 0.296875 0.045000
0.432500 0.296875 0.045000
0.495000 0.296875 0.045000
0.557500 0.296875 0.045000
0.620000 0.296875 0.045000
0.682500 0.296875 0.045000
0.745000 0.296875 0.045000
0.807500 0.296875 0.045000
0.870000 0.296875 0.045000
0.932500 0.296875 0.045000
0.995000 0.296875 0.045000
1.000000 0.296875 0.045000
1.000000 0.296875 0.045000
0.120000 0.356250 0.045000
0.182500 0.356250 0.045000
0.245000 0.356250 0.045000
0.307500 0.356250 0.045000
0.370000 0.356250 0.045000
0.432500 0.356250 0.045000
0.495000 0.356250 0.045000
0.557500 0.356250 0.045000
0.620000 0.356250 0.045000
0.682500 0.356250 0.045000
0.745000 0.356250 0.045000
0.807500 0.356250 0.045000
0.870000 0.356250 0.045000
0.932500 0.356250 0.045000
0.995000 0.356250 0.045000
1.000000 0.356250 0.045000
1.000000 0.356250 0.045000
0.120000 0.415625 0.045000
0.182500 0.415625 0.045000
0.245000 0.415625 0.045000
0.307500 0.415625 0.045000
0.370000 0.415625 0.045000
0.432500 0.415625 0.045000
0.495000 0.415625 0.045000
0.557500 0.415625 0.045000
0.620000 0.415625 0.045000
0.682500 0.415625 0.045000
0.745000 0.415625 0.045000
0.807500 0.415625 0.045000
0.870000 0.415625 0.045000
0.932500 0.415625 0.045000
0.995000 0.415625 0.045000
1.000000 0.415625 0.045000
1.000000 0.415625 0.045000
0.120000 0.475000 0.045000
0.182500 0.475000 0.045000
0.245000 0.475000 0.045000
0.307500 0.475000 0.045000
0.370000 0.475000 0.045000
0.432500 0.475000 0.045000
0.495000 0.475000 0.045000
0.557500 0.475000 0.045000
0.620000 0.475000 0.045000
0.682500 0.475000 0.045000
0.745000 0.475000 0.045000
0.807500 0.475000 0.045000
0.870000 0.475000 0.045000
0.932500 0.475000 0.045000
0.995000 0.475000 0.045000
1.000000 0.475000 0.045000
1.000000 0.475000 0.045000
0.120000 0.534375 0.045000
0.182500 0.534375 0.045000
0.245000 0.534375 0.045000
0.307500 0.534375 0.045000
0.370000 0.534375 0.045000
0.432500 0.534375 0.045000
0.495000 0.534375 0.045000
0.557500 0.534375 0.045000
0.620000 0.534375 0.045000
0.682500 0.534375 0.045000
0.745000 0.534375 0.045000
0.807500 0.534375 0.045000
0.870000 0.534375 0.045000
0.932500 0.534375 0.045000
0.995000 0.534375 0.045000
1.000000 0.534375 0.045000
1.000000 0.534375 0.045000
0.120000 0.593750 0.045000
0.182500 0.593750 0.045000
0.245000 0.593750 0.045000
0.307500 0.593750 0.045000
0.370000 0.593750 0.045000
0.432500 0.593750 0.045000
0.495000 0.593750 0.045000
0.557500 0.593750 0.045000
0.620000 0.593750 0.045000
0.682500 0.593750 0.045000
0.745000 0.593750 0.045000
0.807500 0.593750 0.045000
0.870000 0.593750 0.045000
0.932500 0.593750 0.045000
0.995000 0.593750 0.045000
1.000000 0.593750 0.045000
1.000000 0.593750 0.045000
0.120000 0.653125 0.045000
0.182500 0.653125 0.045000
0.245000 0.653125 0.045000
0.307500 0.653125 0.045000
0.370000 0.653125 0.045000
0.432500 0.653125 0.045000
0.495000 0.653125 0.045000
0.557500 0.653125 0.045000
0.620000 0.653125 0.045000
0.682500 0.653125 0.045000
0.745000 0.653125 0.045000
0.807500 0.653125 0.045000
0.870000 0.653125 0.045000
0.932500 0.653125 0.045000
0.995000 0.653125 0.045000
1.000000 0.653125 0.045000
1.000000 0.653125 0.045000
0.120000 0.712500 0.045000
0.182500 0.712500 0.045000
0.245000 0.712500 0.045000
0.307500 0.712500 0.045000
0.370000 0.712500 0.045000
0.432500 0.712500 0.045000
0.495000 0.712500 0.045000
0.557500 0.712500 0.045000
0.620000 0.712500 0.045000
0.682500 0.712500 0.045000
0.745000 0.712500 0.045000
0.807500 0.712500 0.045000
0.870000 0.712500 0.045000
0.932500 0.712500 0.045000
0.995000 0.712500 0.045000
1.000000 0.712500 0.045000
1.000000 0.712500 0.045000
0.120000 0.771875 0.045000
0.182500 0.771875 0.045000
0.245000 0.771875 0.045000
0.307500 0.771875 0.045000
0.370000 0.771875 0.045000
0.432500 0.771875 0.045000
0.495000 0.771875 0.045000
0.557500 0.771875 0.045000
0.620000 0.771875 0.045000
0.682500 0.771875 0.045000
0.745000 0.771875 0.045000
0.807500 0.771875 0.045000
0.870000 0.771875 0.045000
0.932500 0.771875 0.045000
0.995000 0.771875 0.045000
1.000000 0.771875 0.045000
1.000000 0.771875 0.045000
0.120000 0.831250 0.045000
0.182500 0.831250 0.045000
0.245000 0.831250 0.045000
0.307500 0.831250 0.045000
0.370000 0.831250 0.045000
0.432500 0.831250 0.045000
0.495000 0.831250 0.045000
0.557500 0.831250 0.045000
0.620000 0.831250 0.045000
0.682500 0.831250 0.045000
0.745000 0.831250 0.045000
0.807500 0.831250 0.045000
0.870000 0.831250 0.045000
0.932500 0.831250 0.045000
0.995000 0.831250 0.045000
1.000000 0.831250 0.045000
1.000000 0.831250 0.045000
0.120000 0.890625 0.045000
0.182500 0.890625 0.045000
0.245000 0.890625 0.045000
0.307500 0.890625 0.045000
0.370000 0.890625 0.045000
0.432500 0.890625 0.045000
0.495000 0.890625 0.045000
0.557500 0.890625 0.045000
0.620000 0.890625 0.045000
0.682500 0.890625 0.045000
0.745000 0.890625 0.045000
0.807500 0.890625 0.045000
0.870000 0.890625 0.045000
0.932500 0.890625 0.045000
0.995000 0.890625 0.045000
1.000000 0.890625 0.045000
1.000000 0.890625 0.045000
0.120000 0.950000 0.045000
0.182500 0.950000 0.045000
0.245000 0.950000 0.045000
0.307500 0.950000 0.045000
0.370000 0.950000 0.045000
0.432500 0.950000 0.045000
0.495000 0.950000 0.045000
0.557500 0.950000 0.045000
0.620000 0.950000 0.045000
0.682500 0.950000 0.045000
0.745000 0.950000 0.045000
0.807500 0.950000 0.045000
0.870000 0.950000 0.045000
0.932500 0.950000 0.045000
0.995000 0.950000 0.045000
1.000000 0.950000 0.045000
1.000000 0.950000 0.045000
0.120000 0.000000 0.090000
0.182500 0.000000 0.090000
0.245000 0.000000 0.090000
0.307500 0.000000 0.090000
0.370000 0.000000 0.090000
0.432500 0.000000 0.090000
0.495000 0.000000 0.090000
0.557500 0.000000 0.090000
0.620000 0.000000 0.090000
0.682500 0.000000 0.090000
0.745000 0.000000 0.090000
0.807500 0.000000 0.090000
0.870000 0.000000 0.090000
0.932500 0.000000 0.090000
0.995000 0.000000 0.090000
1.000000 0.000000 0.090000
1.000000 0.000000 0.090000
0.120000 0.059375 0.090000
0.182500 0.059375 0.090000
0.245000 0.059375 0.090000
0.307500 0.059375 0.090000
0.370000 0.059375 0.090000
0.432500 0.059375 0.090000
0.495000 0.059375 0.090000
0.557500 0.059375 0.090000
0.620000 0.059375 0.090000
0.682500 0.059375 0.090000
0.745000 0.059375 0.090000
0.807500 0.059375 0.090000
0.870000 0.059375 0.090000
0.932500 0.059375 0.090000
0.995000 0.059375 0.090000
1.000000 0.059375 0.090000
1.000000 0.059375 0.090000
0.120000 0.118750 0.090000
0.182500 0.118750 0.090000
0.245000 0.118750 0.090000
0.307500 0.118750 0.090000
0.370000 0.118750 0.090000
0.432500 0.118750 0.090000
0.495000 0.118750 0.090000
0.557500 0.118750 0.090000
0.620000 0.118750 0.090000
0.682500 0.118750 0.090000
0.745000 0.118750 0.090000
0.807500 0.118750 0.090000
0.870000 0.118750 0.090000
0.932500 0.118750 0.090000
0.995000 0.118750 0.090000
1.000000 0.118750 0.090000
1.000000 0.118750 0.090000
0.120000 0.178125 0.090000
0.182500 0.178125 0.090000
0.245000 0.178125 0.090000
0.307500 0.178125 0.090000
0.370000 0.178125 0.090000
0.432500 0.178125 0.090000
0.495000 0.178125 0.090000
0.557500 0.178125 0.090000
0.620000 0.178125 0.090000
0.682500 0.178125 0.090000
0.745000 0.178125 0.090000
0.807500 0.178125 0.090000
0.870000 0.178125 0.090000
0.932500 0.178125 0.090000
0.995000 0.178125 0.090000
1.000000 0.178125 0.090000
1.000000 0.178125 0.090000
0.120000 0.237500 0.090000
0.182500 0.237500 0.090000
0.245000 0.237500 0.090000
0.307500 0.237500 0.090000
0.370000 0.237500 0.090000
0.432500 0.237500 0.090000
0.495000 0.237500 0.090000
0.557500 0.237500 0.090000
0.620000 0.237500 0.090000
0.682500 0.237500 0.090000
0.745000 0.237500 0.090000
0.807500 0.237500 0.090000
0.870000 0.237500 0.090000
0.932500 0.237500 0.090000
0.995000 0.237500 0.090000
1.000000 0.237500 0.090000
1.000000 0.237500 0.090000
0.120000 0.296875 0.090000
0.182500 0.296875 0.090000
0.245000 0.296875 0.090000
0.307500 0.296875 0.090000
0.370000 0.296875 0.090000
0.432500 0.296875 0.090000
0.495000 0.296875 0.090000
0.557500 0.296875 0.090000
0.620000 0.296875 0.090000
0.682500 0.296875 0.090000
0.745000 0.296875 0.090000
0.807500 0.296875 0.090000
0.870000 0.296875 0.090000
0.932500 0.296875 0.090000
0.995000 0.296875 0.090000
1.000000 0.296875 0.090000
1.000000 0.296875 0.090000
0.120000 0.356250 0.090000
0.182500 0.356250 0.090000
0.245000 0.356250 0.090000
0.307500 0.356250 0.090000
0.370000 0.356250 0.090000
0.432500 0.356250 0.090000
0.495000 0.356250 0.090000
0.557500 0.356250 0.090000
0.620000 0.356250 0.090000
0.682500 0.356250 0.090000
0.745000 0.356250 0.090000
0.807500 0.356250 0.090000
0.870000 0.356250 0.090000
0.932500 0.356250 0.090000
0.995000 0.356250 0.090000
1.000000 0.356250 0.090000
1.000000 0.356250 0.090000
0.120000 0.415625 0.090000
0.182500 0.415625 0.090000
0.245000 0.415625 0.090000
0.307500 0.415625 0.090000
0.370000 0.415625 0.090000
0.432500 0.415625 0.090000
0.495000 0.415625 0.090000
0.557500 0.415625 0.090000
0.620000 0.415625 0.090000
0.682500 0.415625 0.090000
0.745000 0.415625 0.090000
0.807500 0.415625 0.090000
0.870000 0.415625 0.090000
0.932500 0.415625 0.090000
0.995000 0.415625 0.090000
1.000000 0.415625 0.090000
1.000000 0.415625 0.090000
0.120000 0.475000 0.090000
0.182500 0.475000 0.090000
0.245000 0.475000 0.090000
0.307500 0.475000 0.090000
0.370000 0.475000 0.090000
0.432500 0.475000 0.090000
0.495000 0.475000 0.090000
0.557500 0.475000 0.090000
0.620000 0.475000 0.090000
0.682500 0.475000 0.090000
0.745000 0.475000 0.090000
0.807500 0.475000 0.090000
0.870000 0.475000 0.090000
0.932500 0.475000 0.090000
0.995000 0.475000 0.090000
1.000000 0.475000 0.090000
1.000000 0.475000 0.090000
0.120000 0.534375 0.090000
0.182500 0.534375 0.090000
0.245000 0.534375 0.090000
0.307500 0.534375 0.090000
0.370000 0.534375 0.090000
0.432500 0.534375 0.090000
0.495000 0.534375 0.090000
0.557500 0.534375 0.090000
0.620000 0.534375 0.090000
0.682500 0.534375 0.090000
0.745000 0.534375 0.090000
0.807500 0.534375 0.090000
0.870000 0.534375 0.090000
0.932500 0.534375 0.090000
0.995000 0.534375 0.090000
1.000000 0.534375 0.090000
1.000000 0.534375 0.090000
0.120000 0.593750 0.090000
0.182500 0.593750 0.090000
0.245000 0.593750 0.090000
0.307500 0.593750 0.090000
0.370000 0.593750 0.090000
0.432500 0.593750 0.090000
0.495000 0.593750 0.090000
0.557500 0.593750 0.090000
0.620000 0.593750 0.090000
0.682500 0.593750 0.090000
0.745000 0.593750 0.090000
0.807500 0.593750 0.090000
0.870000 0.593750 0.090000
0.932500 0.593750 0.090000
0.995000 0.593750 0.090000
1.000000 0.593750 0.090000
1.000000 0.593750 0.090000
0.120000 0.653125 0.090000
0.182500 0.653125 0.090000
0.245000 0.653125 0.090000
0.307500 0.653125 0.090000
0.370000 0.653125 0.090000
0.432500 0.653125 0.090000
0.495000 0.653125 0.090000
0.557500 0.653125 0.090000
0.620000 0.653125 0.090000
0.682500 0.653125 0.090000
0.745000 0.653125 0.090000
0.807500 0.653125 0.090000
0.870000 0.653125 0.090000
0.932500 0.653125 0.090000
0.995000 0.653125 0.090000
1.000000 0.653125 0.090000
1.000000 0.653125 0.090000
0.120000 0.712500 0.090000
0.182500 0.712500 0.090000
0.245000 0.712500 0.090000
0.307500 0.712500 0.090000
0.370000 0.712500 0.090000
0.432500 0.712500 0.090000
0.495000 0.712500 0.090000
0.557500 0.712500 0.090000
0.620000 0.712500 0.090000
0.682500 0.712500 0.090000
0.745000 0.712500 0.090000
0.807500 0.712500 0.090000
0.870000 0.712500 0.090000
0.932500 0.712500 0.090000
0.995000 0.712500 0.090000
1.000000 0.712500 0.090000
1.000000 0.712500 0.090000
0.120000 0.771875 0.090000
0.182500 0.771875 0.090000
0.245000 0.771875 0.090000
0.307500 0.771875 0.090000
0.370000 0.771875 0.090000
0.432500 0.771875 0.090000
0.495000 0.771875 0.090000
0.557500 0.771875 0.090000
0.620000 0.771875 0.090000
0.682500 0.771875 0.090000
0.745000 0.771875 0.090000
0.807500 0.771875 0.090000
0.870000 0.771875 0.090000
0.932500 0.771875 0.090000
0.995000 0.771875 0.090000
1.000000 0.771875 0.090000
1.000000 0.771875 0.090000
0.120000 0.831250 0.090000
0.182500 0.831250 0.090000
0.245000 0.831250 0.090000
0.307500 0.831250 0.090000
0.370000 0.831250 0.090000
0.432500 0.831250 0.090000
0.495000 0.831250 0.090000
0.557500 0.831250 0.090000
0.620000 0.831250 0.090000
0.682500 0.831250 0.090000
0.745000 0.831250 0.090000
0.807500 0.831250 0.090000
0.870000 0.831250 0.090000
0.932500 0.831250 0.090000
0.995000 0.831250 0.090000
1.000000 0.831250 0.090000
1.000000 0.831250 0.090000
0.120000 0.890625 0.090000
0.182500 0.890625 0.090000
0.245000 0.890625 0.090000
0.307500 0.890625 0.090000
0.370000 0.890625 0.090000
0.432500 0.890625 0.090000
0.495000 0.890625 0.090000
0.557500 0.890625 0.090000
0.620000 0.890625 0.090000
0.682500 0.890625 0.090000
0.745000 0.890625 0.090000
0.807500 0.890625 0.090000
0.870000 0.890625 0.090000
0.932500 0.890625 0.090000
0.995000 0.890625 0.090000
1.000000 0.890625 0.090000
1.000000 0.890625 0.090000
0.120000 0.950000 0.090000
0.182500 0.950000 0.090000
0.245000 0.950000 0.090000
0.307500 0.950000 0.090000
0.370000 0.950000 0.090000
0.432500 0.950000 0.090000
0.495000 0.950000 0.090000
0.557500 0.950000 0.090000
0.620000 0.950000 0.090000
0.682500 0.950000 0.090000
0.745000 0.950000 0.090000
0.807500 0.950000 0.090000
0.870000 0.950000 0.090000
0.932500 0.950000 0.090000
0.995000 0.950000 0.090000
1.000000 0.950000 0.090000
1.000000 0.950000 0.090000
0.120000 0.000000 0.135000
0.182500 0.000000 0.135000
0.245000 0.000000 0.135000
0.307500 0.000000 0.135000
0.370000 0.000000 0.135000
0.432500 0.000000 0.135000
0.495000 0.000000 0.135000
0.557500 0.000000 0.135000
0.620000 0.000000 0.135000
0.682500 0.000000 0.135000
0.745000 0.000000 0.135000
0.807500 0.000000 0.135000
0.870000 0.000000 0.135000
0.932500 0.000000 0.135000
0.995000 0.000000 0.135000
1.000000 0.000000 0.135000
1.000000 0.000000 0.135000
0.120000 0.059375 0.135000
